assets/luts/generated_genre/bs_action_teal_orange_punch_ecebec11ef93c2d4.cube
# V4 spec-generated LUT — bs_action_teal_orange_punch
# Genre: action
# Look: Modern action teal-orange — crushed blacks, punchy mids, saturated. Van Hoytema/Tenet, Fraser/The Ba
# Spec hash: ecebec11ef93c2d4
TITLE "V4 Spec LUT — bs_action_teal_orange_punch"
LUT_3D_SIZE 9
DOMAIN_MIN 0.0 0.0 0.0
DOMAIN_MAX 1.0 1.0 1.0
0.000000 0.021132 0.043132
0.029010 0.019400 0.039534
0.175775 0.015960 0.032388
0.328045 0.012390 0.024974
0.483579 0.008745 0.017401
0.641469 0.005044 0.009713
0.801212 0.001299 0.001935
0.962486 0.000000 0.000000
1.000000 0.000000 0.000000
0.000000 0.088428 0.031030
0.031552 0.086697 0.027433
0.178317 0.083256 0.020287
0.330586 0.079687 0.012873
0.486120 0.076041 0.005299
0.644011 0.072340 0.000000
0.803754 0.068596 0.000000
0.965028 0.064815 0.000000
1.000000 0.061004 0.000000
0.000000 0.222120 0.006990
0.036601 0.220388 0.003393
0.183367 0.216948 0.000000
0.335636 0.213378 0.000000
0.491170 0.209733 0.000000
0.649060 0.206032 0.000000
0.808803 0.202287 0.000000
0.970077 0.198507 0.000000
1.000000 0.194696 0.000000
0.000000 0.360824 0.000000
0.041840 0.359093 0.000000
0.188606 0.355652 0.000000
0.340875 0.352083 0.000000
0.496409 0.348437 0.000000
0.654299 0.344736 0.000000
0.814042 0.340992 0.000000
0.975316 0.337211 0.000000
1.000000 0.333400 0.000000
0.000000 0.502503 0.000000
0.047192 0.500771 0.000000
0.193957 0.497331 0.000000
0.346226 0.493762 0.000000
0.501760 0.490116 0.000000
0.659651 0.486415 0.000000
0.819137 0.482752 0.000000
0.976293 0.480284 0.000000
1.000000 0.477796 0.000000
0.000000 0.646328 0.000000
0.052624 0.644596 0.000000
0.199390 0.641156 0.000000
0.349922 0.638140 0.000000
0.501485 0.635760 0.000000
0.655344 0.633344 0.000000
0.811008 0.630899 0.000000
0.968165 0.628431 0.000000
1.000000 0.625943 0.000000
0.000000 0.793732 0.000000
0.050297 0.792602 0.000000
0.193316 0.790356 0.000000
0.341698 0.788025 0.000000
0.493261 0.785645 0.000000
0.647120 0.783229 0.000000
0.802784 0.780784 0.000000
0.959941 0.778316 0.000000
1.000000 0.775828 0.000000
0.000000 0.945054 0.000000
0.041995 0.943924 0.000000
0.185013 0.941678 0.000000
0.333395 0.939347 0.000000
0.484958 0.936967 0.000000
0.638817 0.934551 0.000000
0.794481 0.932106 0.000000
0.951638 0.929638 0.000000
1.000000 0.927150 0.000000
0.000000 1.000000 0.000000
0.033625 1.000000 0.000000
0.176643 1.000000 0.000000
0.325025 1.000000 0.000000
0.476588 1.000000 0.000000
0.630447 1.000000 0.000000
0.786111 1.000000 0.000000
0.943268 1.000000 0.000000
1.000000 1.000000 0.000000
0.000000 0.020544 0.115032
0.029266 0.018812 0.111435
0.176032 0.015372 0.104289
0.328301 0.011802 0.096875
0.483835 0.008157 0.089301
0.641725 0.004455 0.081613
0.801468 0.000711 0.073835
0.962742 0.000000 0.065983
1.000000 0.000000 0.058066
0.000000 0.087840 0.102931
0.031808 0.086108 0.099334
0.178574 0.082668 0.092187
0.330843 0.079099 0.084773
0.486377 0.075453 0.077200
0.644267 0.071752 0.069512
0.804010 0.068008 0.061734
0.965284 0.064227 0.053881
1.000000 0.060416 0.045965
0.000000 0.221532 0.078891
0.036858 0.219800 0.075293
0.183623 0.216360 0.068147
0.335893 0.212790 0.060733
0.491427 0.209144 0.053160
0.649317 0.205443 0.045472
0.809060 0.201699 0.037694
0.970334 0.197919 0.029841
1.000000 0.194108 0.021925
0.000000 0.360236 0.053949
0.042097 0.358504 0.050351
0.188862 0.355064 0.043205
0.341132 0.351495 0.035791
0.496666 0.347849 0.028218
0.654556 0.344148 0.020530
0.814299 0.340404 0.012752
0.975573 0.336623 0.004899
1.000000 0.332812 0.000000
0.000000 0.501915 0.028472
0.047448 0.500183 0.024875
0.194214 0.496743 0.017728
0.346483 0.493174 0.010314
0.502017 0.489528 0.002741
0.659907 0.485827 0.000000
0.818753 0.482368 0.000000
0.975909 0.479900 0.000000
1.000000 0.477412 0.000000
0.000000 0.645740 0.002609
0.052881 0.644008 0.000000
0.199646 0.640568 0.000000
0.349538 0.637756 0.000000
0.501101 0.635376 0.000000
0.654960 0.632960 0.000000
0.810624 0.630515 0.000000
0.967781 0.628047 0.000000
1.000000 0.625559 0.000000
0.000000 0.793348 0.000000
0.049913 0.792218 0.000000
0.192932 0.789972 0.000000
0.341314 0.787641 0.000000
0.492877 0.785261 0.000000
0.646736 0.782845 0.000000
0.802400 0.780400 0.000000
0.959557 0.777932 0.000000
1.000000 0.775444 0.000000
0.000000 0.944670 0.000000
0.041611 0.943540 0.000000
0.184629 0.941294 0.000000
0.333011 0.938963 0.000000
0.484574 0.936583 0.000000
0.638433 0.934167 0.000000
0.794097 0.931722 0.000000
0.951254 0.929254 0.000000
1.000000 0.926766 0.000000
0.000000 1.000000 0.000000
0.033241 1.000000 0.000000
0.176259 1.000000 0.000000
0.324641 1.000000 0.000000
0.476204 1.000000 0.000000
0.630063 1.000000 0.000000
0.785727 1.000000 0.000000
0.942884 1.000000 0.000000
1.000000 1.000000 0.000000
0.000000 0.019375 0.257870
0.029776 0.017644 0.254273
0.176542 0.014203 0.247126
0.328811 0.010634 0.239712
0.484345 0.006988 0.232139
0.642235 0.003287 0.224451
0.801978 0.000000 0.216673
0.963252 0.000000 0.208820
1.000000 0.000000 0.200904
0.000000 0.086672 0.245769
0.032318 0.084940 0.242171
0.179084 0.081500 0.235025
0.331353 0.077931 0.227611
0.486887 0.074285 0.220038
0.644777 0.070584 0.212350
0.804520 0.066839 0.204572
0.965794 0.063059 0.196719
1.000000 0.059248 0.188803
0.000000 0.220363 0.221728
0.037368 0.218631 0.218131
0.184133 0.215191 0.210985
0.336402 0.211622 0.203570
0.491936 0.207976 0.195997
0.649827 0.204275 0.188309
0.809570 0.200531 0.180531
0.970844 0.196750 0.172679
1.000000 0.192939 0.164762
0.000000 0.359068 0.196786
0.042607 0.357336 0.193189
0.189372 0.353896 0.186043
0.341642 0.350327 0.178629
0.497175 0.346681 0.171055
0.655066 0.342980 0.163367
0.814809 0.339235 0.155589
0.976083 0.335455 0.147737
1.000000 0.331644 0.139820
0.000000 0.500746 0.171310
0.047958 0.499015 0.167712
0.194724 0.495574 0.160566
0.346993 0.492005 0.153152
0.502527 0.488359 0.145579
0.660417 0.484658 0.137891
0.817990 0.481605 0.132950
0.975147 0.479137 0.130482
1.000000 0.476649 0.127994
0.000000 0.644571 0.145447
0.053390 0.642840 0.141850
0.200156 0.639399 0.134703
0.348775 0.636993 0.132063
0.500338 0.634613 0.129683
0.654197 0.632197 0.127266
0.809861 0.629752 0.124822
0.967018 0.627284 0.122354
1.000000 0.624796 0.119866
0.000000 0.792586 0.129546
0.049151 0.791455 0.128415
0.192169 0.789209 0.126169
0.340551 0.786879 0.123839
0.492114 0.784498 0.121459
0.645973 0.782082 0.119042
0.801637 0.779637 0.116598
0.958794 0.777169 0.114130
1.000000 0.774681 0.111642
0.000000 0.943907 0.121243
0.040848 0.942777 0.120112
0.183866 0.940531 0.117866
0.332248 0.938201 0.115536
0.483811 0.935820 0.113156
0.637670 0.933404 0.110740
0.793335 0.930959 0.108295
0.950491 0.928491 0.105827
1.000000 0.926003 0.103339
0.000000 1.000000 0.112873
0.032478 1.000000 0.111742
0.175496 1.000000 0.109496
0.323878 1.000000 0.107166
0.475441 1.000000 0.104786
0.629300 1.000000 0.102370
0.784965 1.000000 0.099925
0.942121 1.000000 0.097457
1.000000 1.000000 0.094969
0.000000 0.018163 0.406064
0.030305 0.016431 0.402467
0.177071 0.012991 0.395321
0.329340 0.009422 0.387906
0.484874 0.005776 0.380333
0.642764 0.002075 0.372645
0.802507 0.000000 0.364867
0.963781 0.000000 0.357014
1.000000 0.000000 0.349098
0.000000 0.085460 0.393963
0.032847 0.083728 0.390365
0.179612 0.080288 0.383219
0.331882 0.076718 0.375805
0.487416 0.073073 0.368232
0.645306 0.069372 0.360544
0.805049 0.065627 0.352766
0.966323 0.061847 0.344913
1.000000 0.058036 0.336997
0.000000 0.219151 0.369922
0.037896 0.217419 0.366325
0.184662 0.213979 0.359179
0.336931 0.210410 0.351765
0.492465 0.206764 0.344191
0.650355 0.203063 0.336503
0.810099 0.199319 0.328725
0.971373 0.195538 0.320873
1.000000 0.191727 0.312956
0.000000 0.357856 0.344980
0.043135 0.356124 0.341383
0.189901 0.352684 0.334237
0.342170 0.349115 0.326823
0.497704 0.345469 0.319249
0.655595 0.341768 0.311561
0.815338 0.338023 0.303783
0.976612 0.334243 0.295931
1.000000 0.330432 0.288014
0.000000 0.499534 0.319504
0.048487 0.497803 0.315906
0.195252 0.494362 0.308760
0.347522 0.490793 0.301346
0.503056 0.487147 0.293773
0.660946 0.483446 0.286085
0.817199 0.480814 0.282871
0.974355 0.478346 0.280403
1.000000 0.475858 0.277915
0.000000 0.643359 0.293641
0.053919 0.641627 0.290044
0.199602 0.638532 0.284314
0.347983 0.636202 0.281983
0.499546 0.633822 0.279603
0.653405 0.631405 0.277187
0.809070 0.628961 0.274742
0.966227 0.626493 0.272274
1.000000 0.624005 0.269786
0.000000 0.791794 0.279466
0.048359 0.790664 0.278336
0.191378 0.788418 0.276090
0.339760 0.786087 0.273760
0.491323 0.783707 0.271379
0.645182 0.781291 0.268963
0.800846 0.778846 0.266518
0.958003 0.776378 0.264050
1.000000 0.773890 0.261562
0.000000 0.943116 0.271164
0.040057 0.941985 0.270033
0.183075 0.939739 0.267787
0.331457 0.937409 0.265457
0.483020 0.935029 0.263076
0.636879 0.932613 0.260660
0.792543 0.930168 0.258216
0.949700 0.927700 0.255747
1.000000 0.925212 0.253259
0.000000 1.000000 0.262794
0.031686 1.000000 0.261663
0.174705 1.000000 0.259417
0.323087 1.000000 0.257087
0.474650 1.000000 0.254706
0.628509 1.000000 0.252290
0.784173 1.000000 0.249845
0.941330 1.000000 0.247377
1.000000 1.000000 0.244889
0.000000 0.016925 0.557435
0.030845 0.015193 0.553838
0.177611 0.011753 0.546692
0.329880 0.008184 0.539278
0.485414 0.004538 0.531704
0.643304 0.000837 0.524017
0.803047 0.000000 0.516238
0.964321 0.000000 0.508386
1.000000 0.000000 0.500469
0.000000 0.084222 0.545334
0.033387 0.082490 0.541737
0.180153 0.079050 0.534591
0.332422 0.075480 0.527176
0.487956 0.071835 0.519603
0.645846 0.068134 0.511915
0.805589 0.064389 0.504137
0.966863 0.060609 0.496284
1.000000 0.056798 0.488368
0.000000 0.217913 0.521294
0.038437 0.216181 0.517696
0.185202 0.212741 0.510550
0.337472 0.209172 0.503136
0.493006 0.205526 0.495563
0.650896 0.201825 0.487875
0.810639 0.198080 0.480097
0.971913 0.194300 0.472244
1.000000 0.190489 0.464328
0.000000 0.356618 0.496352
0.043676 0.354886 0.492754
0.190441 0.351446 0.485608
0.342711 0.347876 0.478194
0.498245 0.344231 0.470621
0.656135 0.340530 0.462933
0.815878 0.336785 0.455155
0.977152 0.333005 0.447302
1.000000 0.329194 0.439386
0.000000 0.498296 0.470875
0.049027 0.496564 0.467278
0.195793 0.493124 0.460131
0.348062 0.489555 0.452717
0.503596 0.485909 0.445144
0.660726 0.482450 0.438450
0.816390 0.480006 0.436006
0.973547 0.477538 0.433538
1.000000 0.475050 0.431050
0.000000 0.642121 0.445012
0.054459 0.640389 0.441415
0.198793 0.637724 0.437449
0.347175 0.635394 0.435118
0.498738 0.633013 0.432738
0.652597 0.630597 0.430322
0.808262 0.628152 0.427877
0.965418 0.625684 0.425409
1.000000 0.623196 0.422921
0.000000 0.790986 0.432601
0.047551 0.789855 0.431471
0.190569 0.787609 0.429225
0.338951 0.785279 0.426894
0.490514 0.782899 0.424514
0.644373 0.780482 0.422098
0.800038 0.778038 0.419653
0.957194 0.775570 0.417185
1.000000 0.773082 0.414697
0.000000 0.942308 0.424299
0.039248 0.941177 0.423168
0.182267 0.938931 0.420922
0.330648 0.936601 0.418592
0.482211 0.934221 0.416211
0.636070 0.931804 0.413795
0.791735 0.929360 0.411350
0.948892 0.926892 0.408882
1.000000 0.924403 0.406394
0.000000 1.000000 0.415928
0.030878 1.000000 0.414798
0.173897 1.000000 0.412552
0.322278 1.000000 0.410222
0.473841 1.000000 0.407841
0.627700 1.000000 0.405425
0.783365 1.000000 0.402980
0.940521 1.000000 0.400512
1.000000 1.000000 0.398024
0.000000 0.015668 0.711100
0.031394 0.013936 0.707503
0.178159 0.010496 0.700356
0.330428 0.006927 0.692942
0.485962 0.003281 0.685369
0.643853 0.000000 0.677681
0.803596 0.000000 0.669903
0.964870 0.000000 0.662050
1.000000 0.000000 0.654134
0.000000 0.082965 0.698998
0.033935 0.081233 0.695401
0.180701 0.077793 0.688255
0.332970 0.074223 0.680841
0.488504 0.070578 0.673268
0.646394 0.066877 0.665580
0.806138 0.063132 0.657801
0.967412 0.059352 0.649949
1.000000 0.055541 0.642032
0.000000 0.216656 0.674958
0.038985 0.214924 0.671361
0.185751 0.211484 0.664215
0.338020 0.207915 0.656800
0.493554 0.204269 0.649227
0.651444 0.200568 0.641539
0.811187 0.196824 0.633761
0.972461 0.193043 0.625908
1.000000 0.189232 0.617992
0.000000 0.355361 0.650016
0.044224 0.353629 0.646419
0.190990 0.350189 0.639273
0.343259 0.346619 0.631858
0.498793 0.342974 0.624285
0.656683 0.339273 0.616597
0.816426 0.335528 0.608819
0.977700 0.331748 0.600966
1.000000 0.328293 0.594512
0.000000 0.497039 0.624539
0.049575 0.495308 0.620942
0.196341 0.491867 0.613796
0.348610 0.488298 0.606382
0.504144 0.484652 0.598808
0.659905 0.481630 0.593905
0.815570 0.479185 0.591460
0.972726 0.476717 0.588992
1.000000 0.474229 0.586504
0.000000 0.640864 0.598677
0.054954 0.639149 0.595149
0.197973 0.636903 0.592903
0.346355 0.634573 0.590573
0.497918 0.632193 0.588193
0.651777 0.629777 0.585777
0.807441 0.627332 0.583332
0.964598 0.624864 0.580864
1.000000 0.622376 0.578376
0.000000 0.790165 0.588056
0.046730 0.789035 0.586925
0.189749 0.786789 0.584679
0.338131 0.784458 0.582349
0.489694 0.782078 0.579969
0.643553 0.779662 0.577553
0.799217 0.777217 0.575108
0.956374 0.774749 0.572640
1.000000 0.772261 0.570152
0.000000 0.941487 0.579753
0.038428 0.940357 0.578623
0.181446 0.938110 0.576377
0.329828 0.935780 0.574046
0.481391 0.933400 0.571666
0.635250 0.930984 0.569250
0.790914 0.928539 0.566805
0.948071 0.926071 0.564337
1.000000 0.923583 0.561849
0.000000 1.000000 0.571383
0.030058 1.000000 0.570253
0.173076 1.000000 0.568007
0.321458 1.000000 0.565676
0.473021 1.000000 0.563296
0.626880 1.000000 0.560880
0.782544 1.000000 0.558435
0.939701 1.000000 0.555967
1.000000 1.000000 0.553479
0.000000 0.014396 0.866568
0.031948 0.012665 0.862970
0.178714 0.009224 0.855824
0.330983 0.005655 0.848410
0.486517 0.002009 0.840837
0.644407 0.000000 0.833149
0.804150 0.000000 0.825371
0.965425 0.000000 0.817518
1.000000 0.000000 0.809602
0.000000 0.081693 0.854466
0.034490 0.079961 0.850869
0.181256 0.076521 0.843723
0.333525 0.072952 0.836309
0.489059 0.069306 0.828735
0.646949 0.065605 0.821047
0.806692 0.061861 0.813269
0.967966 0.058080 0.805417
1.000000 0.054269 0.797500
0.000000 0.215384 0.830426
0.039540 0.213653 0.826829
0.186306 0.210212 0.819682
0.338575 0.206643 0.812268
0.494109 0.202997 0.804695
0.651999 0.199296 0.797007
0.811742 0.195552 0.789229
0.973016 0.191772 0.781376
1.000000 0.187961 0.773460
0.000000 0.354089 0.805484
0.044779 0.352357 0.801887
0.191545 0.348917 0.794740
0.343814 0.345348 0.787326
0.499348 0.341702 0.779753
0.657238 0.338001 0.772065
0.816981 0.334257 0.764287
0.978255 0.330476 0.756434
1.000000 0.327463 0.751791
0.000000 0.495768 0.780007
0.050130 0.494036 0.776410
0.196896 0.490596 0.769264
0.349165 0.487026 0.761849
0.504699 0.483381 0.754276
0.659075 0.480800 0.751184
0.814740 0.478355 0.748740
0.971896 0.475887 0.746271
1.000000 0.473399 0.743783
0.000000 0.639592 0.754144
0.054124 0.638319 0.752428
0.197143 0.636073 0.750182
0.345524 0.633743 0.747852
0.497087 0.631363 0.745472
0.650946 0.628946 0.743056
0.806611 0.626502 0.740611
0.963767 0.624034 0.738143
1.000000 0.621546 0.735655
0.000000 0.789335 0.745335
0.045900 0.788204 0.744204
0.188919 0.785958 0.741958
0.337300 0.783628 0.739628
0.488863 0.781248 0.737248
0.642722 0.778832 0.734832
0.798387 0.776387 0.732387
0.955544 0.773919 0.729919
1.000000 0.771431 0.727431
0.000000 0.940657 0.737032
0.037597 0.939526 0.735902
0.180616 0.937280 0.733656
0.328998 0.934950 0.731325
0.480561 0.932570 0.728945
0.634420 0.930153 0.726529
0.790084 0.927709 0.724084
0.947241 0.925241 0.721616
1.000000 0.922753 0.719128
0.000000 1.000000 0.728662
0.029227 1.000000 0.727532
0.172246 1.000000 0.725286
0.320627 1.000000 0.722955
0.472190 1.000000 0.720575
0.626049 1.000000 0.718159
0.781714 1.000000 0.715714
0.938871 1.000000 0.713246
1.000000 1.000000 0.710758
0.000000 0.013113 1.000000
0.032509 0.011381 1.000000
0.179274 0.007941 1.000000
0.331543 0.004371 1.000000
0.487077 0.000726 0.997794
0.644968 0.000000 0.990107
0.804711 0.000000 0.982328
0.965985 0.000000 0.974476
1.000000 0.000000 0.966559
0.000000 0.080409 1.000000
0.035050 0.078678 1.000000
0.181816 0.075237 1.000000
0.334085 0.071668 0.993266
0.489619 0.068022 0.985693
0.647509 0.064321 0.978005
0.807253 0.060577 0.970227
0.968527 0.056796 0.962374
1.000000 0.052985 0.954458
0.000000 0.214101 0.987384
0.040100 0.212369 0.983786
0.186866 0.208929 0.976640
0.339135 0.205359 0.969226
0.494669 0.201714 0.961653
0.652559 0.198013 0.953965
0.812302 0.194268 0.946187
0.973576 0.190488 0.938334
1.000000 0.186677 0.930418
0.000000 0.352805 0.962442
0.045339 0.351074 0.958844
0.192105 0.347633 0.951698
0.344374 0.344064 0.944284
0.499908 0.340418 0.936711
0.657798 0.336717 0.929023
0.817541 0.332973 0.921245
0.978815 0.329192 0.913392
1.000000 0.326625 0.910577
0.000000 0.494484 0.936965
0.050690 0.492752 0.933368
0.197456 0.489312 0.926221
0.349725 0.485743 0.918807
0.504378 0.482378 0.912387
0.658237 0.479961 0.909971
0.813901 0.477517 0.907526
0.971058 0.475049 0.905058
1.000000 0.472561 0.902570
0.000000 0.638612 0.912346
0.053286 0.637481 0.911215
0.196305 0.635235 0.908969
0.344686 0.632905 0.906639
0.496249 0.630524 0.904258
0.650108 0.628108 0.901842
0.805773 0.625664 0.899397
0.962929 0.623195 0.896929
1.000000 0.620707 0.894441
0.000000 0.788497 0.904122
0.045062 0.787366 0.902991
0.188081 0.785120 0.900745
0.336462 0.782790 0.898415
0.488025 0.780410 0.896034
0.641884 0.777993 0.893618
0.797549 0.775549 0.891173
0.954705 0.773081 0.888705
1.000000 0.770593 0.886217
0.000000 0.939819 0.895819
0.036759 0.938688 0.894688
0.179778 0.936442 0.892442
0.328159 0.934112 0.890112
0.479722 0.931732 0.887732
0.633581 0.929315 0.885315
0.789246 0.926871 0.882871
0.946403 0.924403 0.880403
1.000000 0.921914 0.877914
0.000000 1.000000 0.887449
0.028389 1.000000 0.886318
0.171408 1.000000 0.884072
0.319789 1.000000 0.881742
0.471352 1.000000 0.879362
0.625211 1.000000 0.876945
0.780876 1.000000 0.874501
0.938032 1.000000 0.872032
1.000000 1.000000 0.869544
0.000000 0.011818 1.000000
0.033073 0.010087 1.000000
0.179839 0.006646 1.000000
0.332108 0.003077 1.000000
0.487642 0.000000 1.000000
0.645532 0.000000 1.000000
0.805275 0.000000 1.000000
0.966549 0.000000 1.000000
1.000000 0.000000 1.000000
0.000000 0.079115 1.000000
0.035615 0.077383 1.000000
0.182381 0.073943 1.000000
0.334650 0.070374 1.000000
0.490184 0.066728 1.000000
0.648074 0.063027 1.000000
0.807817 0.059283 1.000000
0.969091 0.055502 1.000000
1.000000 0.051691 1.000000
0.000000 0.212806 1.000000
0.040665 0.211075 1.000000
0.187430 0.207634 1.000000
0.339700 0.204065 1.000000
0.495234 0.200419 1.000000
0.653124 0.196718 1.000000
0.812867 0.192974 1.000000
0.974141 0.189193 1.000000
1.000000 0.185383 1.000000
0.000000 0.351511 1.000000
0.045904 0.349779 1.000000
0.192669 0.346339 1.000000
0.344939 0.342770 1.000000
0.500473 0.339124 1.000000
0.658363 0.335423 1.000000
0.818106 0.331679 1.000000
0.978220 0.328268 1.000000
1.000000 0.325780 1.000000
0.000000 0.493190 1.000000
0.051255 0.491458 1.000000
0.198021 0.488018 1.000000
0.350290 0.484448 1.000000
0.503533 0.481533 1.000000
0.657392 0.479116 1.000000
0.813056 0.476672 1.000000
0.970213 0.474204 1.000000
1.000000 0.471716 1.000000
0.000000 0.637767 1.000000
0.052441 0.636636 1.000000
0.195460 0.634390 1.000000
0.343841 0.632060 1.000000
0.495404 0.629679 1.000000
0.649263 0.627263 1.000000
0.804928 0.624819 1.000000
0.962084 0.622350 1.000000
1.000000 0.619862 1.000000
0.000000 0.787652 1.000000
0.044217 0.786521 1.000000
0.187236 0.784275 1.000000
0.335617 0.781945 1.000000
0.487180 0.779565 1.000000
0.641039 0.777148 1.000000
0.796704 0.774704 1.000000
0.953860 0.772236 1.000000
1.000000 0.769748 1.000000
0.000000 0.938974 1.000000
0.035914 0.937843 1.000000
0.178933 0.935597 1.000000
0.327314 0.933267 1.000000
0.478877 0.930887 1.000000
0.632736 0.928470 1.000000
0.788401 0.926026 1.000000
0.945558 0.923558 1.000000
1.000000 0.921069 1.000000
0.000000 1.000000 1.000000
0.027544 1.000000 1.000000
0.170563 1.000000 1.000000
0.318944 1.000000 1.000000
0.470507 1.000000 1.000000
0.624366 1.000000 1.000000
0.780031 1.000000 1.000000
0.937187 1.000000 1.000000
1.000000 1.000000 1.000000
