assets/luts/generated_genre/bs_action_arid_sicario_d250d64d01c70529.cube
# V4 spec-generated LUT — bs_action_arid_sicario
# Genre: action
# Look: Arid action — oppressive amber midtones, lethal stillness. Deakins/Sicario.
# Spec hash: d250d64d01c70529
TITLE "V4 Spec LUT — bs_action_arid_sicario"
LUT_3D_SIZE 17
DOMAIN_MIN 0.0 0.0 0.0
DOMAIN_MAX 1.0 1.0 1.0
0.000000 0.000000 0.000000
0.017082 0.000000 0.000000
0.078296 0.000000 0.000000
0.141049 0.000000 0.000000
0.204646 0.000000 0.000000
0.268835 0.000000 0.000000
0.333483 0.000000 0.000000
0.398506 0.000000 0.000000
0.463845 0.001235 0.000000
0.529460 0.002801 0.000000
0.595317 0.004374 0.000000
0.661393 0.005951 0.000000
0.727665 0.007534 0.000000
0.794119 0.009120 0.000000
0.860738 0.010711 0.000000
0.927512 0.012305 0.000000
0.994430 0.013903 0.000000
0.000000 0.013452 0.000000
0.019336 0.013985 0.000000
0.080551 0.015446 0.000000
0.143303 0.016944 0.000000
0.206901 0.018463 0.000000
0.271090 0.019995 0.000000
0.335738 0.021539 0.000000
0.400760 0.023091 0.000000
0.466100 0.024651 0.000000
0.531714 0.026218 0.000000
0.597572 0.027790 0.000000
0.663647 0.029368 0.000000
0.729920 0.030950 0.000000
0.796373 0.032537 0.000000
0.862993 0.034127 0.000000
0.929767 0.035722 0.000000
0.996685 0.037319 0.000000
0.003231 0.077743 0.000000
0.025527 0.078276 0.000000
0.086742 0.079737 0.000000
0.149494 0.081236 0.000000
0.213091 0.082754 0.000000
0.277281 0.084287 0.000000
0.341929 0.085830 0.000000
0.406951 0.087382 0.000000
0.472291 0.088942 0.000000
0.537905 0.090509 0.000000
0.603763 0.092081 0.000000
0.669838 0.093659 0.000000
0.736111 0.095241 0.000000
0.802564 0.096828 0.000000
0.869184 0.098418 0.000000
0.935958 0.100013 0.000000
1.000000 0.101610 0.000000
0.009577 0.143649 0.000000
0.031873 0.144182 0.000000
0.093088 0.145643 0.000000
0.155840 0.147142 0.000000
0.219437 0.148660 0.000000
0.283627 0.150193 0.000000
0.348275 0.151736 0.000000
0.413297 0.153288 0.000000
0.478637 0.154848 0.000000
0.544251 0.156415 0.000000
0.610109 0.157987 0.000000
0.676184 0.159565 0.000000
0.742457 0.161147 0.000000
0.808910 0.162734 0.000000
0.875530 0.164324 0.000000
0.942304 0.165919 0.000000
1.000000 0.167516 0.000000
0.016009 0.210443 0.000000
0.038305 0.210975 0.000000
0.099520 0.212437 0.000000
0.162272 0.213935 0.000000
0.225869 0.215453 0.000000
0.290058 0.216986 0.000000
0.354706 0.218529 0.000000
0.419729 0.220082 0.000000
0.485068 0.221642 0.000000
0.550683 0.223208 0.000000
0.616540 0.224781 0.000000
0.682616 0.226358 0.000000
0.748889 0.227941 0.000000
0.815342 0.229527 0.000000
0.881961 0.231118 0.000000
0.948735 0.232712 0.000000
1.000000 0.234310 0.000000
0.022500 0.277858 0.000000
0.044796 0.278391 0.000000
0.106011 0.279852 0.000000
0.168763 0.281350 0.000000
0.232360 0.282869 0.000000
0.296550 0.284401 0.000000
0.361198 0.285945 0.000000
0.426220 0.287497 0.000000
0.491560 0.289057 0.000000
0.557174 0.290624 0.000000
0.623032 0.292196 0.000000
0.689107 0.293774 0.000000
0.755380 0.295356 0.000000
0.821833 0.296943 0.000000
0.888453 0.298533 0.000000
0.955227 0.300128 0.000000
1.000000 0.301725 0.000000
0.029038 0.345755 0.000000
0.051334 0.346287 0.000000
0.112549 0.347749 0.000000
0.175301 0.349247 0.000000
0.238898 0.350766 0.000000
0.303088 0.352298 0.000000
0.367736 0.353842 0.000000
0.432758 0.355394 0.000000
0.498098 0.356954 0.000000
0.563712 0.358521 0.000000
0.629570 0.360093 0.000000
0.695645 0.361671 0.000000
0.761918 0.363253 0.000000
0.828371 0.364840 0.000000
0.894991 0.366430 0.000000
0.961765 0.368024 0.000000
1.000000 0.369622 0.000000
0.035614 0.414045 0.000000
0.057910 0.414578 0.000000
0.119125 0.416039 0.000000
0.181877 0.417538 0.000000
0.245474 0.419056 0.000000
0.309663 0.420589 0.000000
0.374311 0.422132 0.000000
0.439334 0.423684 0.000000
0.504673 0.425244 0.000000
0.570288 0.426811 0.000000
0.636145 0.428383 0.000000
0.702221 0.429961 0.000000
0.768494 0.431543 0.000000
0.834947 0.433130 0.000000
0.901566 0.434720 0.000000
0.968340 0.436315 0.000000
1.000000 0.437205 0.000000
0.042222 0.482669 0.000000
0.064518 0.483201 0.000000
0.125732 0.484663 0.000000
0.188485 0.486161 0.000000
0.252082 0.487679 0.000000
0.316271 0.489212 0.000000
0.380919 0.490755 0.000000
0.445942 0.492308 0.000000
0.511281 0.493868 0.000000
0.576896 0.495434 0.000000
0.642753 0.497007 0.000000
0.708829 0.498584 0.000000
0.774930 0.500071 0.000000
0.839832 0.500791 0.000000
0.904896 0.501513 0.000213
0.970111 0.502237 0.001487
1.000000 0.502962 0.002764
0.048857 0.551581 0.000000
0.071153 0.552113 0.000000
0.132368 0.553575 0.000000
0.195120 0.555073 0.000000
0.258717 0.556591 0.000000
0.322907 0.558124 0.000000
0.387555 0.559667 0.000000
0.452577 0.561220 0.000000
0.517917 0.562780 0.000000
0.582834 0.563957 0.000000
0.647154 0.564671 0.000000
0.711687 0.565387 0.000621
0.776412 0.566105 0.001886
0.841314 0.566826 0.003154
0.906378 0.567548 0.004426
0.971593 0.568271 0.005700
1.000000 0.568997 0.006977
0.055517 0.620748 0.000000
0.077813 0.621280 0.000000
0.139028 0.622742 0.000000
0.201780 0.624240 0.000000
0.265377 0.625759 0.000000
0.329567 0.627291 0.000000
0.392921 0.628112 0.000000
0.456425 0.628817 0.000000
0.520239 0.629525 0.001079
0.584321 0.630236 0.002331
0.648641 0.630950 0.003588
0.713174 0.631666 0.004850
0.777899 0.632384 0.006114
0.842801 0.633105 0.007383
0.907865 0.633827 0.008654
0.973080 0.634550 0.009929
1.000000 0.635276 0.011206
0.062200 0.690144 0.000000
0.084495 0.690677 0.000000
0.145184 0.691844 0.000000
0.206471 0.692525 0.000000
0.268584 0.693214 0.000374
0.331274 0.693910 0.001600
0.394413 0.694610 0.002833
0.457917 0.695315 0.004075
0.521731 0.696023 0.005322
0.585814 0.696734 0.006574
0.650134 0.697448 0.007831
0.714666 0.698164 0.009092
0.779392 0.698882 0.010357
0.844294 0.699603 0.011625
0.909358 0.700325 0.012897
0.974573 0.701048 0.014171
1.000000 0.701774 0.015449
0.065120 0.757636 0.000624
0.086896 0.757878 0.001050
0.146681 0.758541 0.002218
0.207968 0.759221 0.003416
0.270080 0.759911 0.004630
0.332771 0.760606 0.005855
0.395910 0.761307 0.007089
0.459414 0.762012 0.008330
0.523228 0.762720 0.009577
0.587311 0.763431 0.010829
0.651631 0.764145 0.012086
0.716163 0.764861 0.013347
0.780889 0.765579 0.014612
0.845791 0.766300 0.015881
0.910855 0.767022 0.017152
0.976070 0.767745 0.018427
1.000000 0.768471 0.019704
0.066621 0.824515 0.004891
0.088396 0.824756 0.005317
0.148182 0.825420 0.006485
0.209469 0.826100 0.007683
0.271581 0.826789 0.008897
0.334272 0.827485 0.010122
0.397411 0.828186 0.011356
0.460915 0.828890 0.012597
0.524729 0.829598 0.013844
0.588812 0.830310 0.015096
0.653132 0.831023 0.016353
0.717664 0.831740 0.017614
0.782390 0.832458 0.018879
0.847292 0.833178 0.020148
0.912356 0.833900 0.021419
0.977571 0.834624 0.022694
1.000000 0.835349 0.023971
0.068126 0.891561 0.009169
0.089901 0.891802 0.009594
0.149687 0.892466 0.010763
0.210974 0.893146 0.011960
0.273086 0.893835 0.013174
0.335777 0.894531 0.014399
0.398916 0.895231 0.015633
0.462420 0.895936 0.016874
0.526234 0.896644 0.018121
0.590316 0.897356 0.019374
0.654636 0.898069 0.020631
0.719169 0.898785 0.021892
0.783894 0.899504 0.023157
0.848796 0.900224 0.024425
0.913860 0.900946 0.025697
0.979075 0.901670 0.026971
1.000000 0.902395 0.028248
0.069634 0.958762 0.013456
0.091409 0.959003 0.013882
0.151195 0.959667 0.015050
0.212482 0.960347 0.016248
0.274594 0.961036 0.017462
0.337285 0.961732 0.018687
0.400424 0.962433 0.019921
0.463928 0.963137 0.021162
0.527742 0.963846 0.022409
0.591825 0.964557 0.023661
0.656145 0.965270 0.024918
0.720677 0.965987 0.026179
0.785403 0.966705 0.027444
0.850304 0.967425 0.028713
0.915369 0.968147 0.029984
0.980583 0.968871 0.031259
1.000000 0.969596 0.032536
0.071146 1.000000 0.017753
0.092921 1.000000 0.018178
0.152706 1.000000 0.019347
0.213994 1.000000 0.020544
0.276106 1.000000 0.021758
0.338797 1.000000 0.022983
0.401935 1.000000 0.024217
0.465440 1.000000 0.025458
0.529253 1.000000 0.026706
0.593336 1.000000 0.027958
0.657656 1.000000 0.029215
0.722189 1.000000 0.030476
0.786914 1.000000 0.031741
0.851816 1.000000 0.033009
0.916880 1.000000 0.034281
0.982095 1.000000 0.035555
1.000000 1.000000 0.036833
0.000000 0.000000 0.006952
0.017309 0.000000 0.007070
0.078524 0.000000 0.007396
0.141276 0.000000 0.007729
0.204873 0.000000 0.008067
0.269063 0.000000 0.008409
0.333711 0.000000 0.008752
0.398733 0.000000 0.009098
0.464073 0.001416 0.009445
0.529687 0.002982 0.009794
0.595545 0.004555 0.010144
0.661620 0.006132 0.010496
0.727893 0.007714 0.010848
0.794346 0.009301 0.011201
0.860966 0.010892 0.011556
0.927740 0.012486 0.011911
0.994658 0.014084 0.012266
0.000000 0.013633 0.007350
0.019564 0.014165 0.007469
0.080779 0.015627 0.007794
0.143531 0.017125 0.008128
0.207128 0.018644 0.008466
0.271318 0.020176 0.008807
0.335966 0.021720 0.009151
0.400988 0.023272 0.009497
0.466328 0.024832 0.009844
0.531942 0.026399 0.010193
0.597800 0.027971 0.010543
0.663875 0.029549 0.010895
0.730148 0.031131 0.011247
0.796601 0.032717 0.011600
0.863221 0.034308 0.011954
0.929995 0.035902 0.012309
0.996912 0.037500 0.012665
0.003459 0.077924 0.008445
0.025755 0.078457 0.008564
0.086969 0.079918 0.008889
0.149722 0.081416 0.009223
0.213319 0.082935 0.009561
0.277508 0.084467 0.009902
0.342156 0.086011 0.010246
0.407179 0.087563 0.010592
0.472518 0.089123 0.010939
0.538133 0.090690 0.011288
0.603990 0.092262 0.011638
0.670066 0.093840 0.011989
0.736338 0.095422 0.012342
0.802792 0.097009 0.012695
0.869411 0.098599 0.013049
0.936185 0.100194 0.013404
1.000000 0.101791 0.013760
0.009805 0.143830 0.009568
0.032101 0.144363 0.009686
0.093316 0.145824 0.010012
0.156068 0.147322 0.010345
0.219665 0.148841 0.010683
0.283854 0.150373 0.011025
0.348502 0.151917 0.011368
0.413525 0.153469 0.011714
0.478864 0.155029 0.012062
0.544479 0.156596 0.012410
0.610336 0.158168 0.012761
0.676412 0.159746 0.013112
0.742685 0.161328 0.013464
0.809138 0.162915 0.013817
0.875757 0.164505 0.014172
0.942531 0.166100 0.014527
1.000000 0.167697 0.014882
0.016237 0.210623 0.010705
0.038532 0.211156 0.010824
0.099747 0.212617 0.011149
0.162499 0.214116 0.011483
0.226096 0.215634 0.011821
0.290286 0.217167 0.012162
0.354934 0.218710 0.012506
0.419956 0.220262 0.012852
0.485296 0.221823 0.013199
0.550910 0.223389 0.013548
0.616768 0.224961 0.013898
0.682843 0.226539 0.014249
0.749116 0.228121 0.014602
0.815569 0.229708 0.014955
0.882189 0.231299 0.015309
0.948963 0.232893 0.015664
1.000000 0.234490 0.016020
0.022728 0.278039 0.011853
0.045024 0.278571 0.011972
0.106239 0.280033 0.012297
0.168991 0.281531 0.012631
0.232588 0.283050 0.012969
0.296778 0.284582 0.013310
0.361425 0.286126 0.013654
0.426448 0.287678 0.014000
0.491787 0.289238 0.014347
0.557402 0.290805 0.014696
0.623259 0.292377 0.015046
0.689335 0.293955 0.015397
0.755608 0.295537 0.015750
0.822061 0.297123 0.016103
0.888681 0.298714 0.016457
0.955454 0.300308 0.016812
1.000000 0.301906 0.017168
0.029266 0.345936 0.013010
0.051562 0.346468 0.013128
0.112776 0.347930 0.013454
0.175529 0.349428 0.013787
0.239126 0.350946 0.014125
0.303315 0.352479 0.014467
0.367963 0.354023 0.014810
0.432986 0.355575 0.015156
0.498325 0.357135 0.015503
0.563940 0.358702 0.015852
0.629797 0.360274 0.016202
0.695873 0.361852 0.016554
0.762145 0.363434 0.016906
0.828599 0.365020 0.017259
0.895218 0.366611 0.017614
0.961992 0.368205 0.017969
1.000000 0.369803 0.018324
0.035842 0.414226 0.014172
0.058137 0.414759 0.014291
0.119352 0.416220 0.014616
0.182104 0.417718 0.014950
0.245701 0.419237 0.015288
0.309891 0.420769 0.015630
0.374539 0.422313 0.015973
0.439561 0.423865 0.016319
0.504901 0.425425 0.016666
0.570515 0.426992 0.017015
0.636373 0.428564 0.017365
0.702448 0.430142 0.017717
0.768721 0.431724 0.018069
0.835174 0.433311 0.018422
0.901794 0.434901 0.018777
0.968568 0.436496 0.019132
1.000000 0.437287 0.020339
0.042449 0.482849 0.015341
0.064745 0.483382 0.015460
0.125960 0.484843 0.015785
0.188712 0.486342 0.016119
0.252309 0.487860 0.016457
0.316499 0.489393 0.016798
0.381147 0.490936 0.017142
0.446169 0.492488 0.017488
0.511509 0.494048 0.017835
0.577123 0.495615 0.018184
0.642981 0.497187 0.018534
0.709056 0.498765 0.018885
0.774981 0.500153 0.019443
0.839883 0.500873 0.020711
0.904947 0.501595 0.021983
0.970162 0.502319 0.023257
1.000000 0.503044 0.024535
0.049085 0.551762 0.016515
0.071381 0.552294 0.016633
0.132596 0.553755 0.016959
0.195348 0.555254 0.017292
0.258945 0.556772 0.017630
0.323134 0.558305 0.017972
0.387782 0.559848 0.018315
0.452805 0.561401 0.018661
0.518144 0.562961 0.019009
0.582885 0.564039 0.019873
0.647205 0.564753 0.021130
0.711737 0.565469 0.022391
0.776463 0.566187 0.023656
0.841365 0.566908 0.024924
0.906429 0.567630 0.026196
0.971644 0.568353 0.027470
1.000000 0.569079 0.028748
0.055745 0.620929 0.017693
0.078041 0.621461 0.017811
0.139256 0.622923 0.018137
0.202008 0.624421 0.018470
0.265605 0.625939 0.018808
0.329795 0.627472 0.019150
0.392971 0.628194 0.020361
0.456476 0.628899 0.021602
0.520290 0.629607 0.022849
0.584372 0.630318 0.024102
0.648692 0.631032 0.025359
0.713225 0.631748 0.026620
0.777950 0.632466 0.027885
0.842852 0.633187 0.029153
0.907916 0.633909 0.030425
0.973131 0.634632 0.031699
1.000000 0.635358 0.032976
0.062427 0.690325 0.018874
0.084723 0.690857 0.018993
0.145235 0.691926 0.019733
0.206522 0.692607 0.020931
0.268634 0.693296 0.022145
0.331325 0.693992 0.023370
0.394464 0.694692 0.024604
0.457968 0.695397 0.025845
0.521782 0.696105 0.027092
0.585865 0.696816 0.028344
0.650185 0.697530 0.029601
0.714717 0.698246 0.030862
0.779443 0.698965 0.032127
0.844344 0.699685 0.033396
0.909409 0.700407 0.034667
0.974624 0.701131 0.035942
1.000000 0.701856 0.037219
0.065171 0.757718 0.022394
0.086946 0.757960 0.022820
0.146732 0.758623 0.023988
0.208019 0.759303 0.025186
0.270131 0.759993 0.026400
0.332822 0.760688 0.027625
0.395961 0.761389 0.028859
0.459465 0.762094 0.030100
0.523279 0.762802 0.031347
0.587362 0.763513 0.032599
0.651681 0.764227 0.033856
0.716214 0.764943 0.035118
0.780940 0.765661 0.036383
0.845841 0.766382 0.037651
0.910906 0.767104 0.038922
0.976120 0.767827 0.040197
1.000000 0.768553 0.041474
0.066672 0.824597 0.026661
0.088447 0.824838 0.027087
0.148233 0.825502 0.028255
0.209520 0.826182 0.029453
0.271632 0.826871 0.030667
0.334323 0.827567 0.031892
0.397462 0.828268 0.033126
0.460966 0.828972 0.034367
0.524780 0.829681 0.035614
0.588863 0.830392 0.036866
0.653182 0.831105 0.038123
0.717715 0.831822 0.039384
0.782441 0.832540 0.040649
0.847342 0.833260 0.041918
0.912407 0.833982 0.043189
0.977621 0.834706 0.044464
1.000000 0.835431 0.045741
0.068177 0.891643 0.030939
0.089952 0.891884 0.031364
0.149738 0.892548 0.032533
0.211025 0.893228 0.033730
0.273137 0.893917 0.034944
0.335828 0.894613 0.036169
0.398966 0.895314 0.037403
0.462471 0.896018 0.038644
0.526285 0.896726 0.039892
0.590367 0.897438 0.041144
0.654687 0.898151 0.042401
0.719220 0.898867 0.043662
0.783945 0.899586 0.044927
0.848847 0.900306 0.046195
0.913911 0.901028 0.047467
0.979126 0.901752 0.048741
1.000000 0.902477 0.050019
0.069685 0.958844 0.035226
0.091460 0.959085 0.035652
0.151246 0.959749 0.036820
0.212533 0.960429 0.038018
0.274645 0.961118 0.039232
0.337336 0.961814 0.040457
0.400475 0.962515 0.041691
0.463979 0.963219 0.042932
0.527793 0.963928 0.044179
0.591875 0.964639 0.045431
0.656195 0.965353 0.046688
0.720728 0.966069 0.047949
0.785454 0.966787 0.049214
0.850355 0.967507 0.050483
0.915419 0.968229 0.051754
0.980634 0.968953 0.053029
1.000000 0.969678 0.054306
0.071196 1.000000 0.039523
0.092972 1.000000 0.039948
0.152757 1.000000 0.041117
0.214044 1.000000 0.042315
0.276157 1.000000 0.043528
0.338847 1.000000 0.044754
0.401986 1.000000 0.045987
0.465490 1.000000 0.047229
0.529304 1.000000 0.048476
0.593387 1.000000 0.049728
0.657707 1.000000 0.050985
0.722240 1.000000 0.052246
0.786965 1.000000 0.053511
0.851867 1.000000 0.054779
0.916931 1.000000 0.056051
0.982146 1.000000 0.057326
1.000000 1.000000 0.058603
0.000000 0.000000 0.066437
0.017934 0.000000 0.066555
0.079149 0.000000 0.066881
0.141901 0.000000 0.067214
0.205498 0.000000 0.067552
0.269688 0.000000 0.067894
0.334336 0.000000 0.068237
0.399358 0.000352 0.068583
0.464698 0.001912 0.068931
0.530312 0.003479 0.069279
0.596170 0.005051 0.069630
0.662245 0.006628 0.069981
0.728518 0.008211 0.070333
0.794971 0.009797 0.070687
0.861591 0.011388 0.071041
0.928365 0.012982 0.071396
0.995282 0.014580 0.071752
0.000000 0.014129 0.066835
0.020189 0.014662 0.066954
0.081404 0.016123 0.067279
0.144156 0.017621 0.067613
0.207753 0.019140 0.067951
0.271943 0.020672 0.068293
0.336591 0.022216 0.068636
0.401613 0.023768 0.068982
0.466953 0.025328 0.069329
0.532567 0.026895 0.069678
0.598425 0.028467 0.070028
0.664500 0.030045 0.070380
0.730773 0.031627 0.070732
0.797226 0.033214 0.071085
0.863846 0.034804 0.071439
0.930620 0.036399 0.071795
0.997537 0.037996 0.072150
0.004084 0.078421 0.067930
0.026380 0.078953 0.068049
0.087594 0.080414 0.068374
0.150347 0.081913 0.068708
0.213944 0.083431 0.069046
0.278133 0.084964 0.069387
0.342781 0.086507 0.069731
0.407804 0.088060 0.070077
0.473143 0.089620 0.070424
0.538758 0.091186 0.070773
0.604615 0.092759 0.071123
0.670691 0.094336 0.071475
0.736963 0.095918 0.071827
0.803417 0.097505 0.072180
0.870036 0.099096 0.072534
0.936810 0.100690 0.072889
1.000000 0.102288 0.073245
0.010430 0.144327 0.069053
0.032726 0.144859 0.069171
0.093941 0.146320 0.069497
0.156693 0.147819 0.069830
0.220290 0.149337 0.070168
0.284479 0.150870 0.070510
0.349127 0.152413 0.070853
0.414150 0.153966 0.071199
0.479489 0.155526 0.071547
0.545104 0.157092 0.071895
0.610961 0.158665 0.072246
0.677037 0.160242 0.072597
0.743310 0.161824 0.072949
0.809763 0.163411 0.073303
0.876382 0.165002 0.073657
0.943156 0.166596 0.074012
1.000000 0.168194 0.074368
0.016861 0.211120 0.070190
0.039157 0.211652 0.070309
0.100372 0.213114 0.070634
0.163124 0.214612 0.070968
0.226721 0.216130 0.071306
0.290911 0.217663 0.071647
0.355559 0.219206 0.071991
0.420581 0.220759 0.072337
0.485921 0.222319 0.072684
0.551535 0.223885 0.073033
0.617393 0.225458 0.073383
0.683468 0.227035 0.073734
0.749741 0.228618 0.074087
0.816194 0.230204 0.074440
0.882814 0.231795 0.074794
0.949588 0.233389 0.075149
1.000000 0.234987 0.075505
0.023353 0.278535 0.071338
0.045649 0.279068 0.071457
0.106864 0.280529 0.071782
0.169616 0.282027 0.072116
0.233213 0.283546 0.072454
0.297402 0.285078 0.072795
0.362050 0.286622 0.073139
0.427073 0.288174 0.073485
0.492412 0.289734 0.073832
0.558027 0.291301 0.074181
0.623884 0.292873 0.074531
0.689960 0.294451 0.074882
0.756233 0.296033 0.075235
0.822686 0.297620 0.075588
0.889305 0.299210 0.075942
0.956079 0.300805 0.076297
1.000000 0.302402 0.076653
0.029891 0.346432 0.072495
0.052187 0.346965 0.072613
0.113401 0.348426 0.072939
0.176154 0.349924 0.073272
0.239751 0.351443 0.073610
0.303940 0.352975 0.073952
0.368588 0.354519 0.074295
0.433611 0.356071 0.074641
0.498950 0.357631 0.074988
0.564565 0.359198 0.075337
0.630422 0.360770 0.075687
0.696498 0.362348 0.076039
0.762770 0.363930 0.076391
0.829224 0.365517 0.076744
0.895843 0.367107 0.077099
0.962617 0.368702 0.077454
1.000000 0.370299 0.077809
0.036466 0.414723 0.073658
0.058762 0.415255 0.073776
0.119977 0.416716 0.074102
0.182729 0.418215 0.074435
0.246326 0.419733 0.074773
0.310516 0.421266 0.075115
0.375164 0.422809 0.075458
0.440186 0.424362 0.075804
0.505526 0.425922 0.076151
0.571140 0.427488 0.076500
0.636998 0.429061 0.076850
0.703073 0.430638 0.077202
0.769346 0.432220 0.077554
0.835799 0.433807 0.077907
0.902419 0.435398 0.078262
0.968825 0.436787 0.078833
1.000000 0.437512 0.080111
0.043074 0.483346 0.074826
0.065370 0.483878 0.074945
0.126585 0.485340 0.075270
0.189337 0.486838 0.075604
0.252934 0.488356 0.075942
0.317124 0.489889 0.076283
0.381772 0.491432 0.076627
0.446794 0.492985 0.076973
0.512134 0.494545 0.077320
0.577748 0.496111 0.077669
0.643606 0.497684 0.078019
0.709681 0.499261 0.078370
0.775120 0.500378 0.079214
0.840022 0.501098 0.080483
0.905086 0.501821 0.081754
0.970301 0.502544 0.083029
1.000000 0.503270 0.084306
0.049710 0.552258 0.076000
0.072006 0.552790 0.076118
0.133220 0.554252 0.076444
0.195973 0.555750 0.076777
0.259570 0.557268 0.077116
0.323759 0.558801 0.077457
0.388407 0.560344 0.077801
0.453430 0.561897 0.078146
0.518769 0.563457 0.078494
0.583024 0.564264 0.079644
0.647344 0.564978 0.080901
0.711877 0.565694 0.082162
0.776602 0.566413 0.083427
0.841504 0.567133 0.084696
0.906568 0.567855 0.085967
0.971783 0.568579 0.087242
1.000000 0.569304 0.088519
0.056370 0.621425 0.077178
0.078666 0.621958 0.077296
0.139881 0.623419 0.077622
0.202633 0.624917 0.077955
0.266230 0.626436 0.078293
0.329972 0.627719 0.078898
0.393111 0.628419 0.080132
0.456615 0.629124 0.081373
0.520429 0.629832 0.082620
0.584512 0.630543 0.083873
0.648832 0.631257 0.085130
0.713364 0.631973 0.086391
0.778090 0.632692 0.087656
0.842992 0.633412 0.088924
0.908056 0.634134 0.090196
0.973271 0.634858 0.091470
1.000000 0.635583 0.092748
0.063052 0.690821 0.078359
0.085348 0.691354 0.078478
0.145375 0.692152 0.079504
0.206662 0.692832 0.080702
0.268774 0.693521 0.081916
0.331465 0.694217 0.083141
0.394603 0.694918 0.084375
0.458108 0.695622 0.085616
0.521922 0.696330 0.086863
0.586004 0.697042 0.088115
0.650324 0.697755 0.089372
0.714857 0.698472 0.090634
0.779582 0.699190 0.091899
0.844484 0.699910 0.093167
0.909548 0.700632 0.094438
0.974763 0.701356 0.095713
1.000000 0.702081 0.096990
0.065311 0.757944 0.082166
0.087086 0.758185 0.082591
0.146871 0.758849 0.083760
0.208159 0.759529 0.084957
0.270271 0.760218 0.086171
0.332962 0.760914 0.087396
0.396100 0.761614 0.088630
0.459605 0.762319 0.089871
0.523419 0.763027 0.091118
0.587501 0.763738 0.092371
0.651821 0.764452 0.093628
0.716354 0.765168 0.094889
0.781079 0.765887 0.096154
0.845981 0.766607 0.097422
0.911045 0.767329 0.098694
0.976260 0.768053 0.099968
1.000000 0.768778 0.101245
0.066812 0.824822 0.086432
0.088587 0.825064 0.086858
0.148372 0.825727 0.088026
0.209660 0.826407 0.089224
0.271772 0.827097 0.090438
0.334463 0.827792 0.091663
0.397601 0.828493 0.092897
0.461106 0.829198 0.094138
0.524919 0.829906 0.095385
0.589002 0.830617 0.096638
0.653322 0.831331 0.097895
0.717855 0.832047 0.099156
0.782580 0.832765 0.100421
0.847482 0.833485 0.101689
0.912546 0.834207 0.102961
0.977761 0.834931 0.104235
1.000000 0.835656 0.105512
0.068316 0.891868 0.090710
0.090092 0.892110 0.091136
0.149877 0.892773 0.092304
0.211164 0.893453 0.093502
0.273277 0.894142 0.094716
0.335967 0.894838 0.095941
0.399106 0.895539 0.097175
0.462610 0.896244 0.098416
0.526424 0.896952 0.099663
0.590507 0.897663 0.100915
0.654827 0.898377 0.102172
0.719359 0.899093 0.103433
0.784085 0.899811 0.104698
0.848987 0.900531 0.105967
0.914051 0.901253 0.107238
0.979266 0.901977 0.108513
1.000000 0.902702 0.109790
0.069824 0.959069 0.094998
0.091600 0.959311 0.095423
0.151385 0.959974 0.096591
0.212672 0.960654 0.097789
0.274785 0.961344 0.099003
0.337476 0.962039 0.100228
0.400614 0.962740 0.101462
0.464118 0.963445 0.102703
0.527932 0.964153 0.103950
0.592015 0.964864 0.105203
0.656335 0.965578 0.106460
0.720868 0.966294 0.107721
0.785593 0.967012 0.108986
0.850495 0.967732 0.110254
0.915559 0.968455 0.111526
0.980774 0.969178 0.112800
1.000000 0.969904 0.114077
0.071336 1.000000 0.099294
0.093111 1.000000 0.099720
0.152897 1.000000 0.100888
0.214184 1.000000 0.102086
0.276296 1.000000 0.103300
0.338987 1.000000 0.104525
0.402126 1.000000 0.105759
0.465630 1.000000 0.107000
0.529444 1.000000 0.108247
0.593526 1.000000 0.109499
0.657846 1.000000 0.110756
0.722379 1.000000 0.112018
0.787105 1.000000 0.113282
0.852006 1.000000 0.114551
0.917070 1.000000 0.115822
0.982285 1.000000 0.117097
1.000000 1.000000 0.118374
0.000000 0.000000 0.127416
0.018575 0.000000 0.127534
0.079790 0.000000 0.127860
0.142542 0.000000 0.128193
0.206139 0.000000 0.128532
0.270329 0.000000 0.128873
0.334976 0.000000 0.129217
0.399999 0.000861 0.129562
0.465338 0.002421 0.129910
0.530953 0.003987 0.130259
0.596811 0.005560 0.130609
