assets/luts/generated_genre/bs_action_teal_orange_punch_ecebec11ef93c2d4.cube
# V4 spec-generated LUT — bs_action_teal_orange_punch
# Genre: action
# Look: Modern action teal-orange — crushed blacks, punchy mids, saturated. Van Hoytema/Tenet, Fraser/The Ba
# Spec hash: ecebec11ef93c2d4
TITLE "V4 Spec LUT — bs_action_teal_orange_punch"
LUT_3D_SIZE 5
DOMAIN_MIN 0.0 0.0 0.0
DOMAIN_MAX 1.0 1.0 1.0
0.000000 0.021132 0.043132
0.175775 0.015960 0.032388
0.483579 0.008745 0.017401
0.801212 0.001299 0.001935
1.000000 0.000000 0.000000
0.000000 0.222120 0.006990
0.183367 0.216948 0.000000
0.491170 0.209733 0.000000
0.808803 0.202287 0.000000
1.000000 0.194696 0.000000
0.000000 0.502503 0.000000
0.193957 0.497331 0.000000
0.501760 0.490116 0.000000
0.819137 0.482752 0.000000
1.000000 0.477796 0.000000
0.000000 0.793732 0.000000
0.193316 0.790356 0.000000
0.493261 0.785645 0.000000
0.802784 0.780784 0.000000
1.000000 0.775828 0.000000
0.000000 1.000000 0.000000
0.176643 1.000000 0.000000
0.476588 1.000000 0.000000
0.786111 1.000000 0.000000
1.000000 1.000000 0.000000
0.000000 0.019375 0.257870
0.176542 0.014203 0.247126
0.484345 0.006988 0.232139
0.801978 0.000000 0.216673
1.000000 0.000000 0.200904
0.000000 0.220363 0.221728
0.184133 0.215191 0.210985
0.491936 0.207976 0.195997
0.809570 0.200531 0.180531
1.000000 0.192939 0.164762
0.000000 0.500746 0.171310
0.194724 0.495574 0.160566
0.502527 0.488359 0.145579
0.817990 0.481605 0.132950
1.000000 0.476649 0.127994
0.000000 0.792586 0.129546
0.192169 0.789209 0.126169
0.492114 0.784498 0.121459
0.801637 0.779637 0.116598
1.000000 0.774681 0.111642
0.000000 1.000000 0.112873
0.175496 1.000000 0.109496
0.475441 1.000000 0.104786
0.784965 1.000000 0.099925
1.000000 1.000000 0.094969
0.000000 0.016925 0.557435
0.177611 0.011753 0.546692
0.485414 0.004538 0.531704
0.803047 0.000000 0.516238
1.000000 0.000000 0.500469
0.000000 0.217913 0.521294
0.185202 0.212741 0.510550
0.493006 0.205526 0.495563
0.810639 0.198080 0.480097
1.000000 0.190489 0.464328
0.000000 0.498296 0.470875
0.195793 0.493124 0.460131
0.503596 0.485909 0.445144
0.816390 0.480006 0.436006
1.000000 0.475050 0.431050
0.000000 0.790986 0.432601
0.190569 0.787609 0.429225
0.490514 0.782899 0.424514
0.800038 0.778038 0.419653
1.000000 0.773082 0.414697
0.000000 1.000000 0.415928
0.173897 1.000000 0.412552
0.473841 1.000000 0.407841
0.783365 1.000000 0.402980
1.000000 1.000000 0.398024
0.000000 0.014396 0.866568
0.178714 0.009224 0.855824
0.486517 0.002009 0.840837
0.804150 0.000000 0.825371
1.000000 0.000000 0.809602
0.000000 0.215384 0.830426
0.186306 0.210212 0.819682
0.494109 0.202997 0.804695
0.811742 0.195552 0.789229
1.000000 0.187961 0.773460
0.000000 0.495768 0.780007
0.196896 0.490596 0.769264
0.504699 0.483381 0.754276
0.814740 0.478355 0.748740
1.000000 0.473399 0.743783
0.000000 0.789335 0.745335
0.188919 0.785958 0.741958
0.488863 0.781248 0.737248
0.798387 0.776387 0.732387
1.000000 0.771431 0.727431
0.000000 1.000000 0.728662
0.172246 1.000000 0.725286
0.472190 1.000000 0.720575
0.781714 1.000000 0.715714
1.000000 1.000000 0.710758
0.000000 0.011818 1.000000
0.179839 0.006646 1.000000
0.487642 0.000000 1.000000
0.805275 0.000000 1.000000
1.000000 0.000000 1.000000
0.000000 0.212806 1.000000
0.187430 0.207634 1.000000
0.495234 0.200419 1.000000
0.812867 0.192974 1.000000
1.000000 0.185383 1.000000
0.000000 0.493190 1.000000
0.198021 0.488018 1.000000
0.503533 0.481533 1.000000
0.813056 0.476672 1.000000
1.000000 0.471716 1.000000
0.000000 0.787652 1.000000
0.187236 0.784275 1.000000
0.487180 0.779565 1.000000
0.796704 0.774704 1.000000
1.000000 0.769748 1.000000
0.000000 1.000000 1.000000
0.170563 1.000000 1.000000
0.470507 1.000000 1.000000
0.780031 1.000000 1.000000
1.000000 1.000000 1.000000
