assets/luts/generated_genre/bs_action_arid_sicario_d250d64d01c70529.cube
# V4 spec-generated LUT — bs_action_arid_sicario
# Genre: action
# Look: Arid action — oppressive amber midtones, lethal stillness. Deakins/Sicario.
# Spec hash: d250d64d01c70529
TITLE "V4 Spec LUT — bs_action_arid_sicario"
LUT_3D_SIZE 5
DOMAIN_MIN 0.0 0.0 0.0
DOMAIN_MAX 1.0 1.0 1.0
0.000000 0.000000 0.000000
0.204646 0.000000 0.000000
0.463845 0.001235 0.000000
0.727665 0.007534 0.000000
0.994430 0.013903 0.000000
0.016009 0.210443 0.000000
0.225869 0.215453 0.000000
0.485068 0.221642 0.000000
0.748889 0.227941 0.000000
1.000000 0.234310 0.000000
0.042222 0.482669 0.000000
0.252082 0.487679 0.000000
0.511281 0.493868 0.000000
0.774930 0.500071 0.000000
1.000000 0.502962 0.002764
0.065120 0.757636 0.000624
0.270080 0.759911 0.004630
0.523228 0.762720 0.009577
0.780889 0.765579 0.014612
1.000000 0.768471 0.019704
0.071146 1.000000 0.017753
0.276106 1.000000 0.021758
0.529253 1.000000 0.026706
0.786914 1.000000 0.031741
1.000000 1.000000 0.036833
0.000000 0.000000 0.189216
0.206788 0.000000 0.190332
0.465988 0.002936 0.191710
0.729808 0.009235 0.193112
0.996572 0.015604 0.194531
0.018151 0.212144 0.192969
0.228011 0.217155 0.194085
0.487211 0.223343 0.195463
0.751031 0.229642 0.196866
1.000000 0.236011 0.198284
0.044364 0.484370 0.197605
0.254224 0.489381 0.198721
0.513424 0.495569 0.200099
0.775408 0.500843 0.202584
1.000000 0.503735 0.207676
0.065599 0.758409 0.205536
0.270559 0.760683 0.209541
0.523707 0.763492 0.214488
0.781367 0.766352 0.219524
1.000000 0.769243 0.224615
0.071624 1.000000 0.222664
0.276584 1.000000 0.226670
0.529732 1.000000 0.231617
0.787393 1.000000 0.236652
1.000000 1.000000 0.241744
0.000000 0.000000 0.441091
0.209434 0.000000 0.442207
0.468634 0.005038 0.443585
0.732454 0.011337 0.444988
0.999219 0.017706 0.446406
0.020798 0.214246 0.444845
0.230658 0.219256 0.445961
0.489857 0.225445 0.447339
0.753677 0.231744 0.448741
1.000000 0.238113 0.450160
0.047010 0.486472 0.449481
0.256870 0.491482 0.450597
0.516070 0.497671 0.451975
0.775999 0.501797 0.455672
1.000000 0.504689 0.460763
0.066190 0.759363 0.458623
0.271150 0.761637 0.462629
0.524298 0.764446 0.467576
0.781958 0.767306 0.472611
1.000000 0.770197 0.477703
0.072215 1.000000 0.475752
0.277175 1.000000 0.479757
0.530323 1.000000 0.484705
0.787984 1.000000 0.489740
1.000000 1.000000 0.494832
0.002268 0.000000 0.697457
0.212128 0.000989 0.698573
0.471327 0.007177 0.699951
0.735148 0.013476 0.701353
1.000000 0.019845 0.702772
0.023491 0.216385 0.701210
0.233351 0.221396 0.702326
0.492550 0.227584 0.703704
0.756371 0.233883 0.705107
1.000000 0.240252 0.706525
0.049704 0.488611 0.705846
0.259564 0.493622 0.706962
0.518763 0.499810 0.708340
0.776601 0.502768 0.713271
1.000000 0.505660 0.718363
0.066791 0.760334 0.716223
0.271751 0.762608 0.720228
0.524899 0.765417 0.725175
0.782560 0.768277 0.730211
1.000000 0.771168 0.735302
0.072817 1.000000 0.733351
0.277777 1.000000 0.737357
0.530925 1.000000 0.742304
0.788585 1.000000 0.747339
1.000000 1.000000 0.752431
0.004991 0.000000 0.956684
0.214851 0.003152 0.957799
0.474051 0.009340 0.959178
0.737871 0.015639 0.960580
1.000000 0.022008 0.961999
0.026214 0.218548 0.960437
0.236074 0.223559 0.961553
0.495274 0.229747 0.962931
0.759094 0.236046 0.964334
1.000000 0.242415 0.965752
0.052427 0.490774 0.965073
0.262287 0.495785 0.966189
0.519549 0.500891 0.968710
0.777209 0.503750 0.973745
1.000000 0.506642 0.978837
0.067400 0.761316 0.976697
0.272360 0.763590 0.980702
0.525507 0.766399 0.985650
0.783168 0.769259 0.990685
1.000000 0.772150 0.995777
0.073425 1.000000 0.993825
0.278385 1.000000 0.997831
0.531533 1.000000 1.000000
0.789193 1.000000 1.000000
1.000000 1.000000 1.000000
