assets/luts/generated_genre/bs_action_teal_orange_punch_ecebec11ef93c2d4.cube
# V4 spec-generated LUT — bs_action_teal_orange_punch
# Genre: action
# Look: Modern action teal-orange — crushed blacks, punchy mids, saturated. Van Hoytema/Tenet, Fraser/The Ba
# Spec hash: ecebec11ef93c2d4
TITLE "V4 Spec LUT — bs_action_teal_orange_punch"
LUT_3D_SIZE 17
DOMAIN_MIN 0.0 0.0 0.0
DOMAIN_MAX 1.0 1.0 1.0
0.000000 0.021132 0.043132
0.000000 0.021000 0.042859
0.029010 0.019400 0.039534
0.101433 0.017702 0.036008
0.175775 0.015960 0.032388
0.251416 0.014187 0.028705
0.328045 0.012390 0.024974
0.405474 0.010575 0.021204
0.483579 0.008745 0.017401
0.562266 0.006900 0.013569
0.641469 0.005044 0.009713
0.721132 0.003176 0.005834
0.801212 0.001299 0.001935
0.881673 0.000000 0.000000
0.962486 0.000000 0.000000
1.000000 0.000000 0.000000
1.000000 0.000000 0.000000
0.000000 0.026231 0.042215
0.000000 0.026099 0.041942
0.029202 0.024499 0.038617
0.101625 0.022801 0.035091
0.175968 0.021059 0.031471
0.251608 0.019285 0.027788
0.328237 0.017489 0.024057
0.405667 0.015674 0.020287
0.483771 0.013843 0.016484
0.562459 0.011999 0.012652
0.641661 0.010142 0.008796
0.721324 0.008275 0.004917
0.801404 0.006398 0.001018
0.881866 0.004512 0.000000
0.962678 0.002618 0.000000
1.000000 0.000716 0.000000
1.000000 0.000000 0.000000
0.000000 0.088428 0.031030
0.000000 0.088297 0.030758
0.031552 0.086697 0.027433
0.103975 0.084999 0.023907
0.178317 0.083256 0.020287
0.253958 0.081483 0.016604
0.330586 0.079687 0.012873
0.408016 0.077872 0.009102
0.486120 0.076041 0.005299
0.564808 0.074197 0.001468
0.644011 0.072340 0.000000
0.723674 0.070473 0.000000
0.803754 0.068596 0.000000
0.884215 0.066710 0.000000
0.965028 0.064815 0.000000
1.000000 0.062914 0.000000
1.000000 0.061004 0.000000
0.000000 0.154400 0.019167
0.000000 0.154269 0.018895
0.034043 0.152668 0.015570
0.106467 0.150970 0.012044
0.180809 0.149228 0.008424
0.256449 0.147455 0.004741
0.333078 0.145659 0.001010
0.410508 0.143844 0.000000
0.488612 0.142013 0.000000
0.567300 0.140168 0.000000
0.646502 0.138312 0.000000
0.726165 0.136444 0.000000
0.806245 0.134567 0.000000
0.886707 0.132681 0.000000
0.967520 0.130787 0.000000
1.000000 0.128885 0.000000
1.000000 0.126976 0.000000
0.000000 0.222120 0.006990
0.000000 0.221988 0.006717
0.036601 0.220388 0.003393
0.109024 0.218690 0.000000
0.183367 0.216948 0.000000
0.259007 0.215175 0.000000
0.335636 0.213378 0.000000
0.413066 0.211563 0.000000
0.491170 0.209733 0.000000
0.569858 0.207888 0.000000
0.649060 0.206032 0.000000
0.728723 0.204164 0.000000
0.808803 0.202287 0.000000
0.889265 0.200401 0.000000
0.970077 0.198507 0.000000
1.000000 0.196605 0.000000
1.000000 0.194696 0.000000
0.000000 0.291022 0.000000
0.000000 0.290891 0.000000
0.039204 0.289290 0.000000
0.111627 0.287592 0.000000
0.185969 0.285850 0.000000
0.261610 0.284077 0.000000
0.338239 0.282281 0.000000
0.415668 0.280466 0.000000
0.493773 0.278635 0.000000
0.572460 0.276790 0.000000
0.651663 0.274934 0.000000
0.731326 0.273066 0.000000
0.811406 0.271189 0.000000
0.891867 0.269303 0.000000
0.972680 0.267409 0.000000
1.000000 0.265507 0.000000
1.000000 0.263598 0.000000
0.000000 0.360824 0.000000
0.000000 0.360693 0.000000
0.041840 0.359093 0.000000
0.114263 0.357395 0.000000
0.188606 0.355652 0.000000
0.264246 0.353879 0.000000
0.340875 0.352083 0.000000
0.418305 0.350268 0.000000
0.496409 0.348437 0.000000
0.575097 0.346593 0.000000
0.654299 0.344736 0.000000
0.733962 0.342869 0.000000
0.814042 0.340992 0.000000
0.894504 0.339106 0.000000
0.975316 0.337211 0.000000
1.000000 0.335310 0.000000
1.000000 0.333400 0.000000
0.000000 0.431356 0.000000
0.000000 0.431225 0.000000
0.044504 0.429625 0.000000
0.116927 0.427927 0.000000
0.191270 0.426184 0.000000
0.266910 0.424411 0.000000
0.343539 0.422615 0.000000
0.420969 0.420800 0.000000
0.499073 0.418969 0.000000
0.577761 0.417125 0.000000
0.656963 0.415268 0.000000
0.736626 0.413401 0.000000
0.816706 0.411524 0.000000
0.897168 0.409638 0.000000
0.977980 0.407744 0.000000
1.000000 0.405842 0.000000
1.000000 0.404512 0.000000
0.000000 0.502503 0.000000
0.000000 0.502372 0.000000
0.047192 0.500771 0.000000
0.119615 0.499074 0.000000
0.193957 0.497331 0.000000
0.269598 0.495558 0.000000
0.346226 0.493762 0.000000
0.423656 0.491947 0.000000
0.501760 0.490116 0.000000
0.580448 0.488271 0.000000
0.659651 0.486415 0.000000
0.739314 0.484547 0.000000
0.819137 0.482752 0.000000
0.897544 0.481521 0.000000
0.976293 0.480284 0.000000
1.000000 0.479042 0.000000
1.000000 0.477796 0.000000
0.000000 0.574181 0.000000
0.000000 0.574050 0.000000
0.049899 0.572449 0.000000
0.122322 0.570752 0.000000
0.196665 0.569009 0.000000
0.272305 0.567236 0.000000
0.348934 0.565440 0.000000
0.426364 0.563625 0.000000
0.504468 0.561794 0.000000
0.582241 0.560241 0.000000
0.659421 0.559029 0.000000
0.737050 0.557810 0.000000
0.815086 0.556584 0.000000
0.893493 0.555353 0.000000
0.972242 0.554116 0.000000
1.000000 0.552874 0.000000
1.000000 0.551628 0.000000
0.000000 0.646328 0.000000
0.000000 0.646197 0.000000
0.052624 0.644596 0.000000
0.125047 0.642898 0.000000
0.199390 0.641156 0.000000
0.275030 0.639383 0.000000
0.349922 0.638140 0.000000
0.425374 0.636955 0.000000
0.501485 0.635760 0.000000
0.578163 0.634556 0.000000
0.655344 0.633344 0.000000
0.732973 0.632124 0.000000
0.811008 0.630899 0.000000
0.889415 0.629668 0.000000
0.968165 0.628431 0.000000
1.000000 0.627189 0.000000
1.000000 0.625943 0.000000
0.000000 0.718894 0.000000
0.000000 0.718763 0.000000
0.054420 0.717463 0.000000
0.124994 0.716355 0.000000
0.197439 0.715217 0.000000
0.271148 0.714060 0.000000
0.345820 0.712887 0.000000
0.421273 0.711702 0.000000
0.497383 0.710507 0.000000
0.574062 0.709303 0.000000
0.651242 0.708091 0.000000
0.728871 0.706871 0.000000
0.806907 0.705646 0.000000
0.885314 0.704415 0.000000
0.964063 0.703178 0.000000
1.000000 0.701936 0.000000
1.000000 0.700690 0.000000
0.000000 0.793732 0.000000
0.000000 0.793647 0.000000
0.050297 0.792602 0.000000
0.120872 0.791493 0.000000
0.193316 0.790356 0.000000
0.267025 0.789198 0.000000
0.341698 0.788025 0.000000
0.417150 0.786840 0.000000
0.493261 0.785645 0.000000
0.569939 0.784441 0.000000
0.647120 0.783229 0.000000
0.724749 0.782010 0.000000
0.802784 0.780784 0.000000
0.881191 0.779553 0.000000
0.959941 0.778316 0.000000
1.000000 0.777074 0.000000
1.000000 0.775828 0.000000
0.000000 0.869228 0.000000
0.000000 0.869143 0.000000
0.046155 0.868098 0.000000
0.116729 0.866990 0.000000
0.189174 0.865852 0.000000
0.262883 0.864694 0.000000
0.337555 0.863522 0.000000
0.413008 0.862337 0.000000
0.489118 0.861141 0.000000
0.565797 0.859937 0.000000
0.642977 0.858725 0.000000
0.720606 0.857506 0.000000
0.798642 0.856280 0.000000
0.877049 0.855049 0.000000
0.955798 0.853812 0.000000
1.000000 0.852571 0.000000
1.000000 0.851324 0.000000
0.000000 0.945054 0.000000
0.000000 0.944969 0.000000
0.041995 0.943924 0.000000
0.112569 0.942815 0.000000
0.185013 0.941678 0.000000
0.258722 0.940520 0.000000
0.333395 0.939347 0.000000
0.408848 0.938162 0.000000
0.484958 0.936967 0.000000
0.561637 0.935763 0.000000
0.638817 0.934551 0.000000
0.716446 0.933332 0.000000
0.794481 0.932106 0.000000
0.872889 0.930875 0.000000
0.951638 0.929638 0.000000
1.000000 0.928396 0.000000
1.000000 0.927150 0.000000
0.000000 1.000000 0.000000
0.000000 1.000000 0.000000
0.037817 1.000000 0.000000
0.108392 1.000000 0.000000
0.180836 1.000000 0.000000
0.254545 1.000000 0.000000
0.329218 1.000000 0.000000
0.404670 1.000000 0.000000
0.480781 1.000000 0.000000
0.557459 1.000000 0.000000
0.634640 1.000000 0.000000
0.712269 1.000000 0.000000
0.790304 1.000000 0.000000
0.868711 1.000000 0.000000
0.947461 1.000000 0.000000
1.000000 1.000000 0.000000
1.000000 1.000000 0.000000
0.000000 1.000000 0.000000
0.000000 1.000000 0.000000
0.033625 1.000000 0.000000
0.104199 1.000000 0.000000
0.176643 1.000000 0.000000
0.250352 1.000000 0.000000
0.325025 1.000000 0.000000
0.400478 1.000000 0.000000
0.476588 1.000000 0.000000
0.553267 1.000000 0.000000
0.630447 1.000000 0.000000
0.708076 1.000000 0.000000
0.786111 1.000000 0.000000
0.864518 1.000000 0.000000
0.943268 1.000000 0.000000
1.000000 1.000000 0.000000
1.000000 1.000000 0.000000
0.000000 0.021087 0.048579
0.000000 0.020956 0.048307
0.029029 0.019355 0.044982
0.101452 0.017658 0.041456
0.175795 0.015915 0.037836
0.251435 0.014142 0.034153
0.328064 0.012346 0.030422
0.405494 0.010531 0.026651
0.483598 0.008700 0.022848
0.562286 0.006856 0.019017
0.641488 0.004999 0.015160
0.721151 0.003132 0.011282
0.801231 0.001255 0.007382
0.881693 0.000000 0.003465
0.962505 0.000000 0.000000
1.000000 0.000000 0.000000
1.000000 0.000000 0.000000
0.000000 0.026186 0.047662
0.000000 0.026055 0.047390
0.029222 0.024454 0.044065
0.101645 0.022757 0.040539
0.175987 0.021014 0.036919
0.251628 0.019241 0.033236
0.328257 0.017445 0.029505
0.405686 0.015630 0.025735
0.483791 0.013799 0.021932
0.562478 0.011954 0.018100
0.641681 0.010098 0.014244
0.721344 0.008231 0.010365
0.801424 0.006353 0.006465
0.881885 0.004467 0.002548
0.962698 0.002573 0.000000
1.000000 0.000671 0.000000
1.000000 0.000000 0.000000
0.000000 0.088384 0.036478
0.000000 0.088253 0.036205
0.031571 0.086652 0.032881
0.103994 0.084954 0.029354
0.178337 0.083212 0.025735
0.253977 0.081439 0.022051
0.330606 0.079642 0.018320
0.408036 0.077827 0.014550
0.486140 0.075997 0.010747
0.564828 0.074152 0.006916
0.644030 0.072296 0.003059
0.723693 0.070428 0.000000
0.803773 0.068551 0.000000
0.884234 0.066665 0.000000
0.965047 0.064771 0.000000
1.000000 0.062869 0.000000
1.000000 0.060960 0.000000
0.000000 0.154355 0.024615
0.000000 0.154224 0.024342
0.034063 0.152624 0.021018
0.106486 0.150926 0.017491
0.180828 0.149183 0.013871
0.256469 0.147410 0.010188
0.333098 0.145614 0.006457
0.410527 0.143799 0.002687
0.488632 0.141968 0.000000
0.567319 0.140124 0.000000
0.646522 0.138267 0.000000
0.726185 0.136400 0.000000
0.806265 0.134523 0.000000
0.886726 0.132637 0.000000
0.967539 0.130742 0.000000
1.000000 0.128840 0.000000
1.000000 0.126931 0.000000
0.000000 0.222075 0.012438
0.000000 0.221944 0.012165
0.036621 0.220343 0.008840
0.109044 0.218646 0.005314
0.183386 0.216903 0.001694
0.259027 0.215130 0.000000
0.335656 0.213334 0.000000
0.413085 0.211519 0.000000
0.491190 0.209688 0.000000
0.569877 0.207844 0.000000
0.649080 0.205987 0.000000
0.728743 0.204120 0.000000
0.808823 0.202243 0.000000
0.889284 0.200356 0.000000
0.970097 0.198462 0.000000
1.000000 0.196560 0.000000
1.000000 0.194651 0.000000
0.000000 0.290977 0.000048
0.000000 0.290846 0.000000
0.039223 0.289246 0.000000
0.111646 0.287548 0.000000
0.185989 0.285805 0.000000
0.261629 0.284032 0.000000
0.338258 0.282236 0.000000
0.415688 0.280421 0.000000
0.493792 0.278590 0.000000
0.572480 0.276746 0.000000
0.651682 0.274889 0.000000
0.731345 0.273022 0.000000
0.811425 0.271145 0.000000
0.891887 0.269259 0.000000
0.972699 0.267364 0.000000
1.000000 0.265462 0.000000
1.000000 0.263553 0.000000
0.000000 0.360780 0.000000
0.000000 0.360649 0.000000
0.041860 0.359048 0.000000
0.114283 0.357350 0.000000
0.188625 0.355608 0.000000
0.264266 0.353835 0.000000
0.340895 0.352039 0.000000
0.418324 0.350224 0.000000
0.496429 0.348393 0.000000
0.575116 0.346548 0.000000
0.654319 0.344692 0.000000
0.733982 0.342824 0.000000
0.814062 0.340947 0.000000
0.894523 0.339061 0.000000
0.975336 0.337167 0.000000
1.000000 0.335265 0.000000
1.000000 0.333356 0.000000
0.000000 0.431312 0.000000
0.000000 0.431181 0.000000
0.044524 0.429580 0.000000
0.116947 0.427882 0.000000
0.191289 0.426140 0.000000
0.266930 0.424367 0.000000
0.343559 0.422571 0.000000
0.420988 0.420756 0.000000
0.499093 0.418925 0.000000
0.577780 0.417080 0.000000
0.656983 0.415224 0.000000
0.736646 0.413356 0.000000
0.816726 0.411479 0.000000
0.897187 0.409593 0.000000
0.978000 0.407699 0.000000
1.000000 0.405797 0.000000
1.000000 0.404483 0.000000
0.000000 0.502458 0.000000
0.000000 0.502327 0.000000
0.047211 0.500727 0.000000
0.119634 0.499029 0.000000
0.193977 0.497286 0.000000
0.269617 0.495513 0.000000
0.346246 0.493717 0.000000
0.423676 0.491902 0.000000
0.501780 0.490071 0.000000
0.580468 0.488227 0.000000
0.659670 0.486370 0.000000
0.739333 0.484503 0.000000
0.819108 0.482723 0.000000
0.897515 0.481492 0.000000
0.976264 0.480255 0.000000
1.000000 0.479013 0.000000
1.000000 0.477767 0.000000
0.000000 0.574136 0.000000
0.000000 0.574005 0.000000
0.049918 0.572405 0.000000
0.122342 0.570707 0.000000
0.196684 0.568964 0.000000
0.272324 0.567191 0.000000
0.348953 0.565395 0.000000
0.426383 0.563580 0.000000
0.504487 0.561749 0.000000
0.582212 0.560212 0.000000
0.659392 0.559000 0.000000
0.737021 0.557781 0.000000
0.815057 0.556555 0.000000
0.893464 0.555324 0.000000
0.972213 0.554087 0.000000
1.000000 0.552845 0.000000
1.000000 0.551599 0.000000
0.000000 0.646283 0.000000
0.000000 0.646152 0.000000
0.052643 0.644551 0.000000
0.125067 0.642854 0.000000
0.199409 0.641111 0.000000
0.275050 0.639338 0.000000
0.349893 0.638111 0.000000
0.425345 0.636926 0.000000
0.501456 0.635731 0.000000
0.578134 0.634527 0.000000
0.655314 0.633314 0.000000
0.732944 0.632095 0.000000
0.810979 0.630870 0.000000
0.889386 0.629638 0.000000
0.968136 0.628402 0.000000
1.000000 0.627160 0.000000
1.000000 0.625914 0.000000
0.000000 0.718850 0.000000
0.000000 0.718718 0.000000
0.054391 0.717434 0.000000
0.124965 0.716326 0.000000
0.197410 0.715188 0.000000
0.271119 0.714031 0.000000
0.345791 0.712858 0.000000
0.421244 0.711673 0.000000
0.497354 0.710478 0.000000
0.574033 0.709274 0.000000
0.651213 0.708061 0.000000
0.728842 0.706842 0.000000
0.806878 0.705617 0.000000
0.885285 0.704385 0.000000
0.964034 0.703149 0.000000
1.000000 0.701907 0.000000
1.000000 0.700661 0.000000
0.000000 0.793703 0.000000
0.000000 0.793618 0.000000
0.050268 0.792573 0.000000
0.120842 0.791464 0.000000
0.193287 0.790327 0.000000
0.266996 0.789169 0.000000
0.341669 0.787996 0.000000
0.417121 0.786811 0.000000
0.493232 0.785616 0.000000
0.569910 0.784412 0.000000
0.647091 0.783200 0.000000
0.724720 0.781981 0.000000
0.802755 0.780755 0.000000
0.881162 0.779524 0.000000
0.959912 0.778287 0.000000
1.000000 0.777045 0.000000
1.000000 0.775799 0.000000
0.000000 0.869199 0.000000
0.000000 0.869114 0.000000
0.046126 0.868069 0.000000
0.116700 0.866960 0.000000
0.189144 0.865823 0.000000
0.262854 0.864665 0.000000
0.337526 0.863492 0.000000
0.412979 0.862307 0.000000
0.489089 0.861112 0.000000
0.565768 0.859908 0.000000
0.642948 0.858696 0.000000
0.720577 0.857477 0.000000
0.798613 0.856251 0.000000
0.877020 0.855020 0.000000
0.955769 0.853783 0.000000
1.000000 0.852541 0.000000
1.000000 0.851295 0.000000
0.000000 0.945025 0.000000
0.000000 0.944939 0.000000
0.041966 0.943894 0.000000
0.112540 0.942786 0.000000
0.184984 0.941648 0.000000
0.258693 0.940491 0.000000
0.333366 0.939318 0.000000
0.408819 0.938133 0.000000
0.484929 0.936938 0.000000
0.561607 0.935734 0.000000
0.638788 0.934522 0.000000
0.716417 0.933302 0.000000
0.794452 0.932077 0.000000
0.872859 0.930846 0.000000
0.951609 0.929609 0.000000
1.000000 0.928367 0.000000
1.000000 0.927121 0.000000
0.000000 1.000000 0.000000
0.000000 1.000000 0.000000
0.037788 1.000000 0.000000
0.108362 1.000000 0.000000
0.180807 1.000000 0.000000
0.254516 1.000000 0.000000
0.329189 1.000000 0.000000
0.404641 1.000000 0.000000
0.480752 1.000000 0.000000
0.557430 1.000000 0.000000
0.634610 1.000000 0.000000
0.712240 1.000000 0.000000
0.790275 1.000000 0.000000
0.868682 1.000000 0.000000
0.947432 1.000000 0.000000
1.000000 1.000000 0.000000
1.000000 1.000000 0.000000
0.000000 1.000000 0.000000
0.000000 1.000000 0.000000
0.033595 1.000000 0.000000
0.104170 1.000000 0.000000
0.176614 1.000000 0.000000
0.250323 1.000000 0.000000
0.324996 1.000000 0.000000
0.400448 1.000000 0.000000
0.476559 1.000000 0.000000
0.553237 1.000000 0.000000
0.630418 1.000000 0.000000
0.708047 1.000000 0.000000
0.786082 1.000000 0.000000
0.864489 1.000000 0.000000
0.943239 1.000000 0.000000
1.000000 1.000000 0.000000
1.000000 1.000000 0.000000
0.000000 0.020544 0.115032
0.000000 0.020412 0.114760
0.029266 0.018812 0.111435
0.101689 0.017114 0.107909
0.176032 0.015372 0.104289
0.251672 0.013599 0.100606
0.328301 0.011802 0.096875
0.405731 0.009987 0.093104
0.483835 0.008157 0.089301
0.562523 0.006312 0.085470
0.641725 0.004455 0.081613
0.721388 0.002588 0.077735
0.801468 0.000711 0.073835
0.881930 0.000000 0.069918
0.962742 0.000000 0.065983
1.000000 0.000000 0.062032
1.000000 0.000000 0.058066
0.000000 0.025642 0.114115
0.000000 0.025511 0.113843
0.029459 0.023911 0.110518
0.101882 0.022213 0.106992
0.176224 0.020470 0.103372
0.251865 0.018697 0.099689
0.328494 0.016901 0.095958
0.405923 0.015086 0.092188
0.484028 0.013255 0.088384
0.562716 0.011411 0.084553
0.641918 0.009554 0.080697
0.721581 0.007687 0.076818
0.801661 0.005810 0.072918
0.882122 0.003924 0.069001
0.962935 0.002030 0.065066
1.000000 0.000128 0.061115
1.000000 0.000000 0.057149
0.000000 0.087840 0.102931
0.000000 0.087709 0.102658
0.031808 0.086108 0.099334
0.104231 0.084411 0.095807
0.178574 0.082668 0.092187
0.254214 0.080895 0.088504
0.330843 0.079099 0.084773
0.408273 0.077284 0.081003
0.486377 0.075453 0.077200
0.565065 0.073609 0.073369
0.644267 0.071752 0.069512
0.723930 0.069885 0.065633
0.804010 0.068008 0.061734
0.884472 0.066122 0.057816
0.965284 0.064227 0.053881
1.000000 0.062325 0.049931
1.000000 0.060416 0.045965
0.000000 0.153812 0.091068
0.000000 0.153681 0.090795
0.034300 0.152080 0.087471
0.106723 0.150382 0.083944
0.181066 0.148640 0.080324
0.256706 0.146867 0.076641
0.333335 0.145070 0.072910
0.410765 0.143255 0.069140
0.488869 0.141425 0.065337
0.567557 0.139580 0.061506
0.646759 0.137724 0.057649
0.726422 0.135856 0.053770
0.806502 0.133979 0.049871
0.886963 0.132093 0.045953
0.967776 0.130199 0.042018
1.000000 0.128297 0.038068
1.000000 0.126388 0.034102
0.000000 0.221532 0.078891
0.000000 0.221400 0.078618
0.036858 0.219800 0.075293
0.109281 0.218102 0.071767
0.183623 0.216360 0.068147
0.259264 0.214586 0.064464
0.335893 0.212790 0.060733
0.413322 0.210975 0.056963
0.491427 0.209144 0.053160
0.570114 0.207300 0.049328
0.649317 0.205443 0.045472
0.728980 0.203576 0.041593
0.809060 0.201699 0.037694
0.889521 0.199813 0.033776
0.970334 0.197919 0.029841
1.000000 0.196017 0.025890
1.000000 0.194108 0.021925
0.000000 0.290434 0.066500
0.000000 0.290303 0.066228
0.039460 0.288702 0.062903
0.111884 0.287004 0.059377
0.186226 0.285262 0.055757
0.261866 0.283489 0.052074
0.338495 0.281692 0.048343
0.415925 0.279877 0.044573
0.494029 0.278047 0.040770
0.572717 0.276202 0.036938
0.651919 0.274346 0.033082
0.731582 0.272478 0.029203
0.811662 0.270601 0.025304
0.892124 0.268715 0.021386
0.972936 0.266821 0.017451
1.000000 0.264919 0.013500
1.000000 0.263010 0.009535
0.000000 0.360236 0.053949
0.000000 0.360105 0.053676
0.042097 0.358504 0.050351
0.114520 0.356807 0.046825
0.188862 0.355064 0.043205
0.264503 0.353291 0.039522
0.341132 0.351495 0.035791
0.418561 0.349680 0.032021
0.496666 0.347849 0.028218
0.575353 0.346005 0.024386
0.654556 0.344148 0.020530
0.734219 0.342281 0.016651
0.814299 0.340404 0.012752
0.894760 0.338518 0.008834
0.975573 0.336623 0.004899
1.000000 0.334721 0.000948
1.000000 0.332812 0.000000
0.000000 0.430768 0.041265
0.000000 0.430637 0.040993
0.044761 0.429037 0.037668
0.117184 0.427339 0.034142
0.191527 0.425596 0.030522
0.267167 0.423823 0.026839
0.343796 0.422027 0.023108
0.421226 0.420212 0.019338
0.499330 0.418381 0.015535
0.578018 0.416537 0.011703
0.657220 0.414680 0.007847
0.736883 0.412813 0.003968
0.816963 0.410936 0.000069
0.897424 0.409050 0.000000
0.978237 0.407155 0.000000
1.000000 0.405374 0.000000
1.000000 0.404128 0.000000
0.000000 0.501915 0.028472
0.000000 0.501784 0.028199
0.047448 0.500183 0.024875
0.119871 0.498485 0.021348
0.194214 0.496743 0.017728
0.269854 0.494970 0.014045
0.346483 0.493174 0.010314
0.423913 0.491359 0.006544
0.502017 0.489528 0.002741
0.580705 0.487683 0.000000
0.659907 0.485827 0.000000
0.739570 0.483959 0.000000
0.818753 0.482368 0.000000
0.897160 0.481137 0.000000
0.975909 0.479900 0.000000
1.000000 0.478658 0.000000
1.000000 0.477412 0.000000
0.000000 0.573593 0.015583
0.000000 0.573462 0.015310
0.050156 0.571861 0.011985
0.122579 0.570163 0.008459
0.196921 0.568421 0.004839
0.272562 0.566648 0.001156
0.349190 0.564852 0.000000
0.426620 0.563037 0.000000
0.504724 0.561206 0.000000
0.581857 0.559857 0.000000
0.659037 0.558645 0.000000
0.736666 0.557426 0.000000
0.814702 0.556200 0.000000
0.893109 0.554969 0.000000
0.971858 0.553732 0.000000
1.000000 0.552490 0.000000
1.000000 0.551244 0.000000
0.000000 0.645740 0.002609
0.000000 0.645608 0.002337
0.052881 0.644008 0.000000
0.125304 0.642310 0.000000
0.199646 0.640568 0.000000
0.274865 0.638929 0.000000
0.349538 0.637756 0.000000
0.424990 0.636571 0.000000
0.501101 0.635376 0.000000
0.577779 0.634172 0.000000
0.654960 0.632960 0.000000
0.732589 0.631740 0.000000
0.810624 0.630515 0.000000
0.889031 0.629284 0.000000
0.967781 0.628047 0.000000
1.000000 0.626805 0.000000
1.000000 0.625559 0.000000
0.000000 0.718306 0.000000
0.000000 0.718175 0.000000
0.054036 0.717079 0.000000
0.124610 0.715971 0.000000
0.197055 0.714833 0.000000
0.270764 0.713676 0.000000
0.345436 0.712503 0.000000
0.420889 0.711318 0.000000
0.496999 0.710123 0.000000
0.573678 0.708919 0.000000
0.650858 0.707707 0.000000
0.728487 0.706487 0.000000
0.806523 0.705262 0.000000
0.884930 0.704031 0.000000
0.963680 0.702794 0.000000
1.000000 0.701552 0.000000
1.000000 0.700306 0.000000
0.000000 0.793348 0.000000
0.000000 0.793263 0.000000
0.049913 0.792218 0.000000
0.120488 0.791109 0.000000
0.192932 0.789972 0.000000
0.266641 0.788814 0.000000
0.341314 0.787641 0.000000
0.416766 0.786456 0.000000
0.492877 0.785261 0.000000
0.569555 0.784057 0.000000
0.646736 0.782845 0.000000
0.724365 0.781626 0.000000
0.802400 0.780400 0.000000
0.880807 0.779169 0.000000
0.959557 0.777932 0.000000
1.000000 0.776690 0.000000
1.000000 0.775444 0.000000
0.000000 0.868845 0.000000
0.000000 0.868759 0.000000
0.045771 0.867714 0.000000
0.116345 0.866606 0.000000
0.188790 0.865468 0.000000
0.262499 0.864310 0.000000
0.337171 0.863138 0.000000
0.412624 0.861953 0.000000
0.488734 0.860757 0.000000
0.565413 0.859553 0.000000
0.642593 0.858341 0.000000
0.720222 0.857122 0.000000
0.798258 0.855896 0.000000
0.876665 0.854665 0.000000
0.955414 0.853428 0.000000
1.000000 0.852187 0.000000
1.000000 0.850940 0.000000
0.000000 0.944670 0.000000
0.000000 0.944585 0.000000
0.041611 0.943540 0.000000
0.112185 0.942431 0.000000
0.184629 0.941294 0.000000
0.258338 0.940136 0.000000
0.333011 0.938963 0.000000
0.408464 0.937778 0.000000
0.484574 0.936583 0.000000
0.561253 0.935379 0.000000
0.638433 0.934167 0.000000
0.716062 0.932948 0.000000
0.794097 0.931722 0.000000
0.872505 0.930491 0.000000
0.951254 0.929254 0.000000
1.000000 0.928012 0.000000
1.000000 0.926766 0.000000
0.000000 1.000000 0.000000
0.000000 1.000000 0.000000
0.037433 1.000000 0.000000
0.108008 1.000000 0.000000
0.180452 1.000000 0.000000
0.254161 1.000000 0.000000
0.328834 1.000000 0.000000
0.404286 1.000000 0.000000
0.480397 1.000000 0.000000
0.557075 1.000000 0.000000
0.634256 1.000000 0.000000
0.711885 1.000000 0.000000
0.789920 1.000000 0.000000
0.868327 1.000000 0.000000
0.947077 1.000000 0.000000
1.000000 1.000000 0.000000
1.000000 1.000000 0.000000
0.000000 1.000000 0.000000
0.000000 1.000000 0.000000
0.033241 1.000000 0.000000
0.103815 1.000000 0.000000
0.176259 1.000000 0.000000
0.249968 1.000000 0.000000
0.324641 1.000000 0.000000
0.400094 1.000000 0.000000
0.476204 1.000000 0.000000
0.552883 1.000000 0.000000
0.630063 1.000000 0.000000
0.707692 1.000000 0.000000
0.785727 1.000000 0.000000
0.864134 1.000000 0.000000
0.942884 1.000000 0.000000
1.000000 1.000000 0.000000
1.000000 1.000000 0.000000
0.000000 0.019967 0.185517
0.000000 0.019836 0.185245
0.029518 0.018235 0.181920
0.101941 0.016538 0.178394
0.176283 0.014795 0.174774
0.251924 0.013022 0.171091
0.328553 0.011226 0.167359
0.405982 0.009411 0.163589
0.484087 0.007580 0.159786
0.562774 0.005736 0.155955
