assets/luts/generated_genre/bs_action_arid_sicario_d250d64d01c70529.cube
# V4 spec-generated LUT — bs_action_arid_sicario
# Genre: action
# Look: Arid action — oppressive amber midtones, lethal stillness. Deakins/Sicario.
# Spec hash: d250d64d01c70529
TITLE "V4 Spec LUT — bs_action_arid_sicario"
LUT_3D_SIZE 9
DOMAIN_MIN 0.0 0.0 0.0
DOMAIN_MAX 1.0 1.0 1.0
0.000000 0.000000 0.000000
0.078296 0.000000 0.000000
0.204646 0.000000 0.000000
0.333483 0.000000 0.000000
0.463845 0.001235 0.000000
0.595317 0.004374 0.000000
0.727665 0.007534 0.000000
0.860738 0.010711 0.000000
0.994430 0.013903 0.000000
0.003231 0.077743 0.000000
0.086742 0.079737 0.000000
0.213091 0.082754 0.000000
0.341929 0.085830 0.000000
0.472291 0.088942 0.000000
0.603763 0.092081 0.000000
0.736111 0.095241 0.000000
0.869184 0.098418 0.000000
1.000000 0.101610 0.000000
0.016009 0.210443 0.000000
0.099520 0.212437 0.000000
0.225869 0.215453 0.000000
0.354706 0.218529 0.000000
0.485068 0.221642 0.000000
0.616540 0.224781 0.000000
0.748889 0.227941 0.000000
0.881961 0.231118 0.000000
1.000000 0.234310 0.000000
0.029038 0.345755 0.000000
0.112549 0.347749 0.000000
0.238898 0.350766 0.000000
0.367736 0.353842 0.000000
0.498098 0.356954 0.000000
0.629570 0.360093 0.000000
0.761918 0.363253 0.000000
0.894991 0.366430 0.000000
1.000000 0.369622 0.000000
0.042222 0.482669 0.000000
0.125732 0.484663 0.000000
0.252082 0.487679 0.000000
0.380919 0.490755 0.000000
0.511281 0.493868 0.000000
0.642753 0.497007 0.000000
0.774930 0.500071 0.000000
0.904896 0.501513 0.000213
1.000000 0.502962 0.002764
0.055517 0.620748 0.000000
0.139028 0.622742 0.000000
0.265377 0.625759 0.000000
0.392921 0.628112 0.000000
0.520239 0.629525 0.001079
0.648641 0.630950 0.003588
0.777899 0.632384 0.006114
0.907865 0.633827 0.008654
1.000000 0.635276 0.011206
0.065120 0.757636 0.000624
0.146681 0.758541 0.002218
0.270080 0.759911 0.004630
0.395910 0.761307 0.007089
0.523228 0.762720 0.009577
0.651631 0.764145 0.012086
0.780889 0.765579 0.014612
0.910855 0.767022 0.017152
1.000000 0.768471 0.019704
0.068126 0.891561 0.009169
0.149687 0.892466 0.010763
0.273086 0.893835 0.013174
0.398916 0.895231 0.015633
0.526234 0.896644 0.018121
0.654636 0.898069 0.020631
0.783894 0.899504 0.023157
0.913860 0.900946 0.025697
1.000000 0.902395 0.028248
0.071146 1.000000 0.017753
0.152706 1.000000 0.019347
0.276106 1.000000 0.021758
0.401935 1.000000 0.024217
0.529253 1.000000 0.026706
0.657656 1.000000 0.029215
0.786914 1.000000 0.031741
0.916880 1.000000 0.034281
1.000000 1.000000 0.036833
0.000000 0.000000 0.066437
0.079149 0.000000 0.066881
0.205498 0.000000 0.067552
0.334336 0.000000 0.068237
0.464698 0.001912 0.068931
0.596170 0.005051 0.069630
0.728518 0.008211 0.070333
0.861591 0.011388 0.071041
0.995282 0.014580 0.071752
0.004084 0.078421 0.067930
0.087594 0.080414 0.068374
0.213944 0.083431 0.069046
0.342781 0.086507 0.069731
0.473143 0.089620 0.070424
0.604615 0.092759 0.071123
0.736963 0.095918 0.071827
0.870036 0.099096 0.072534
1.000000 0.102288 0.073245
0.016861 0.211120 0.070190
0.100372 0.213114 0.070634
0.226721 0.216130 0.071306
0.355559 0.219206 0.071991
0.485921 0.222319 0.072684
0.617393 0.225458 0.073383
0.749741 0.228618 0.074087
0.882814 0.231795 0.074794
1.000000 0.234987 0.075505
0.029891 0.346432 0.072495
0.113401 0.348426 0.072939
0.239751 0.351443 0.073610
0.368588 0.354519 0.074295
0.498950 0.357631 0.074988
0.630422 0.360770 0.075687
0.762770 0.363930 0.076391
0.895843 0.367107 0.077099
1.000000 0.370299 0.077809
0.043074 0.483346 0.074826
0.126585 0.485340 0.075270
0.252934 0.488356 0.075942
0.381772 0.491432 0.076627
0.512134 0.494545 0.077320
0.643606 0.497684 0.078019
0.775120 0.500378 0.079214
0.905086 0.501821 0.081754
1.000000 0.503270 0.084306
0.056370 0.621425 0.077178
0.139881 0.623419 0.077622
0.266230 0.626436 0.078293
0.393111 0.628419 0.080132
0.520429 0.629832 0.082620
0.648832 0.631257 0.085130
0.778090 0.632692 0.087656
0.908056 0.634134 0.090196
1.000000 0.635583 0.092748
0.065311 0.757944 0.082166
0.146871 0.758849 0.083760
0.270271 0.760218 0.086171
0.396100 0.761614 0.088630
0.523419 0.763027 0.091118
0.651821 0.764452 0.093628
0.781079 0.765887 0.096154
0.911045 0.767329 0.098694
1.000000 0.768778 0.101245
0.068316 0.891868 0.090710
0.149877 0.892773 0.092304
0.273277 0.894142 0.094716
0.399106 0.895539 0.097175
0.526424 0.896952 0.099663
0.654827 0.898377 0.102172
0.784085 0.899811 0.104698
0.914051 0.901253 0.107238
1.000000 0.902702 0.109790
0.071336 1.000000 0.099294
0.152897 1.000000 0.100888
0.276296 1.000000 0.103300
0.402126 1.000000 0.105759
0.529444 1.000000 0.108247
0.657846 1.000000 0.110756
0.787105 1.000000 0.113282
0.917070 1.000000 0.115822
1.000000 1.000000 0.118374
0.000000 0.000000 0.189216
0.080439 0.000000 0.189660
0.206788 0.000000 0.190332
0.335626 0.000000 0.191017
0.465988 0.002936 0.191710
0.597460 0.006075 0.192409
0.729808 0.009235 0.193112
0.862881 0.012412 0.193820
0.996572 0.015604 0.194531
0.005374 0.079445 0.190710
0.088884 0.081439 0.191154
0.215234 0.084456 0.191825
0.344071 0.087532 0.192510
0.474433 0.090644 0.193203
0.605905 0.093783 0.193902
0.738253 0.096943 0.194606
0.871326 0.100120 0.195314
1.000000 0.103312 0.196024
0.018151 0.212144 0.192969
0.101662 0.214138 0.193413
0.228011 0.217155 0.194085
0.356849 0.220231 0.194770
0.487211 0.223343 0.195463
0.618683 0.226482 0.196162
0.751031 0.229642 0.196866
0.884104 0.232819 0.197573
1.000000 0.236011 0.198284
0.031181 0.347457 0.195274
0.114691 0.349451 0.195718
0.241041 0.352467 0.196389
0.369878 0.355543 0.197074
0.500240 0.358656 0.197768
0.631712 0.361795 0.198467
0.764060 0.364955 0.199170
0.897133 0.368132 0.199878
1.000000 0.371324 0.200589
0.044364 0.484370 0.197605
0.127875 0.486364 0.198049
0.254224 0.489381 0.198721
0.383062 0.492457 0.199406
0.513424 0.495569 0.200099
0.644896 0.498708 0.200798
0.775408 0.500843 0.202584
0.905374 0.502286 0.205124
1.000000 0.503735 0.207676
0.057660 0.622450 0.199957
0.141171 0.624444 0.200401
0.267520 0.627460 0.201073
0.393399 0.628884 0.203502
0.520717 0.630297 0.205991
0.649120 0.631722 0.208500
0.778378 0.633157 0.211026
0.908344 0.634599 0.213566
1.000000 0.636048 0.216118
0.065599 0.758409 0.205536
0.147160 0.759314 0.207130
0.270559 0.760683 0.209541
0.396388 0.762079 0.212000
0.523707 0.763492 0.214488
0.652109 0.764917 0.216998
0.781367 0.766352 0.219524
0.911333 0.767794 0.222064
1.000000 0.769243 0.224615
0.068604 0.892333 0.214080
0.150165 0.893238 0.215674
0.273565 0.894608 0.218086
0.399394 0.896004 0.220545
0.526712 0.897417 0.223033
0.655115 0.898842 0.225542
0.784373 0.900276 0.228068
0.914339 0.901718 0.230608
1.000000 0.903167 0.233160
0.071624 1.000000 0.222664
0.153185 1.000000 0.224258
0.276584 1.000000 0.226670
0.402414 1.000000 0.229129
0.529732 1.000000 0.231617
0.658135 1.000000 0.234126
0.787393 1.000000 0.236652
0.917359 1.000000 0.239192
1.000000 1.000000 0.241744
0.000000 0.000000 0.314413
0.081754 0.000000 0.314857
0.208104 0.000000 0.315529
0.336941 0.000869 0.316214
0.467303 0.003981 0.316907
0.598775 0.007120 0.317606
0.731123 0.010280 0.318309
0.864196 0.013457 0.319017
0.997888 0.016649 0.319728
0.006689 0.080490 0.315907
0.090200 0.082484 0.316351
0.216549 0.085500 0.317022
0.345386 0.088576 0.317707
0.475748 0.091689 0.318400
0.607221 0.094828 0.319099
0.739569 0.097988 0.319803
0.872642 0.101165 0.320511
1.000000 0.104357 0.321221
0.019467 0.213189 0.318166
0.102977 0.215183 0.318610
0.229327 0.218199 0.319282
0.358164 0.221276 0.319967
0.488526 0.224388 0.320660
0.619998 0.227527 0.321359
0.752346 0.230687 0.322063
0.885419 0.233864 0.322770
1.000000 0.237056 0.323481
0.032496 0.348501 0.320471
0.116007 0.350495 0.320915
0.242356 0.353512 0.321587
0.371193 0.356588 0.322272
0.501555 0.359700 0.322965
0.633027 0.362839 0.323664
0.765376 0.365999 0.324367
0.898449 0.369176 0.325075
1.000000 0.372368 0.325786
0.045679 0.485415 0.322802
0.129190 0.487409 0.323246
0.255539 0.490425 0.323918
0.384377 0.493501 0.324603
0.514739 0.496614 0.325296
0.646211 0.499753 0.325995
0.775702 0.501318 0.328384
0.905668 0.502760 0.330924
1.000000 0.504209 0.333475
0.058975 0.623494 0.325154
0.142486 0.625488 0.325598
0.267863 0.627962 0.326843
0.393693 0.629359 0.329302
0.521011 0.630772 0.331790
0.649414 0.632196 0.334299
0.778672 0.633631 0.336825
0.908638 0.635073 0.339365
1.000000 0.636522 0.341917
0.065892 0.758883 0.331335
0.147453 0.759788 0.332929
0.270853 0.761157 0.335341
0.396682 0.762554 0.337800
0.524000 0.763967 0.340288
0.652403 0.765392 0.342797
0.781661 0.766826 0.345323
0.911627 0.768268 0.347863
1.000000 0.769717 0.350415
0.068898 0.892807 0.339880
0.150459 0.893712 0.341474
0.273858 0.895082 0.343885
0.399688 0.896478 0.346344
0.527006 0.897891 0.348832
0.655409 0.899316 0.351342
0.784667 0.900750 0.353868
0.914633 0.902193 0.356408
1.000000 0.903642 0.358959
0.071918 1.000000 0.348464
0.153479 1.000000 0.350058
0.276878 1.000000 0.352469
0.402707 1.000000 0.354928
0.530026 1.000000 0.357417
0.658428 1.000000 0.359926
0.787686 1.000000 0.362452
0.917652 1.000000 0.364992
1.000000 1.000000 0.367544
0.000000 0.000000 0.441091
0.083085 0.000000 0.441535
0.209434 0.000000 0.442207
0.338272 0.001926 0.442892
0.468634 0.005038 0.443585
0.600106 0.008177 0.444284
0.732454 0.011337 0.444988
0.865527 0.014514 0.445695
0.999219 0.017706 0.446406
0.008020 0.081547 0.442585
0.091531 0.083541 0.443029
0.217880 0.086557 0.443701
0.346717 0.089633 0.444386
0.477079 0.092746 0.445079
0.608551 0.095885 0.445778
0.740900 0.099045 0.446481
0.873972 0.102222 0.447189
1.000000 0.105414 0.447900
0.020798 0.214246 0.444845
0.104308 0.216240 0.445289
0.230658 0.219256 0.445961
0.359495 0.222333 0.446646
0.489857 0.225445 0.447339
0.621329 0.228584 0.448038
0.753677 0.231744 0.448741
0.886750 0.234921 0.449449
1.000000 0.238113 0.450160
0.033827 0.349558 0.447149
0.117338 0.351552 0.447593
0.243687 0.354569 0.448265
0.372524 0.357645 0.448950
0.502886 0.360757 0.449643
0.634358 0.363896 0.450342
0.766707 0.367056 0.451046
0.899779 0.370233 0.451753
1.000000 0.373425 0.452464
0.047010 0.486472 0.449481
0.130521 0.488466 0.449925
0.256870 0.491482 0.450597
0.385708 0.494558 0.451282
0.516070 0.497671 0.451975
0.646741 0.500363 0.453146
0.775999 0.501797 0.455672
0.905965 0.503240 0.458212
1.000000 0.504689 0.460763
0.060306 0.624551 0.451832
0.143817 0.626545 0.452276
0.268161 0.628442 0.454131
0.393990 0.629838 0.456590
0.521308 0.631251 0.459078
0.649711 0.632676 0.461587
0.778969 0.634111 0.464113
0.908935 0.635553 0.466653
1.000000 0.637002 0.469205
0.066190 0.759363 0.458623
0.147751 0.760268 0.460217
0.271150 0.761637 0.462629
0.396979 0.763034 0.465088
0.524298 0.764446 0.467576
0.652700 0.765871 0.470085
0.781958 0.767306 0.472611
0.911924 0.768748 0.475151
1.000000 0.770197 0.477703
0.069195 0.893287 0.467168
0.150756 0.894192 0.468762
0.274156 0.895562 0.471173
0.399985 0.896958 0.473632
0.527303 0.898371 0.476120
0.655706 0.899796 0.478630
0.784964 0.901230 0.481156
0.914930 0.902672 0.483696
1.000000 0.904121 0.486247
0.072215 1.000000 0.475752
0.153776 1.000000 0.477346
0.277175 1.000000 0.479757
0.403005 1.000000 0.482216
0.530323 1.000000 0.484705
0.658726 1.000000 0.487214
0.787984 1.000000 0.489740
0.917950 1.000000 0.492280
1.000000 1.000000 0.494832
0.000917 0.000000 0.568848
0.084427 0.000000 0.569292
0.210777 0.000000 0.569964
0.339614 0.002992 0.570649
0.469976 0.006104 0.571342
0.601448 0.009243 0.572041
0.733796 0.012403 0.572745
0.866869 0.015580 0.573453
1.000000 0.018772 0.574163
0.009362 0.082613 0.570342
0.092873 0.084607 0.570786
0.219222 0.087623 0.571458
0.348060 0.090699 0.572143
0.478421 0.093812 0.572836
0.609894 0.096951 0.573535
0.742242 0.100111 0.574239
0.875315 0.103288 0.574946
1.000000 0.106480 0.575657
0.022140 0.215312 0.572602
0.105650 0.217306 0.573046
0.232000 0.220322 0.573718
0.360837 0.223399 0.574403
0.491199 0.226511 0.575096
0.622671 0.229650 0.575795
0.755019 0.232810 0.576499
0.888092 0.235987 0.577206
1.000000 0.239179 0.577917
0.035169 0.350624 0.574906
0.118680 0.352618 0.575350
0.245029 0.355635 0.576022
0.373867 0.358711 0.576707
0.504228 0.361823 0.577400
0.635701 0.364962 0.578099
0.768049 0.368122 0.578803
0.901122 0.371299 0.579510
1.000000 0.373976 0.580765
0.048353 0.487538 0.577238
0.131863 0.489532 0.577682
0.258213 0.492548 0.578354
0.387050 0.495624 0.579039
0.517412 0.498737 0.579732
0.647041 0.500847 0.581518
0.776299 0.502281 0.584044
0.906265 0.503724 0.586584
1.000000 0.505173 0.589135
0.061648 0.625617 0.579589
0.145061 0.627557 0.580091
0.268460 0.628926 0.582503
0.394290 0.630322 0.584962
0.521608 0.631735 0.587450
0.650011 0.633160 0.589959
0.779269 0.634595 0.592485
0.909235 0.636037 0.595025
1.000000 0.637486 0.597577
0.066489 0.759847 0.586995
0.148050 0.760752 0.588589
0.271450 0.762121 0.591001
0.397279 0.763517 0.593460
0.524597 0.764930 0.595948
0.653000 0.766355 0.598457
0.782258 0.767790 0.600983
0.912224 0.769232 0.603523
1.000000 0.770681 0.606075
0.069495 0.893771 0.595540
0.151056 0.894676 0.597134
0.274455 0.896045 0.599545
0.400285 0.897442 0.602004
0.527603 0.898855 0.604492
0.656006 0.900280 0.607002
0.785264 0.901714 0.609528
0.915230 0.903156 0.612068
1.000000 0.904605 0.614619
0.072515 1.000000 0.604124
0.154076 1.000000 0.605718
0.277475 1.000000 0.608129
0.403304 1.000000 0.610588
0.530623 1.000000 0.613077
0.659025 1.000000 0.615586
0.788283 1.000000 0.618112
0.918249 1.000000 0.620652
1.000000 1.000000 0.623204
0.002268 0.000000 0.697457
0.085779 0.000000 0.697901
0.212128 0.000989 0.698573
0.340965 0.004065 0.699258
0.471327 0.007177 0.699951
0.602799 0.010316 0.700650
0.735148 0.013476 0.701353
0.868220 0.016653 0.702061
1.000000 0.019845 0.702772
0.010713 0.083686 0.698951
0.094224 0.085680 0.699395
0.220573 0.088696 0.700066
0.349411 0.091772 0.700751
0.479773 0.094885 0.701444
0.611245 0.098024 0.702143
0.743593 0.101184 0.702847
0.876666 0.104361 0.703555
1.000000 0.107553 0.704265
0.023491 0.216385 0.701210
0.107002 0.218379 0.701654
0.233351 0.221396 0.702326
0.362188 0.224472 0.703011
0.492550 0.227584 0.703704
0.624022 0.230723 0.704403
0.756371 0.233883 0.705107
0.889443 0.237060 0.705815
1.000000 0.240252 0.706525
0.036520 0.351698 0.703515
0.120031 0.353691 0.703959
0.246380 0.356708 0.704631
0.375218 0.359784 0.705316
0.505580 0.362897 0.706009
0.637052 0.366036 0.706708
0.769400 0.369195 0.707411
0.902473 0.372373 0.708119
1.000000 0.374464 0.709992
0.049704 0.488611 0.705846
0.133214 0.490605 0.706290
0.259564 0.493622 0.706962
0.388401 0.496698 0.707647
0.518763 0.499810 0.708340
0.647343 0.501334 0.710745
0.776601 0.502768 0.713271
0.906567 0.504211 0.715811
1.000000 0.505660 0.718363
0.062999 0.626691 0.708198
0.145363 0.628044 0.709319
0.268762 0.629413 0.711730
0.394592 0.630810 0.714189
0.521910 0.632222 0.716677
0.650312 0.633647 0.719187
0.779571 0.635082 0.721713
0.909537 0.636524 0.724253
1.000000 0.637973 0.726805
0.066791 0.760334 0.716223
0.148352 0.761239 0.717816
0.271751 0.762608 0.720228
0.397581 0.764005 0.722687
0.524899 0.765417 0.725175
0.653302 0.766842 0.727685
0.782560 0.768277 0.730211
0.912526 0.769719 0.732751
1.000000 0.771168 0.735302
0.069797 0.894258 0.724767
0.151358 0.895163 0.726361
0.274757 0.896533 0.728773
0.400587 0.897929 0.731232
0.527905 0.899342 0.733720
0.656307 0.900767 0.736229
0.785566 0.902201 0.738755
0.915531 0.903644 0.741295
1.000000 0.905093 0.743847
0.072817 1.000000 0.733351
0.154377 1.000000 0.734945
0.277777 1.000000 0.737357
0.403606 1.000000 0.739816
0.530925 1.000000 0.742304
0.659327 1.000000 0.744813
0.788585 1.000000 0.747339
0.918551 1.000000 0.749879
1.000000 1.000000 0.752431
0.003626 0.000000 0.826770
0.087137 0.000000 0.827214
0.213486 0.002068 0.827886
0.342324 0.005144 0.828570
0.472686 0.008256 0.829264
0.604158 0.011395 0.829963
0.736506 0.014555 0.830666
0.869579 0.017732 0.831374
1.000000 0.020924 0.832085
0.012072 0.084765 0.828263
0.095582 0.086759 0.828707
0.221932 0.089775 0.829379
0.350769 0.092851 0.830064
0.481131 0.095964 0.830757
0.612603 0.099103 0.831456
0.744951 0.102263 0.832160
0.878024 0.105440 0.832867
1.000000 0.108632 0.833578
0.024850 0.217464 0.830523
0.108360 0.219458 0.830967
0.234709 0.222475 0.831639
0.363547 0.225551 0.832324
0.493909 0.228663 0.833017
0.625381 0.231802 0.833716
0.757729 0.234962 0.834420
0.890802 0.238139 0.835127
1.000000 0.241331 0.835838
0.037879 0.352777 0.832828
0.121389 0.354770 0.833272
0.247739 0.357787 0.833943
0.376576 0.360863 0.834628
0.506938 0.363976 0.835321
0.638410 0.367114 0.836020
0.770758 0.370274 0.836724
0.903831 0.373452 0.837432
1.000000 0.374953 0.839928
0.051062 0.489690 0.835159
0.134573 0.491684 0.835603
0.260922 0.494701 0.836275
0.389760 0.497777 0.836960
0.519244 0.500399 0.838171
0.647646 0.501824 0.840680
0.776904 0.503258 0.843206
0.906870 0.504700 0.845746
1.000000 0.506149 0.848298
0.064105 0.627628 0.837660
0.145666 0.628534 0.839254
0.269066 0.629903 0.841665
0.394895 0.631299 0.844124
0.522213 0.632712 0.846612
0.650616 0.634137 0.849122
0.779874 0.635572 0.851648
0.909840 0.637014 0.854188
1.000000 0.638463 0.856740
0.067095 0.760823 0.846158
0.148656 0.761729 0.847752
0.272055 0.763098 0.850163
0.397884 0.764494 0.852622
0.525203 0.765907 0.855110
0.653605 0.767332 0.857620
0.782863 0.768767 0.860146
0.912829 0.770209 0.862686
1.000000 0.771658 0.865237
0.070100 0.894748 0.854702
0.151661 0.895653 0.856296
0.275061 0.897022 0.858708
0.400890 0.898419 0.861167
0.528208 0.899832 0.863655
0.656611 0.901257 0.866164
0.785869 0.902691 0.868690
0.915835 0.904133 0.871230
1.000000 0.905582 0.873782
0.073120 1.000000 0.863286
0.154681 1.000000 0.864880
0.278080 1.000000 0.867292
0.403910 1.000000 0.869751
0.531228 1.000000 0.872239
0.659630 1.000000 0.874748
0.788889 1.000000 0.877274
0.918855 1.000000 0.879814
1.000000 1.000000 0.882366
0.004991 0.000000 0.956684
0.088502 0.000135 0.957128
0.214851 0.003152 0.957799
0.343689 0.006228 0.958484
0.474051 0.009340 0.959178
0.605523 0.012479 0.959877
0.737871 0.015639 0.960580
0.870944 0.018816 0.961288
1.000000 0.022008 0.961999
0.013437 0.085849 0.958177
0.096947 0.087843 0.958621
0.223297 0.090859 0.959293
0.352134 0.093935 0.959978
0.482496 0.097048 0.960671
0.613968 0.100187 0.961370
0.746316 0.103347 0.962074
0.879389 0.106524 0.962781
1.000000 0.109716 0.963492
0.026214 0.218548 0.960437
0.109725 0.220542 0.960881
0.236074 0.223559 0.961553
0.364912 0.226635 0.962238
0.495274 0.229747 0.962931
0.626746 0.232886 0.963630
0.759094 0.236046 0.964334
0.892167 0.239223 0.965041
1.000000 0.242415 0.965752
0.039244 0.353861 0.962742
0.122754 0.355854 0.963186
0.249104 0.358871 0.963857
0.377941 0.361947 0.964542
0.508303 0.365060 0.965235
0.639775 0.368199 0.965934
0.772123 0.371358 0.966638
0.904231 0.373996 0.967915
1.000000 0.375445 0.970467
0.052427 0.490774 0.965073
0.135938 0.492768 0.965517
0.262287 0.495785 0.966189
0.391125 0.498861 0.966874
0.519549 0.500891 0.968710
0.647951 0.502316 0.971219
0.777209 0.503750 0.973745
0.907175 0.505193 0.976285
1.000000 0.506642 0.978837
0.064410 0.628121 0.968199
0.145971 0.629026 0.969793
0.269370 0.630395 0.972204
0.395200 0.631791 0.974663
0.522518 0.633204 0.977152
0.650921 0.634629 0.979661
0.780179 0.636064 0.982187
0.910145 0.637506 0.984727
1.000000 0.638955 0.987279
0.067400 0.761316 0.976697
0.148960 0.762221 0.978291
0.272360 0.763590 0.980702
0.398189 0.764986 0.983161
0.525507 0.766399 0.985650
0.653910 0.767824 0.988159
0.783168 0.769259 0.990685
0.913134 0.770701 0.993225
1.000000 0.772150 0.995777
0.070405 0.895240 0.985241
0.151966 0.896145 0.986835
0.275365 0.897515 0.989247
0.401195 0.898911 0.991706
0.528513 0.900324 0.994194
0.656916 0.901749 0.996703
0.786174 0.903183 0.999229
0.916140 0.904625 1.000000
1.000000 0.906074 1.000000
0.073425 1.000000 0.993825
0.154986 1.000000 0.995419
0.278385 1.000000 0.997831
0.404215 1.000000 1.000000
0.531533 1.000000 1.000000
0.659935 1.000000 1.000000
0.789193 1.000000 1.000000
0.919159 1.000000 1.000000
1.000000 1.000000 1.000000
