assets/luts/generated_genre/bs_comedy_bright_clean_4f1d57ed9f7b7138.cube
# V4 spec-generated LUT — bs_comedy_bright_clean
# Genre: comedy
# Look: Bright accessible comedy — uplifting, warm. Shelton/Ted Lasso, Parks & Rec.
# Spec hash: 4f1d57ed9f7b7138
TITLE "V4 Spec LUT — bs_comedy_bright_clean"
LUT_3D_SIZE 9
DOMAIN_MIN 0.0 0.0 0.0
DOMAIN_MAX 1.0 1.0 1.0
0.038756 0.032602 0.026424
0.175634 0.030413 0.023940
0.310053 0.028264 0.021501
0.443262 0.026134 0.019084
0.575655 0.024017 0.016682
0.707434 0.021911 0.014291
0.838717 0.019812 0.011909
0.969588 0.017719 0.009535
1.000000 0.015632 0.007167
0.032346 0.164861 0.018015
0.169223 0.162672 0.015532
0.303642 0.160523 0.013093
0.436851 0.158393 0.010676
0.569245 0.156277 0.008274
0.701023 0.154170 0.005883
0.832307 0.152071 0.003501
0.963177 0.149978 0.001126
1.000000 0.147891 0.000000
0.026056 0.294625 0.009765
0.162933 0.292437 0.007282
0.297352 0.290288 0.004843
0.430561 0.288158 0.002426
0.562955 0.286041 0.000024
0.694733 0.283934 0.000000
0.826017 0.281835 0.000000
0.956887 0.279743 0.000000
1.000000 0.277656 0.000000
0.019824 0.423198 0.001591
0.156701 0.421010 0.000000
0.291120 0.418860 0.000000
0.424329 0.416731 0.000000
0.556723 0.414614 0.000000
0.688501 0.412507 0.000000
0.819785 0.410408 0.000000
0.950655 0.408316 0.000000
1.000000 0.406233 0.000000
0.013630 0.550973 0.000000
0.150508 0.548785 0.000000
0.284926 0.546636 0.000000
0.418135 0.544506 0.000000
0.550529 0.542389 0.000000
0.681788 0.540289 0.000000
0.812513 0.538197 0.000000
0.942826 0.536112 0.000000
1.000000 0.534033 0.000000
0.007466 0.678148 0.000000
0.144190 0.675962 0.000000
0.278037 0.673820 0.000000
0.410679 0.671698 0.000000
0.542510 0.669589 0.000000
0.673727 0.667489 0.000000
0.804452 0.665398 0.000000
0.934766 0.663313 0.000000
1.000000 0.661233 0.000000
0.000000 0.804861 0.000000
0.136160 0.802681 0.000000
0.270007 0.800539 0.000000
0.402649 0.798417 0.000000
0.534480 0.796308 0.000000
0.665697 0.794208 0.000000
0.796423 0.792116 0.000000
0.926736 0.790031 0.000000
1.000000 0.787952 0.000000
0.000000 0.931179 0.000000
0.128156 0.928998 0.000000
0.262003 0.926856 0.000000
0.394645 0.924734 0.000000
0.526476 0.922625 0.000000
0.657693 0.920525 0.000000
0.788418 0.918434 0.000000
0.918732 0.916349 0.000000
1.000000 0.914269 0.000000
0.000000 1.000000 0.000000
0.120173 1.000000 0.000000
0.254020 1.000000 0.000000
0.386662 1.000000 0.000000
0.518493 1.000000 0.000000
0.649711 1.000000 0.000000
0.780436 1.000000 0.000000
0.910749 1.000000 0.000000
1.000000 1.000000 0.000000
0.038105 0.031849 0.166156
0.174982 0.029660 0.163673
0.309401 0.027511 0.161234
0.442610 0.025381 0.158817
0.575004 0.023265 0.156415
0.706782 0.021158 0.154024
0.838066 0.019059 0.151642
0.968936 0.016966 0.149267
1.000000 0.014879 0.146899
0.031694 0.164108 0.157748
0.168572 0.161919 0.155264
0.302990 0.159770 0.152825
0.436199 0.157640 0.150408
0.568593 0.155524 0.148006
0.700371 0.153417 0.145615
0.831655 0.151318 0.143233
0.962526 0.149225 0.140859
1.000000 0.147138 0.138491
0.025404 0.293872 0.149498
0.162282 0.291684 0.147014
0.296701 0.289535 0.144575
0.429909 0.287405 0.142158
0.562303 0.285288 0.139756
0.694082 0.283181 0.137365
0.825365 0.281082 0.134983
0.956236 0.278990 0.132609
1.000000 0.276903 0.130241
0.019172 0.422445 0.141323
0.156050 0.420257 0.138840
0.290468 0.418108 0.136401
0.423677 0.415978 0.133984
0.556071 0.413861 0.131582
0.687849 0.411754 0.129191
0.819133 0.409655 0.126809
0.950004 0.407563 0.124434
1.000000 0.405482 0.122319
0.012979 0.550220 0.133200
0.149856 0.548032 0.130716
0.284275 0.545883 0.128277
0.417484 0.543753 0.125860
0.549718 0.541638 0.123541
0.680936 0.539539 0.121442
0.811661 0.537447 0.119350
0.941975 0.535362 0.117265
1.000000 0.533283 0.115186
0.006814 0.677395 0.125114
0.143338 0.675212 0.122815
0.277185 0.673070 0.120673
0.409827 0.670948 0.118551
0.541658 0.668838 0.116441
0.672875 0.666739 0.114342
0.803601 0.664647 0.112250
0.933914 0.662562 0.110165
1.000000 0.660483 0.108086
0.000000 0.804111 0.117922
0.135308 0.801930 0.115742
0.269155 0.799789 0.113600
0.401798 0.797667 0.111478
0.533628 0.795557 0.109368
0.664846 0.793458 0.107269
0.795571 0.791366 0.105177
0.925885 0.789281 0.103092
1.000000 0.787202 0.101013
0.000000 0.930428 0.110872
0.127304 0.928248 0.108691
0.261151 0.926106 0.106550
0.393793 0.923984 0.104427
0.525624 0.921875 0.102318
0.656841 0.919775 0.100218
0.787566 0.917683 0.098127
0.917880 0.915598 0.096042
1.000000 0.913519 0.093962
0.000000 1.000000 0.103841
0.119321 1.000000 0.101660
0.253168 1.000000 0.099518
0.385811 1.000000 0.097396
0.517641 1.000000 0.095287
0.648859 1.000000 0.093187
0.779584 1.000000 0.091096
0.909898 1.000000 0.089011
1.000000 1.000000 0.086931
0.037466 0.031111 0.303112
0.174344 0.028922 0.300628
0.308763 0.026773 0.298189
0.441972 0.024643 0.295772
0.574366 0.022527 0.293370
0.706144 0.020420 0.290979
0.837427 0.018321 0.288597
0.968298 0.016228 0.286223
1.000000 0.014141 0.283855
0.031056 0.163370 0.294703
0.167933 0.161181 0.292220
0.302352 0.159032 0.289781
0.435561 0.156902 0.287364
0.567955 0.154786 0.284962
0.699733 0.152679 0.282571
0.831017 0.150580 0.280189
0.961887 0.148487 0.277814
1.000000 0.146401 0.275446
0.024766 0.293134 0.286453
0.161643 0.290946 0.283969
0.296062 0.288797 0.281531
0.429271 0.286667 0.279114
0.561665 0.284550 0.276712
0.693443 0.282443 0.274321
0.824727 0.280344 0.271939
0.955597 0.278252 0.269564
1.000000 0.276165 0.267196
0.018534 0.421707 0.278279
0.155411 0.419519 0.275795
0.289830 0.417370 0.273356
0.423039 0.415240 0.270939
0.555433 0.413123 0.268537
0.687211 0.411016 0.266146
0.818495 0.408917 0.263764
0.949238 0.406826 0.261456
1.000000 0.404747 0.259376
0.012340 0.549482 0.270155
0.149218 0.547294 0.267672
0.283636 0.545145 0.265233
0.416845 0.543015 0.262816
0.548883 0.540903 0.260599
0.680101 0.538803 0.258499
0.810826 0.536712 0.256408
0.941140 0.534627 0.254323
1.000000 0.532547 0.252243
0.006176 0.676657 0.262070
0.142503 0.674476 0.259872
0.276350 0.672335 0.257731
0.408992 0.670212 0.255608
0.540823 0.668103 0.253499
0.672041 0.666004 0.251399
0.802766 0.663912 0.249308
0.933079 0.661827 0.247223
1.000000 0.659747 0.245143
0.000000 0.803376 0.254980
0.134473 0.801195 0.252799
0.268320 0.799053 0.250658
0.400963 0.796931 0.248535
0.532793 0.794822 0.246426
0.664011 0.792722 0.244327
0.794736 0.790631 0.242235
0.925050 0.788546 0.240150
1.000000 0.786466 0.238070
0.000000 0.929693 0.247929
0.126469 0.927512 0.245749
0.260316 0.925371 0.243607
0.392958 0.923248 0.241485
0.524789 0.921139 0.239376
0.656006 0.919040 0.237276
0.786732 0.916948 0.235184
0.917045 0.914863 0.233099
1.000000 0.912784 0.231020
0.000000 1.000000 0.240898
0.118487 1.000000 0.238717
0.252334 1.000000 0.236576
0.384976 1.000000 0.234454
0.516806 1.000000 0.232344
0.648024 1.000000 0.230245
0.778749 1.000000 0.228153
0.909063 1.000000 0.226068
1.000000 1.000000 0.223989
0.036834 0.030380 0.438783
0.173711 0.028191 0.436299
0.308130 0.026042 0.433860
0.441339 0.023912 0.431443
0.573733 0.021795 0.429041
0.705511 0.019689 0.426650
0.836795 0.017590 0.424268
0.967666 0.015497 0.421894
1.000000 0.013410 0.419526
0.030423 0.162639 0.430374
0.167301 0.160450 0.427891
0.301719 0.158301 0.425452
0.434928 0.156171 0.423035
0.567322 0.154055 0.420633
0.699100 0.151948 0.418242
0.830384 0.149849 0.415860
0.961255 0.147756 0.413485
1.000000 0.145669 0.411117
0.024133 0.292403 0.422124
0.161011 0.290215 0.419641
0.295430 0.288066 0.417202
0.428639 0.285936 0.414785
0.561032 0.283819 0.412383
0.692811 0.281712 0.409992
0.824094 0.279613 0.407610
0.954965 0.277521 0.405235
1.000000 0.275434 0.402867
0.017901 0.420976 0.413950
0.154779 0.418788 0.411466
0.289197 0.416639 0.409027
0.422406 0.414509 0.406611
0.554800 0.412392 0.404208
0.686578 0.410285 0.401817
0.817862 0.408186 0.399435
0.948411 0.406098 0.397228
1.000000 0.404018 0.395149
0.011708 0.548751 0.405826
0.148585 0.546563 0.403343
0.283004 0.544414 0.400904
0.416213 0.542284 0.398487
0.548056 0.540174 0.396371
0.679274 0.538075 0.394271
0.809999 0.535983 0.392180
0.940313 0.533898 0.390095
1.000000 0.531819 0.388015
0.005381 0.675928 0.397825
0.141676 0.673748 0.395644
0.275523 0.671606 0.393503
0.408165 0.669484 0.391380
0.539996 0.667375 0.389271
0.671214 0.665275 0.387172
0.801939 0.663183 0.385080
0.932252 0.661098 0.382995
1.000000 0.659019 0.380916
0.000000 0.802647 0.390752
0.133646 0.800467 0.388571
0.267493 0.798325 0.386430
0.400136 0.796203 0.384308
0.531966 0.794093 0.382198
0.663184 0.791994 0.380099
0.793909 0.789902 0.378007
0.924223 0.787817 0.375922
1.000000 0.785738 0.373843
0.000000 0.928965 0.383702
0.125642 0.926784 0.381521
0.259489 0.924642 0.379379
0.392131 0.922520 0.377257
0.523962 0.920411 0.375148
0.655179 0.918311 0.373048
0.785905 0.916220 0.370957
0.916218 0.914135 0.368872
1.000000 0.912055 0.366792
0.000000 1.000000 0.376670
0.117660 1.000000 0.374490
0.251507 1.000000 0.372348
0.384149 1.000000 0.370226
0.515979 1.000000 0.368116
0.647197 1.000000 0.366017
0.777922 1.000000 0.363925
0.908236 1.000000 0.361840
1.000000 1.000000 0.359761
0.036205 0.029653 0.573601
0.173083 0.027465 0.571117
0.307502 0.025316 0.568679
0.440711 0.023186 0.566262
0.573105 0.021069 0.563859
0.704883 0.018962 0.561469
0.836166 0.016863 0.559087
0.967037 0.014771 0.556712
1.000000 0.012684 0.554344
0.029795 0.161912 0.565192
0.166672 0.159724 0.562709
0.301091 0.157575 0.560270
0.434300 0.155445 0.557853
0.566694 0.153328 0.555451
0.698472 0.151221 0.553060
0.829756 0.149122 0.550678
0.960626 0.147030 0.548303
1.000000 0.144943 0.545935
0.023505 0.291677 0.556942
0.160382 0.289489 0.554459
0.294801 0.287339 0.552020
0.428010 0.285210 0.549603
0.560404 0.283093 0.547201
0.692182 0.280986 0.544810
0.823466 0.278887 0.542428
0.954336 0.276794 0.540053
1.000000 0.274708 0.537685
0.017273 0.420250 0.548768
0.154150 0.418061 0.546284
0.288569 0.415912 0.543846
0.421778 0.413782 0.541429
0.554172 0.411666 0.539026
0.685950 0.409559 0.536636
0.817234 0.407460 0.534254
0.947589 0.405374 0.532147
1.000000 0.403295 0.530067
0.011079 0.548025 0.540644
0.147957 0.545836 0.538161
0.282375 0.543687 0.535722
0.415404 0.541560 0.533399
0.547234 0.539451 0.531290
0.678452 0.537351 0.529190
0.809177 0.535259 0.527098
0.939491 0.533174 0.525013
1.000000 0.531095 0.522934
0.004559 0.675205 0.532744
0.140854 0.673024 0.530563
0.274701 0.670882 0.528421
0.407344 0.668760 0.526299
0.539174 0.666651 0.524190
0.670392 0.664551 0.522090
0.801117 0.662460 0.519999
0.931431 0.660375 0.517914
1.000000 0.658295 0.515834
0.000000 0.801923 0.525671
0.132825 0.799743 0.523490
0.266672 0.797601 0.521348
0.399314 0.795479 0.519226
0.531144 0.793370 0.517117
0.662362 0.791270 0.515017
0.793087 0.789178 0.512926
0.923401 0.787093 0.510841
1.000000 0.785014 0.508761
0.000000 0.928241 0.518620
0.124820 0.926060 0.516440
0.258667 0.923918 0.514298
0.391309 0.921796 0.512176
0.523140 0.919687 0.510066
0.654358 0.917587 0.507967
0.785083 0.915496 0.505875
0.915396 0.913411 0.503790
1.000000 0.911331 0.501711
0.000000 1.000000 0.511589
0.116838 1.000000 0.509408
0.250685 1.000000 0.507267
0.383327 1.000000 0.505144
0.515157 1.000000 0.503035
0.646375 1.000000 0.500936
0.777100 1.000000 0.498844
0.907414 1.000000 0.496759
1.000000 1.000000 0.494680
0.035580 0.028930 0.707779
0.172457 0.026742 0.705296
0.306876 0.024593 0.702857
0.440085 0.022463 0.700440
0.572479 0.020346 0.698038
0.704257 0.018239 0.695647
0.835541 0.016140 0.693265
0.966411 0.014048 0.690890
1.000000 0.011961 0.688522
0.029169 0.161189 0.699371
0.166047 0.159001 0.696887
0.300465 0.156852 0.694448
0.433674 0.154722 0.692031
0.566068 0.152605 0.689629
0.697846 0.150498 0.687238
0.829130 0.148399 0.684856
0.960001 0.146307 0.682482
1.000000 0.144220 0.680114
0.022879 0.290954 0.691121
0.159757 0.288766 0.688637
0.294175 0.286616 0.686198
0.427384 0.284487 0.683781
0.559778 0.282370 0.681379
0.691556 0.280263 0.678988
0.822840 0.278164 0.676606
0.953711 0.276071 0.674232
1.000000 0.273985 0.671864
0.016647 0.419527 0.682946
0.153525 0.417338 0.680463
0.287943 0.415189 0.678024
0.421152 0.413059 0.675607
0.553546 0.410942 0.673205
0.685324 0.408836 0.670814
0.816458 0.406739 0.668510
0.946771 0.404654 0.666425
1.000000 0.402574 0.664346
0.010454 0.547302 0.674823
0.147331 0.545113 0.672339
0.281750 0.542964 0.669900
0.414586 0.540839 0.667677
0.546417 0.538730 0.665568
0.677634 0.536631 0.663468
0.808359 0.534539 0.661377
0.938673 0.532454 0.659292
1.000000 0.530375 0.657212
0.003741 0.674484 0.667022
0.140036 0.672303 0.664841
0.273883 0.670162 0.662700
0.406526 0.668040 0.660577
0.538356 0.665930 0.658468
0.669574 0.663831 0.656369
0.800299 0.661739 0.654277
0.930613 0.659654 0.652192
1.000000 0.657575 0.650113
0.000000 0.801203 0.659949
0.132007 0.799022 0.657768
0.265854 0.796881 0.655627
0.398496 0.794758 0.653505
0.530326 0.792649 0.651395
0.661544 0.790550 0.649296
0.792269 0.788458 0.647204
0.922583 0.786373 0.645119
1.000000 0.784294 0.643040
0.000000 0.927520 0.652899
0.124002 0.925339 0.650718
0.257849 0.923198 0.648576
0.390492 0.921076 0.646454
0.522322 0.918966 0.644345
0.653540 0.916867 0.642245
0.784265 0.914775 0.640154
0.914579 0.912690 0.638069
1.000000 0.910611 0.635989
0.000000 1.000000 0.645867
0.116020 1.000000 0.643687
0.249867 1.000000 0.641545
0.382509 1.000000 0.639423
0.514340 1.000000 0.637313
0.645557 1.000000 0.635214
0.776282 1.000000 0.633122
0.906596 1.000000 0.631037
1.000000 1.000000 0.628958
0.034957 0.028210 0.841446
0.171834 0.026021 0.838962
0.306253 0.023872 0.836523
0.439462 0.021743 0.834106
0.571856 0.019626 0.831704
0.703634 0.017519 0.829313
0.834918 0.015420 0.826931
0.965788 0.013327 0.824557
1.000000 0.011241 0.822189
0.028546 0.160469 0.833037
0.165423 0.158281 0.830554
0.299842 0.156131 0.828115
0.433051 0.154002 0.825698
0.565445 0.151885 0.823296
0.697223 0.149778 0.820905
0.828507 0.147679 0.818523
0.959377 0.145587 0.816148
1.000000 0.143500 0.813780
0.022256 0.290234 0.824787
0.159134 0.288045 0.822304
0.293552 0.285896 0.819865
0.426761 0.283766 0.817448
0.559155 0.281650 0.815046
0.690933 0.279543 0.812655
0.822217 0.277444 0.810273
0.953088 0.275351 0.807898
1.000000 0.273264 0.805530
0.016024 0.418806 0.816613
0.152901 0.416618 0.814129
0.287320 0.414469 0.811690
0.420529 0.412339 0.809273
0.552923 0.410222 0.806871
0.684701 0.408115 0.804480
0.815643 0.406021 0.802276
0.945957 0.403936 0.800191
1.000000 0.401856 0.798112
0.009830 0.546582 0.808489
0.146708 0.544393 0.806006
0.281127 0.542244 0.803567
0.413771 0.540122 0.801443
0.545602 0.538012 0.799334
0.676819 0.535913 0.797235
0.807544 0.533821 0.795143
0.937858 0.531736 0.793058
1.000000 0.529657 0.790979
0.002927 0.673766 0.800788
0.139222 0.671586 0.798607
0.273069 0.669444 0.796466
0.405711 0.667322 0.794344
0.537541 0.665212 0.792234
0.668759 0.663113 0.790135
0.799484 0.661021 0.788043
0.929798 0.658936 0.785958
1.000000 0.656857 0.783879
0.000000 0.800485 0.793715
0.131192 0.798304 0.791535
0.265039 0.796163 0.789393
0.397681 0.794041 0.787271
0.529512 0.791931 0.785161
0.660729 0.789832 0.783062
0.791454 0.787740 0.780970
0.921768 0.785655 0.778885
1.000000 0.783576 0.776806
0.000000 0.926803 0.786665
0.123188 0.924622 0.784484
0.257034 0.922480 0.782342
0.389677 0.920358 0.780220
0.521507 0.918249 0.778111
0.652725 0.916149 0.776011
0.783450 0.914058 0.773920
0.913764 0.911972 0.771835
1.000000 0.909893 0.769755
0.000000 1.000000 0.779633
0.115205 1.000000 0.777453
0.249052 1.000000 0.775311
0.381694 1.000000 0.773189
0.513525 1.000000 0.771080
0.644742 1.000000 0.768980
0.775467 1.000000 0.766888
0.905781 1.000000 0.764803
1.000000 1.000000 0.762724
0.034336 0.027492 0.974686
0.171213 0.025304 0.972202
0.305632 0.023154 0.969763
0.438841 0.021025 0.967347
0.571235 0.018908 0.964944
0.703013 0.016801 0.962553
0.834297 0.014702 0.960171
0.965167 0.012609 0.957797
1.000000 0.010523 0.955429
0.027925 0.159751 0.966277
0.164802 0.157563 0.963794
0.299221 0.155413 0.961355
0.432430 0.153284 0.958938
0.564824 0.151167 0.956536
0.696602 0.149060 0.954145
0.827886 0.146961 0.951763
0.958756 0.144869 0.949388
1.000000 0.142782 0.947020
0.021635 0.289516 0.958027
0.158512 0.287327 0.955544
0.292931 0.285178 0.953105
0.426140 0.283048 0.950688
0.558534 0.280932 0.948286
0.690312 0.278825 0.945895
0.821596 0.276726 0.943513
0.952466 0.274633 0.941138
1.000000 0.272547 0.938770
0.015403 0.418088 0.949853
0.152280 0.415900 0.947369
0.286699 0.413751 0.944930
0.419908 0.411621 0.942514
0.552302 0.409504 0.940111
0.684080 0.407397 0.937720
0.814831 0.405305 0.935616
0.945144 0.403220 0.933531
1.000000 0.401141 0.931451
0.009209 0.545864 0.941729
0.146087 0.543675 0.939246
0.280317 0.541529 0.936905
0.412959 0.539406 0.934783
0.544790 0.537297 0.932673
0.676007 0.535197 0.930574
0.806732 0.533106 0.928482
0.937046 0.531021 0.926397
1.000000 0.528941 0.924318
0.002114 0.673051 0.934128
0.138409 0.670870 0.931947
0.272256 0.668729 0.929805
0.404899 0.666606 0.927683
0.536729 0.664497 0.925574
0.667947 0.662398 0.923474
0.798672 0.660306 0.921383
0.928986 0.658221 0.919298
1.000000 0.656142 0.917218
0.000000 0.799770 0.927055
0.130380 0.797589 0.924874
0.264227 0.795448 0.922732
0.396869 0.793325 0.920610
0.528699 0.791216 0.918501
0.659917 0.789116 0.916401
0.790642 0.787025 0.914310
0.920956 0.784940 0.912225
1.000000 0.782860 0.910145
0.000000 0.926087 0.920004
0.122375 0.923906 0.917823
0.256222 0.921765 0.915682
0.388865 0.919643 0.913560
0.520695 0.917533 0.911450
0.651913 0.915434 0.909351
0.782638 0.913342 0.907259
0.912952 0.911257 0.905174
1.000000 0.909178 0.903095
0.000000 1.000000 0.912973
0.114393 1.000000 0.910792
0.248240 1.000000 0.908651
0.380882 1.000000 0.906528
0.512713 1.000000 0.904419
0.643930 1.000000 0.902319
0.774655 1.000000 0.900228
0.904969 1.000000 0.898143
1.000000 1.000000 0.896063
0.033716 0.026776 1.000000
0.170594 0.024588 1.000000
0.305012 0.022438 1.000000
0.438221 0.020309 1.000000
0.570615 0.018192 1.000000
0.702393 0.016085 1.000000
0.833677 0.013986 1.000000
0.964548 0.011893 1.000000
1.000000 0.009807 1.000000
0.027305 0.159035 1.000000
0.164183 0.156847 1.000000
0.298602 0.154697 1.000000
0.431811 0.152568 1.000000
0.564204 0.150451 1.000000
0.695983 0.148344 1.000000
0.827266 0.146245 1.000000
0.958137 0.144153 1.000000
1.000000 0.142066 1.000000
0.021015 0.288800 1.000000
0.157893 0.286611 1.000000
0.292312 0.284462 1.000000
0.425521 0.282332 1.000000
0.557914 0.280216 1.000000
0.689693 0.278109 1.000000
0.820976 0.276010 1.000000
0.951847 0.273917 1.000000
1.000000 0.271831 1.000000
0.014783 0.417372 1.000000
0.151661 0.415184 1.000000
0.286080 0.413035 1.000000
0.419289 0.410905 1.000000
0.551682 0.408788 1.000000
0.683295 0.406684 1.000000
0.814021 0.404592 1.000000
0.944334 0.402507 1.000000
1.000000 0.400428 1.000000
0.008590 0.545148 1.000000
0.145467 0.542959 1.000000
0.279507 0.540815 1.000000
0.412149 0.538693 1.000000
0.543980 0.536583 1.000000
0.675197 0.534484 1.000000
0.805922 0.532392 1.000000
0.936236 0.530307 1.000000
1.000000 0.528228 1.000000
0.001304 0.672338 1.000000
0.137600 0.670157 1.000000
0.271446 0.668015 1.000000
0.404089 0.665893 1.000000
0.535919 0.663784 1.000000
0.667137 0.661684 1.000000
0.797862 0.659592 1.000000
0.928176 0.657507 1.000000
1.000000 0.655428 1.000000
0.000000 0.799056 1.000000
0.129570 0.796876 1.000000
0.263417 0.794734 1.000000
0.396059 0.792612 1.000000
0.527889 0.790502 1.000000
0.659107 0.788403 1.000000
0.789832 0.786311 1.000000
0.920146 0.784226 1.000000
1.000000 0.782147 1.000000
0.000000 0.925374 1.000000
0.121565 0.923193 1.000000
0.255412 0.921051 1.000000
0.388055 0.918929 1.000000
0.519885 0.916820 1.000000
0.651103 0.914720 1.000000
0.781828 0.912629 1.000000
0.912142 0.910544 1.000000
1.000000 0.908464 1.000000
0.000000 1.000000 1.000000
0.113583 1.000000 1.000000
0.247430 1.000000 1.000000
0.380072 1.000000 1.000000
0.511903 1.000000 1.000000
0.643120 1.000000 1.000000
0.773845 1.000000 1.000000
0.904159 1.000000 1.000000
1.000000 1.000000 1.000000
