assets/luts/generated_genre/bs_commercial_hyperreal_punch_c74ac6293d7be199.cube
# V4 spec-generated LUT — bs_commercial_hyperreal_punch
# Genre: commercial
# Look: Hyperreal premium commercial — glossy, vivid, soft bloom. Apple Shot on iPhone, Lance Acord.
# Spec hash: c74ac6293d7be199
TITLE "V4 Spec LUT — bs_commercial_hyperreal_punch"
LUT_3D_SIZE 5
DOMAIN_MIN 0.0 0.0 0.0
DOMAIN_MAX 1.0 1.0 1.0
0.000001 0.000001 0.000001
0.259132 0.000000 0.000000
0.544343 0.000000 0.000000
0.831134 0.000000 0.000000
1.000000 0.000000 0.000000
0.000000 0.250580 0.000000
0.246962 0.246962 0.000000
0.532173 0.242980 0.000000
0.818964 0.238977 0.000000
1.000000 0.234959 0.000000
0.000000 0.526378 0.000000
0.233568 0.522760 0.000000
0.518779 0.518779 0.000000
0.806196 0.515401 0.000000
1.000000 0.512529 0.000000
0.000000 0.804862 0.000000
0.222288 0.802276 0.000000
0.508635 0.799429 0.000000
0.796567 0.796567 0.000000
1.000000 0.793695 0.000000
0.000000 1.000000 0.000000
0.212626 1.000000 0.000000
0.498972 1.000000 0.000000
0.786905 1.000000 0.000000
1.000000 1.000000 0.000000
0.000000 0.000000 0.261331
0.257903 0.000000 0.257155
0.543115 0.000000 0.252559
0.829905 0.000000 0.247937
1.000000 0.000000 0.243298
0.000000 0.249351 0.247282
0.245734 0.245734 0.243106
0.530945 0.241752 0.238510
0.817735 0.237748 0.233888
1.000000 0.233730 0.229249
0.000000 0.525149 0.231819
0.232339 0.521532 0.227643
0.517550 0.517550 0.223047
0.805317 0.514523 0.219930
1.000000 0.511651 0.217058
0.000000 0.803984 0.218596
0.221410 0.801397 0.216010
0.507757 0.798551 0.213164
0.795689 0.795689 0.210302
1.000000 0.792817 0.207429
0.000000 1.000000 0.208934
0.211748 1.000000 0.206348
0.498094 1.000000 0.203501
0.786026 1.000000 0.200639
1.000000 1.000000 0.197767
0.000000 0.000000 0.548963
0.256551 0.000000 0.544787
0.541762 0.000000 0.540190
0.828553 0.000000 0.535569
1.000000 0.000000 0.530930
0.000000 0.247999 0.534914
0.244381 0.244381 0.530738
0.529593 0.240400 0.526141
0.816383 0.236396 0.521520
1.000000 0.232378 0.516881
0.000000 0.523797 0.519451
0.230987 0.520180 0.515275
0.516418 0.516418 0.511018
0.804351 0.513556 0.508156
1.000000 0.510684 0.505284
0.000000 0.803017 0.506822
0.220443 0.800431 0.504236
0.506790 0.797584 0.501390
0.794722 0.794722 0.498528
1.000000 0.791850 0.495656
0.000000 1.000000 0.497160
0.210781 1.000000 0.494574
0.497127 1.000000 0.491727
0.785060 1.000000 0.488865
1.000000 1.000000 0.485993
0.000000 0.000000 0.838188
0.255192 0.000000 0.834012
0.540403 0.000000 0.829415
0.827193 0.000000 0.824793
1.000000 0.000000 0.820155
0.000000 0.246639 0.824139
0.243022 0.243022 0.819963
0.528233 0.239040 0.815366
0.815024 0.235036 0.810744
1.000000 0.231018 0.806106
0.000000 0.522438 0.808676
0.229627 0.518820 0.804500
0.515446 0.515446 0.800841
0.803379 0.512584 0.797979
1.000000 0.509712 0.795106
0.000000 0.802045 0.796645
0.219471 0.799459 0.794059
0.505818 0.796612 0.791212
0.793750 0.793750 0.788350
1.000000 0.790878 0.785478
0.000000 1.000000 0.786982
0.209809 1.000000 0.784396
0.496155 1.000000 0.781550
0.784088 1.000000 0.778688
1.000000 1.000000 0.775815
0.000000 0.000000 1.000000
0.253827 0.000000 1.000000
0.539038 0.000000 1.000000
0.825829 0.000000 1.000000
1.000000 0.000000 1.000000
0.000000 0.245275 1.000000
0.241657 0.241657 1.000000
0.526868 0.237676 1.000000
0.813659 0.233672 1.000000
1.000000 0.229654 1.000000
0.000000 0.521073 1.000000
0.228263 0.517455 1.000000
0.514471 0.514471 1.000000
0.802403 0.511609 1.000000
1.000000 0.508737 1.000000
0.000000 0.801069 1.000000
0.218496 0.798483 1.000000
0.504843 0.795637 1.000000
0.792775 0.792775 1.000000
1.000000 0.789902 1.000000
0.000000 1.000000 1.000000
0.208833 1.000000 1.000000
0.495180 1.000000 1.000000
0.783112 1.000000 1.000000
1.000000 1.000000 1.000000
