assets/luts/generated_genre/bs_commercial_hyperreal_punch_c74ac6293d7be199.cube
# V4 spec-generated LUT — bs_commercial_hyperreal_punch
# Genre: commercial
# Look: Hyperreal premium commercial — glossy, vivid, soft bloom. Apple Shot on iPhone, Lance Acord.
# Spec hash: c74ac6293d7be199
TITLE "V4 Spec LUT — bs_commercial_hyperreal_punch"
LUT_3D_SIZE 9
DOMAIN_MIN 0.0 0.0 0.0
DOMAIN_MAX 1.0 1.0 1.0
0.000001 0.000001 0.000001
0.117606 0.000000 0.000000
0.259132 0.000000 0.000000
0.401479 0.000000 0.000000
0.544343 0.000000 0.000000
0.687588 0.000000 0.000000
0.831134 0.000000 0.000000
0.974929 0.000000 0.000000
1.000000 0.000000 0.000000
0.000000 0.113725 0.000000
0.112083 0.112083 0.000000
0.253609 0.110107 0.000000
0.395956 0.108120 0.000000
0.538820 0.106126 0.000000
0.682065 0.104126 0.000000
0.825611 0.102122 0.000000
0.969406 0.100114 0.000000
1.000000 0.098104 0.000000
0.000000 0.250580 0.000000
0.105436 0.248938 0.000000
0.246962 0.246962 0.000000
0.389309 0.244975 0.000000
0.532173 0.242980 0.000000
0.675418 0.240981 0.000000
0.818964 0.238977 0.000000
0.962760 0.236969 0.000000
1.000000 0.234959 0.000000
0.000000 0.388229 0.000000
0.098751 0.386587 0.000000
0.240277 0.384611 0.000000
0.382624 0.382624 0.000000
0.525488 0.380629 0.000000
0.668733 0.378630 0.000000
0.812279 0.376626 0.000000
0.956074 0.374618 0.000000
1.000000 0.372608 0.000000
0.000000 0.526378 0.000000
0.092042 0.524736 0.000000
0.233568 0.522760 0.000000
0.375914 0.520773 0.000000
0.518779 0.518779 0.000000
0.662078 0.516834 0.000000
0.806196 0.515401 0.000000
0.950564 0.513966 0.000000
1.000000 0.512529 0.000000
0.000000 0.664895 0.000000
0.085315 0.663253 0.000000
0.227108 0.661545 0.000000
0.370021 0.660124 0.000000
0.513454 0.658699 0.000000
0.657269 0.657269 0.000000
0.801386 0.655837 0.000000
0.945754 0.654401 0.000000
1.000000 0.652964 0.000000
0.000000 0.804862 0.000000
0.080199 0.803688 0.000000
0.222288 0.802276 0.000000
0.365202 0.800855 0.000000
0.508635 0.799429 0.000000
0.652450 0.798000 0.000000
0.796567 0.796567 0.000000
0.940935 0.795132 0.000000
1.000000 0.793695 0.000000
0.000000 0.945837 0.000000
0.075372 0.944663 0.000000
0.217461 0.943251 0.000000
0.360374 0.941830 0.000000
0.503807 0.940405 0.000000
0.647622 0.938975 0.000000
0.791739 0.937542 0.000000
0.936107 0.936107 0.000000
1.000000 0.934670 0.000000
0.000000 1.000000 0.000000
0.070537 1.000000 0.000000
0.212626 1.000000 0.000000
0.355539 1.000000 0.000000
0.498972 1.000000 0.000000
0.642787 1.000000 0.000000
0.786905 1.000000 0.000000
0.931272 1.000000 0.000000
1.000000 1.000000 0.000000
0.000000 0.000000 0.118604
0.117049 0.000000 0.116709
0.258574 0.000000 0.114428
0.400921 0.000000 0.112134
0.543786 0.000000 0.109832
0.687030 0.000000 0.107523
0.830576 0.000000 0.105210
0.974372 0.000000 0.102892
1.000000 0.000000 0.100571
0.000000 0.113167 0.112228
0.111526 0.111526 0.110333
0.253051 0.109550 0.108052
0.395398 0.107563 0.105758
0.538262 0.105568 0.103456
0.681507 0.103568 0.101147
0.825053 0.101564 0.098834
0.968849 0.099557 0.096516
1.000000 0.097546 0.094195
0.000000 0.250022 0.104555
0.104879 0.248380 0.102660
0.246405 0.246405 0.100379
0.388751 0.244417 0.098085
0.531616 0.242423 0.095783
0.674861 0.240423 0.093474
0.818406 0.238419 0.091161
0.962202 0.236412 0.088843
1.000000 0.234401 0.086523
0.000000 0.387671 0.096838
0.098194 0.386029 0.094943
0.239719 0.384053 0.092662
0.382066 0.382066 0.090368
0.524931 0.380072 0.088065
0.668175 0.378072 0.085757
0.811721 0.376068 0.083443
0.955517 0.374061 0.081126
1.000000 0.372068 0.078832
0.000000 0.525820 0.089093
0.091484 0.524179 0.087197
0.233010 0.522203 0.084916
0.375357 0.520216 0.082622
0.518221 0.518221 0.080320
0.661680 0.516435 0.078341
0.805797 0.515003 0.076908
0.950165 0.513568 0.075473
1.000000 0.512130 0.074036
0.000000 0.664338 0.081326
0.084757 0.662696 0.079431
0.226709 0.661146 0.077808
0.369623 0.659726 0.076387
0.513056 0.658300 0.074961
0.656871 0.656871 0.073532
0.800988 0.655438 0.072099
0.945356 0.654003 0.070664
1.000000 0.652566 0.069227
0.000000 0.804463 0.075575
0.079801 0.803290 0.074401
0.221890 0.801877 0.072988
0.364803 0.800456 0.071568
0.508236 0.799031 0.070142
0.652051 0.797601 0.068712
0.796169 0.796169 0.067280
0.940536 0.794733 0.065845
1.000000 0.793296 0.064408
0.000000 0.945438 0.070747
0.074973 0.944265 0.069573
0.217062 0.942852 0.068161
0.359976 0.941432 0.066740
0.503409 0.940006 0.065314
0.647223 0.938576 0.063885
0.791341 0.937144 0.062452
0.935709 0.935709 0.061017
1.000000 0.934272 0.059580
0.000000 1.000000 0.065912
0.070138 1.000000 0.064738
0.212227 1.000000 0.063326
0.355141 1.000000 0.061905
0.498574 1.000000 0.060479
0.642389 1.000000 0.059050
0.786506 1.000000 0.057617
0.930874 1.000000 0.056182
1.000000 1.000000 0.054745
0.000000 0.000000 0.261331
0.116378 0.000000 0.259436
0.257903 0.000000 0.257155
0.400250 0.000000 0.254861
0.543115 0.000000 0.252559
0.686359 0.000000 0.250250
0.829905 0.000000 0.247937
0.973701 0.000000 0.245619
1.000000 0.000000 0.243298
0.000000 0.112496 0.254955
0.110855 0.110855 0.253060
0.252380 0.108879 0.250779
0.394727 0.106892 0.248485
0.537591 0.104897 0.246183
0.680836 0.102897 0.243874
0.824382 0.100893 0.241561
0.968178 0.098886 0.239243
1.000000 0.096875 0.236922
0.000000 0.249351 0.247282
0.104208 0.247709 0.245387
0.245734 0.245734 0.243106
0.388080 0.243746 0.240812
0.530945 0.241752 0.238510
0.674190 0.239752 0.236201
0.817735 0.237748 0.233888
0.961531 0.235741 0.231570
1.000000 0.233730 0.229249
0.000000 0.387000 0.239565
0.097523 0.385358 0.237670
0.239048 0.383382 0.235389
0.381395 0.381395 0.233095
0.524260 0.379401 0.230792
0.667504 0.377401 0.228484
0.811050 0.375397 0.226170
0.954846 0.373390 0.223853
1.000000 0.371588 0.221854
0.000000 0.525149 0.231819
0.090813 0.523508 0.229924
0.232339 0.521532 0.227643
0.374686 0.519545 0.225349
0.517550 0.517550 0.223047
0.661200 0.515956 0.221363
0.805317 0.514523 0.219930
0.949685 0.513088 0.218495
1.000000 0.511651 0.217058
0.000000 0.663667 0.224053
0.084140 0.662079 0.222242
0.226229 0.660667 0.220829
0.369143 0.659246 0.219409
0.512576 0.657820 0.217983
0.656391 0.656391 0.216553
0.800508 0.654958 0.215121
0.944876 0.653523 0.213686
1.000000 0.652086 0.212249
0.000000 0.803984 0.218596
0.079321 0.802810 0.217423
0.221410 0.801397 0.216010
0.364324 0.799977 0.214590
0.507757 0.798551 0.213164
0.651572 0.797121 0.211734
0.795689 0.795689 0.210302
0.940057 0.794254 0.208866
1.000000 0.792817 0.207429
0.000000 0.944959 0.213769
0.074493 0.943785 0.212595
0.216582 0.942373 0.211182
0.359496 0.940952 0.209762
0.502929 0.939526 0.208336
0.646744 0.938097 0.206906
0.790861 0.936664 0.205474
0.935229 0.935229 0.204039
1.000000 0.933792 0.202602
0.000000 1.000000 0.208934
0.069659 1.000000 0.207760
0.211748 1.000000 0.206348
0.354661 1.000000 0.204927
0.498094 1.000000 0.203501
0.641909 1.000000 0.202072
0.786026 1.000000 0.200639
0.930394 1.000000 0.199204
1.000000 1.000000 0.197767
0.000000 0.000000 0.404886
0.115703 0.000000 0.402991
0.257229 0.000000 0.400710
0.399575 0.000000 0.398416
0.542440 0.000000 0.396114
0.685684 0.000000 0.393805
0.829230 0.000000 0.391492
0.973026 0.000000 0.389174
1.000000 0.000000 0.386853
0.000000 0.111821 0.398510
0.110180 0.110180 0.396615
0.251705 0.108204 0.394334
0.394052 0.106217 0.392040
0.536917 0.104222 0.389737
0.680161 0.102222 0.387429
0.823707 0.100218 0.385116
0.967503 0.098211 0.382798
1.000000 0.096201 0.380477
0.000000 0.248676 0.390837
0.103533 0.247034 0.388942
0.245059 0.245059 0.386661
0.387406 0.243072 0.384367
0.530270 0.241077 0.382065
0.673515 0.239077 0.379756
0.817061 0.237073 0.377443
0.960856 0.235066 0.375125
1.000000 0.233055 0.372804
0.000000 0.386325 0.383120
0.096848 0.384683 0.381224
0.238374 0.382708 0.378944
0.380720 0.380720 0.376650
0.523585 0.378726 0.374347
0.666829 0.376726 0.372039
0.810375 0.374722 0.369725
0.954171 0.372715 0.367408
1.000000 0.371106 0.365706
0.000000 0.524475 0.375374
0.090138 0.522833 0.373479
0.231664 0.520857 0.371198
0.374011 0.518870 0.368904
0.516903 0.516903 0.366644
0.660718 0.515473 0.365214
0.804835 0.514041 0.363782
0.949203 0.512605 0.362347
1.000000 0.511168 0.360909
0.000000 0.662992 0.367608
0.083658 0.661597 0.366093
0.225747 0.660184 0.364681
0.368660 0.658764 0.363260
0.512093 0.657338 0.361835
0.655908 0.655908 0.360405
0.800026 0.654476 0.358972
0.944394 0.653041 0.357537
1.000000 0.651604 0.356100
0.000000 0.803501 0.362448
0.078839 0.802327 0.361274
0.220928 0.800915 0.359862
0.363841 0.799494 0.358441
0.507274 0.798069 0.357015
0.651089 0.796639 0.355586
0.795206 0.795206 0.354153
0.939574 0.793771 0.352718
1.000000 0.792334 0.351281
0.000000 0.944476 0.357620
0.074011 0.943303 0.356446
0.216100 0.941890 0.355034
0.359013 0.940470 0.353613
0.502446 0.939044 0.352188
0.646261 0.937614 0.350758
0.790379 0.936182 0.349325
0.934747 0.934747 0.347890
1.000000 0.933309 0.346453
0.000000 1.000000 0.352785
0.069176 1.000000 0.351612
0.211265 1.000000 0.350199
0.354179 1.000000 0.348779
0.497612 1.000000 0.347353
0.641427 1.000000 0.345923
0.785544 1.000000 0.344491
0.929912 1.000000 0.343056
1.000000 1.000000 0.341618
0.000000 0.000000 0.548963
0.115026 0.000000 0.547068
0.256551 0.000000 0.544787
0.398898 0.000000 0.542493
0.541762 0.000000 0.540190
0.685007 0.000000 0.537882
0.828553 0.000000 0.535569
0.972349 0.000000 0.533251
1.000000 0.000000 0.530930
0.000000 0.111144 0.542587
0.109502 0.109502 0.540692
0.251028 0.107527 0.538411
0.393375 0.105539 0.536117
0.536239 0.103545 0.533814
0.679484 0.101545 0.531506
0.823030 0.099541 0.529192
0.966825 0.097534 0.526875
1.000000 0.095523 0.524554
0.000000 0.247999 0.534914
0.102856 0.246357 0.533019
0.244381 0.244381 0.530738
0.386728 0.242394 0.528444
0.529593 0.240400 0.526141
0.672837 0.238400 0.523833
0.816383 0.236396 0.521520
0.960179 0.234389 0.519202
1.000000 0.232378 0.516881
0.000000 0.385648 0.527197
0.096171 0.384006 0.525301
0.237696 0.382030 0.523021
0.380043 0.380043 0.520726
0.522907 0.378049 0.518424
0.666152 0.376049 0.516115
0.809698 0.374045 0.513802
0.953515 0.372059 0.511518
1.000000 0.370622 0.510080
0.000000 0.523797 0.519451
0.089461 0.522155 0.517556
0.230987 0.520180 0.515275
0.373334 0.518192 0.512981
0.516418 0.516418 0.511018
0.660233 0.514989 0.509589
0.804351 0.513556 0.508156
0.948719 0.512121 0.506721
1.000000 0.510684 0.505284
0.000000 0.662314 0.511685
0.083174 0.661113 0.510468
0.225263 0.659700 0.509056
0.368176 0.658280 0.507635
0.511609 0.656854 0.506209
0.655424 0.655424 0.504780
0.799542 0.653992 0.503347
0.943909 0.652557 0.501912
1.000000 0.651119 0.500475
0.000000 0.803017 0.506822
0.078354 0.801843 0.505649
0.220443 0.800431 0.504236
0.363357 0.799010 0.502816
0.506790 0.797584 0.501390
0.650605 0.796155 0.499960
0.794722 0.794722 0.498528
0.939090 0.793287 0.497093
1.000000 0.791850 0.495656
0.000000 0.943992 0.501995
0.073527 0.942818 0.500821
0.215616 0.941406 0.499409
0.358529 0.939985 0.497988
0.501962 0.938560 0.496562
0.645777 0.937130 0.495133
0.789894 0.935697 0.493700
0.934262 0.934262 0.492265
1.000000 0.932825 0.490828
0.000000 1.000000 0.497160
0.068692 1.000000 0.495986
0.210781 1.000000 0.494574
0.353694 1.000000 0.493153
0.497127 1.000000 0.491727
0.640942 1.000000 0.490298
0.785060 1.000000 0.488865
0.929428 1.000000 0.487430
1.000000 1.000000 0.485993
0.000000 0.000000 0.693424
0.114346 0.000000 0.691528
0.255872 0.000000 0.689247
0.398219 0.000000 0.686953
0.541083 0.000000 0.684651
0.684328 0.000000 0.682342
0.827874 0.000000 0.680029
0.971669 0.000000 0.677712
1.000000 0.000000 0.675391
0.000000 0.110465 0.687048
0.108823 0.108823 0.685152
0.250349 0.106847 0.682871
0.392696 0.104860 0.680577
0.535560 0.102866 0.678275
0.678805 0.100866 0.675966
0.822351 0.098862 0.673653
0.966146 0.096855 0.671336
1.000000 0.094844 0.669015
0.000000 0.247320 0.679375
0.102177 0.245678 0.677479
0.243702 0.243702 0.675198
0.386049 0.241715 0.672904
0.528913 0.239721 0.670602
0.672158 0.237721 0.668293
0.815704 0.235717 0.665980
0.959500 0.233709 0.663663
1.000000 0.231699 0.661342
0.000000 0.384969 0.671657
0.095491 0.383327 0.669762
0.237017 0.381351 0.667481
0.379364 0.379364 0.665187
0.522228 0.377369 0.662885
0.665473 0.375370 0.660576
0.809019 0.373366 0.658263
0.953030 0.371573 0.656277
1.000000 0.370136 0.654839
0.000000 0.523118 0.663912
0.088782 0.521476 0.662016
0.230308 0.519501 0.659736
0.372654 0.517513 0.657441
0.515933 0.515933 0.655777
0.659748 0.514503 0.654348
0.803865 0.513071 0.652915
0.948233 0.511636 0.651480
1.000000 0.510199 0.650043
0.000000 0.661801 0.656401
0.082688 0.660627 0.655227
0.224777 0.659215 0.653815
0.367691 0.657794 0.652394
0.511124 0.656368 0.650968
0.654939 0.654939 0.649539
0.799056 0.653506 0.648106
0.943424 0.652071 0.646671
1.000000 0.650634 0.645234
0.000000 0.802531 0.651581
0.077869 0.801358 0.650408
0.219958 0.799945 0.648995
0.362871 0.798525 0.647575
0.506304 0.797099 0.646149
0.650119 0.795669 0.644719
0.794237 0.794237 0.643287
0.938605 0.792802 0.641852
1.000000 0.791364 0.640414
0.000000 0.943507 0.646754
0.073041 0.942333 0.645580
0.215130 0.940921 0.644168
0.358044 0.939500 0.642747
0.501477 0.938074 0.641321
0.645292 0.936645 0.639892
0.789409 0.935212 0.638459
0.933777 0.933777 0.637024
1.000000 0.932340 0.635587
0.000000 1.000000 0.641919
0.068206 1.000000 0.640745
0.210295 1.000000 0.639333
0.353209 1.000000 0.637912
0.496642 1.000000 0.636486
0.640457 1.000000 0.635057
0.784574 1.000000 0.633624
0.928942 1.000000 0.632189
1.000000 1.000000 0.630752
0.000000 0.000000 0.838188
0.113666 0.000000 0.836293
0.255192 0.000000 0.834012
0.397538 0.000000 0.831718
0.540403 0.000000 0.829415
0.683647 0.000000 0.827107
0.827193 0.000000 0.824793
0.970989 0.000000 0.822476
1.000000 0.000000 0.820155
0.000000 0.109784 0.831812
0.108143 0.108143 0.829917
0.249668 0.106167 0.827636
0.392015 0.104180 0.825342
0.534880 0.102185 0.823039
0.678124 0.100185 0.820731
0.821670 0.098181 0.818417
0.965466 0.096174 0.816100
1.000000 0.094164 0.813779
0.000000 0.246639 0.824139
0.101496 0.244997 0.822244
0.243022 0.243022 0.819963
0.385369 0.241034 0.817669
0.528233 0.239040 0.815366
0.671478 0.237040 0.813058
0.815024 0.235036 0.810744
0.958819 0.233029 0.808427
1.000000 0.231018 0.806106
0.000000 0.384288 0.816422
0.094811 0.382646 0.814526
0.236337 0.380671 0.812245
0.378683 0.378683 0.809951
0.521548 0.376689 0.807649
0.664792 0.374689 0.805340
0.808338 0.372685 0.803027
0.952543 0.371087 0.801340
1.000000 0.369650 0.799903
0.000000 0.522438 0.808676
0.088101 0.520796 0.806781
0.229627 0.518820 0.804500
0.372013 0.516872 0.802267
0.515446 0.515446 0.800841
0.659261 0.514017 0.799411
0.803379 0.512584 0.797979
0.947747 0.511149 0.796544
1.000000 0.509712 0.795106
0.000000 0.661314 0.801464
0.082202 0.660141 0.800291
0.224291 0.658728 0.798878
0.367204 0.657308 0.797457
0.510637 0.655882 0.796032
0.654452 0.654452 0.794602
0.798570 0.653020 0.793170
0.942937 0.651585 0.791734
1.000000 0.650147 0.790297
0.000000 0.802045 0.796645
0.077382 0.800871 0.795471
0.219471 0.799459 0.794059
0.362385 0.798038 0.792638
0.505818 0.796612 0.791212
0.649633 0.795183 0.789783
0.793750 0.793750 0.788350
0.938118 0.792315 0.786915
1.000000 0.790878 0.785478
0.000000 0.943020 0.791817
0.072555 0.941846 0.790643
0.214644 0.940434 0.789231
0.357557 0.939013 0.787810
0.500990 0.937588 0.786385
0.644805 0.936158 0.784955
0.788922 0.934725 0.783522
0.933290 0.933290 0.782087
1.000000 0.931853 0.780650
0.000000 1.000000 0.786982
0.067720 1.000000 0.785809
0.209809 1.000000 0.784396
0.352722 1.000000 0.782976
0.496155 1.000000 0.781550
0.639970 1.000000 0.780120
0.784088 1.000000 0.778688
0.928456 1.000000 0.777253
1.000000 1.000000 0.775815
0.000000 0.000000 0.983204
0.112984 0.000000 0.981309
0.254510 0.000000 0.979028
0.396857 0.000000 0.976734
0.539721 0.000000 0.974431
0.682966 0.000000 0.972123
0.826512 0.000000 0.969809
0.970307 0.000000 0.967492
1.000000 0.000000 0.965171
0.000000 0.109103 0.976828
0.107461 0.107461 0.974932
0.248987 0.105485 0.972652
0.391333 0.103498 0.970358
0.534198 0.101503 0.968055
0.677442 0.099504 0.965747
0.820988 0.097500 0.963433
0.964784 0.095492 0.961116
1.000000 0.093482 0.958795
0.000000 0.245958 0.969155
0.100814 0.244316 0.967260
0.242340 0.242340 0.964979
0.384687 0.240353 0.962685
0.527551 0.238358 0.960382
0.670796 0.236359 0.958074
0.814342 0.234355 0.955760
0.958137 0.232347 0.953443
1.000000 0.230337 0.951122
0.000000 0.383606 0.961437
0.094129 0.381965 0.959542
0.235655 0.379989 0.957261
0.378002 0.378002 0.954967
0.520866 0.376007 0.952665
0.664111 0.374007 0.950356
0.807688 0.372035 0.948091
0.952056 0.370599 0.946656
1.000000 0.369162 0.945218
0.000000 0.521756 0.953692
0.087420 0.520114 0.951797
0.228945 0.518138 0.949516
0.371526 0.516385 0.947582
0.514959 0.514959 0.946156
0.658774 0.513530 0.944727
0.802891 0.512097 0.943294
0.947259 0.510662 0.941859
1.000000 0.509225 0.940422
0.000000 0.660827 0.946780
0.081714 0.659653 0.945606
0.223803 0.658241 0.944194
0.366717 0.656820 0.942773
0.510150 0.655394 0.941347
0.653965 0.653965 0.939918
0.798082 0.652532 0.938485
0.942450 0.651097 0.937050
1.000000 0.649660 0.935613
0.000000 0.801558 0.941961
0.076895 0.800384 0.940787
0.218984 0.798971 0.939374
0.361898 0.797551 0.937954
0.505331 0.796125 0.936528
0.649145 0.794695 0.935098
0.793263 0.793263 0.933666
0.937631 0.791828 0.932231
1.000000 0.790391 0.930794
0.000000 0.942533 0.937133
0.072067 0.941359 0.935959
0.214156 0.939947 0.934547
0.357070 0.938526 0.933126
0.500503 0.937100 0.931700
0.644318 0.935671 0.930271
0.788435 0.934238 0.928838
0.932803 0.932803 0.927403
1.000000 0.931366 0.925966
0.000000 1.000000 0.932298
0.067233 1.000000 0.931124
0.209322 1.000000 0.929712
0.352235 1.000000 0.928291
0.495668 1.000000 0.926865
0.639483 1.000000 0.925436
0.783600 1.000000 0.924003
0.927968 1.000000 0.922568
1.000000 1.000000 0.921131
0.000000 0.000000 1.000000
0.112301 0.000000 1.000000
0.253827 0.000000 1.000000
0.396174 0.000000 1.000000
0.539038 0.000000 1.000000
0.682283 0.000000 1.000000
0.825829 0.000000 1.000000
0.969624 0.000000 1.000000
1.000000 0.000000 1.000000
0.000000 0.108420 1.000000
0.106778 0.106778 1.000000
0.248304 0.104802 1.000000
0.390651 0.102815 1.000000
0.533515 0.100821 1.000000
0.676760 0.098821 1.000000
0.820306 0.096817 1.000000
0.964101 0.094810 1.000000
1.000000 0.092799 1.000000
0.000000 0.245275 1.000000
0.100132 0.243633 1.000000
0.241657 0.241657 1.000000
0.384004 0.239670 1.000000
0.526868 0.237676 1.000000
0.670113 0.235676 1.000000
0.813659 0.233672 1.000000
0.957455 0.231664 1.000000
1.000000 0.229654 1.000000
0.000000 0.382924 1.000000
0.093446 0.381282 1.000000
0.234972 0.379306 1.000000
0.377319 0.377319 1.000000
0.520183 0.375324 1.000000
0.663428 0.373325 1.000000
0.807200 0.371546 1.000000
0.951568 0.370111 1.000000
1.000000 0.368674 1.000000
0.000000 0.521073 1.000000
0.086737 0.519431 1.000000
0.228263 0.517455 1.000000
0.371038 0.515897 1.000000
0.514471 0.514471 1.000000
0.658286 0.513041 1.000000
0.802403 0.511609 1.000000
0.946771 0.510174 1.000000
1.000000 0.508737 1.000000
0.000000 0.660339 1.000000
0.081226 0.659165 1.000000
0.223315 0.657753 1.000000
0.366229 0.656332 1.000000
0.509662 0.654906 1.000000
0.653477 0.653477 1.000000
0.797594 0.652044 1.000000
0.941962 0.650609 1.000000
1.000000 0.649172 1.000000
0.000000 0.801069 1.000000
0.076407 0.799896 1.000000
0.218496 0.798483 1.000000
0.361409 0.797063 1.000000
0.504843 0.795637 1.000000
0.648657 0.794207 1.000000
0.792775 0.792775 1.000000
0.937143 0.791340 1.000000
1.000000 0.789902 1.000000
0.000000 0.942045 1.000000
0.071579 0.940871 1.000000
0.213668 0.939459 1.000000
0.356582 0.938038 1.000000
0.500015 0.936612 1.000000
0.643830 0.935183 1.000000
0.787947 0.933750 1.000000
0.932315 0.932315 1.000000
1.000000 0.930878 1.000000
0.000000 1.000000 1.000000
0.066744 1.000000 1.000000
0.208833 1.000000 1.000000
0.351747 1.000000 1.000000
0.495180 1.000000 1.000000
0.638995 1.000000 1.000000
0.783112 1.000000 1.000000
0.927480 1.000000 1.000000
1.000000 1.000000 1.000000
