assets/luts/generated_genre/bs_comedy_wes_anderson_pastel_829670986233b89c.cube
# V4 spec-generated LUT — bs_comedy_wes_anderson_pastel
# Genre: comedy
# Look: Whimsical pastel comedy — symmetric storybook. Yeoman/Grand Budapest.
# Spec hash: 829670986233b89c
TITLE "V4 Spec LUT — bs_comedy_wes_anderson_pastel"
LUT_3D_SIZE 9
DOMAIN_MIN 0.0 0.0 0.0
DOMAIN_MAX 1.0 1.0 1.0
0.078186 0.036404 0.065965
0.215639 0.032214 0.061775
0.350008 0.028118 0.057680
0.482720 0.024073 0.053635
0.614291 0.020063 0.049624
0.744990 0.016079 0.045640
0.874984 0.012117 0.041678
1.000000 0.008172 0.037734
1.000000 0.004243 0.033805
0.063702 0.167484 0.051480
0.201155 0.163294 0.047291
0.335523 0.159198 0.043195
0.468236 0.155153 0.039150
0.599806 0.151143 0.035140
0.730505 0.147159 0.031156
0.860500 0.143197 0.027193
0.989904 0.139252 0.023249
1.000000 0.135324 0.019320
0.049602 0.295079 0.037381
0.187055 0.290889 0.033191
0.321424 0.286794 0.029096
0.454136 0.282748 0.025050
0.585707 0.278738 0.021040
0.716406 0.274754 0.017056
0.846400 0.270792 0.013094
0.975804 0.266848 0.009150
1.000000 0.262919 0.005221
0.035691 0.420972 0.023470
0.173144 0.416782 0.019280
0.307512 0.412686 0.015184
0.440225 0.408641 0.011139
0.571795 0.404631 0.007129
0.702494 0.400647 0.003145
0.832489 0.396685 0.000000
0.961893 0.392740 0.000000
1.000000 0.388867 0.000000
0.021906 0.545721 0.009685
0.159359 0.541532 0.005495
0.293727 0.537436 0.001399
0.426440 0.533391 0.000000
0.558010 0.529381 0.000000
0.688499 0.525585 0.000000
0.818193 0.521891 0.000000
0.947297 0.518215 0.000000
1.000000 0.514552 0.000000
0.008216 0.669611 0.000000
0.145644 0.665443 0.000000
0.279702 0.661625 0.000000
0.412107 0.657855 0.000000
0.543373 0.654116 0.000000
0.673770 0.650403 0.000000
0.803464 0.646709 0.000000
0.932568 0.643032 0.000000
1.000000 0.639370 0.000000
0.000000 0.793471 0.000000
0.130997 0.789566 0.000000
0.265055 0.785748 0.000000
0.397460 0.781977 0.000000
0.528726 0.778239 0.000000
0.659123 0.774525 0.000000
0.788817 0.770832 0.000000
0.917921 0.767155 0.000000
1.000000 0.763493 0.000000
0.000000 0.917014 0.000000
0.116418 0.913109 0.000000
0.250476 0.909291 0.000000
0.382881 0.905520 0.000000
0.514147 0.901782 0.000000
0.644544 0.898068 0.000000
0.774238 0.894375 0.000000
0.903342 0.890698 0.000000
1.000000 0.887036 0.000000
0.000000 1.000000 0.000000
0.101898 1.000000 0.000000
0.235956 1.000000 0.000000
0.368361 1.000000 0.000000
0.499627 1.000000 0.000000
0.630024 1.000000 0.000000
0.759718 1.000000 0.000000
0.888822 1.000000 0.000000
1.000000 1.000000 0.000000
0.076744 0.034961 0.208090
0.214197 0.030772 0.203900
0.348566 0.026676 0.199804
0.481278 0.022631 0.195759
0.612849 0.018621 0.191749
0.743548 0.014637 0.187765
0.873542 0.010674 0.183803
1.000000 0.006730 0.179858
1.000000 0.002801 0.175929
0.062259 0.166042 0.193605
0.199712 0.161852 0.189415
0.334081 0.157756 0.185320
0.466794 0.153711 0.181275
0.598364 0.149701 0.177264
0.729063 0.145717 0.173280
0.859058 0.141755 0.169318
0.988461 0.137810 0.165374
1.000000 0.133881 0.161445
0.048160 0.293637 0.179506
0.185613 0.289447 0.175316
0.319982 0.285351 0.171220
0.452694 0.281306 0.167175
0.584265 0.277296 0.163165
0.714964 0.273312 0.159181
0.844958 0.269350 0.155219
0.974362 0.265405 0.151274
1.000000 0.261477 0.147345
0.034249 0.419529 0.165594
0.171702 0.415340 0.161405
0.306070 0.411244 0.157309
0.438783 0.407199 0.153264
0.570353 0.403189 0.149253
0.701052 0.399205 0.145270
0.831047 0.395242 0.141307
0.960451 0.391298 0.137363
1.000000 0.387523 0.133262
0.020464 0.544279 0.151809
0.157916 0.540090 0.147619
0.292285 0.535994 0.143524
0.424998 0.531949 0.139479
0.556551 0.527954 0.135451
0.686947 0.524240 0.131165
0.816641 0.520547 0.126902
0.945746 0.516870 0.122658
1.000000 0.513208 0.118431
0.006774 0.668169 0.138119
0.144092 0.664099 0.133795
0.278150 0.660281 0.129389
0.410556 0.656510 0.125037
0.541822 0.652772 0.120722
0.672218 0.649058 0.116436
0.801912 0.645365 0.112172
0.931016 0.641688 0.107929
1.000000 0.638026 0.103702
0.000000 0.792127 0.123656
0.129445 0.788222 0.119148
0.263503 0.784404 0.114742
0.395908 0.780633 0.110389
0.527175 0.776895 0.106075
0.657571 0.773181 0.101788
0.787265 0.769488 0.097525
0.916369 0.765811 0.093282
1.000000 0.762149 0.089054
0.000000 0.915670 0.109077
0.114866 0.911764 0.104569
0.248924 0.907947 0.100163
0.381330 0.904176 0.095811
0.512596 0.900438 0.091496
0.642992 0.896724 0.087210
0.772686 0.893031 0.082947
0.901791 0.889354 0.078703
1.000000 0.885692 0.074476
0.000000 1.000000 0.094557
0.100346 1.000000 0.090049
0.234404 1.000000 0.085643
0.366810 1.000000 0.081291
0.498076 1.000000 0.076976
0.628472 1.000000 0.072690
0.758166 1.000000 0.068427
0.887271 1.000000 0.064183
1.000000 1.000000 0.059956
0.075337 0.033554 0.346757
0.212790 0.029365 0.342568
0.347159 0.025269 0.338472
0.479871 0.021224 0.334427
0.611442 0.017213 0.330416
0.742141 0.013230 0.326433
0.872135 0.009267 0.322470
1.000000 0.005323 0.318526
1.000000 0.001394 0.314597
0.060852 0.164635 0.332273
0.198305 0.160445 0.328083
0.332674 0.156349 0.323987
0.465386 0.152304 0.319942
0.596957 0.148294 0.315932
0.727656 0.144310 0.311948
0.857651 0.140348 0.307986
0.987054 0.136403 0.304041
1.000000 0.132474 0.300113
0.046753 0.292230 0.318173
0.184206 0.288040 0.313984
0.318575 0.283944 0.309888
0.451287 0.279899 0.305843
0.582858 0.275889 0.301832
0.713557 0.271905 0.297849
0.843551 0.267943 0.293886
0.972955 0.263998 0.289942
1.000000 0.260070 0.286013
0.032842 0.418122 0.304262
0.170294 0.413933 0.300072
0.304663 0.409837 0.295977
0.437376 0.405792 0.291931
0.568946 0.401781 0.287921
0.699645 0.397798 0.283937
0.829640 0.393835 0.279975
0.959044 0.389891 0.276031
1.000000 0.386211 0.271823
0.019057 0.542872 0.290477
0.156509 0.538683 0.286287
0.290878 0.534587 0.282191
0.423591 0.530542 0.278146
0.555037 0.526642 0.274012
0.685434 0.522929 0.269726
0.815127 0.519235 0.265462
0.944232 0.515559 0.261219
1.000000 0.511896 0.256992
0.005367 0.666761 0.276787
0.142578 0.662787 0.272356
0.276636 0.658969 0.267950
0.409042 0.655199 0.263597
0.540308 0.651460 0.259283
0.670704 0.647747 0.254996
0.800398 0.644053 0.250733
0.929503 0.640377 0.246489
1.000000 0.636714 0.242262
0.000000 0.790815 0.262217
0.127931 0.786910 0.257709
0.261989 0.783092 0.253302
0.394395 0.779321 0.248950
0.525661 0.775583 0.244635
0.656057 0.771870 0.240349
0.785751 0.768176 0.236086
0.914855 0.764499 0.231842
1.000000 0.760837 0.227615
0.000000 0.914358 0.247638
0.113353 0.910453 0.243130
0.247410 0.906635 0.238724
0.379816 0.902864 0.234371
0.511082 0.899126 0.230057
0.641478 0.895412 0.225770
0.771172 0.891719 0.221507
0.900277 0.888042 0.217264
1.000000 0.884380 0.213037
0.000000 1.000000 0.233118
0.098833 1.000000 0.228610
0.232890 1.000000 0.224204
0.365296 1.000000 0.219851
0.496562 1.000000 0.215537
0.626958 1.000000 0.211250
0.756652 1.000000 0.206987
0.885757 1.000000 0.202744
1.000000 1.000000 0.198517
0.073948 0.032165 0.483647
0.211401 0.027976 0.479458
0.345770 0.023880 0.475362
0.478482 0.019835 0.471317
0.610053 0.015824 0.467306
0.740752 0.011841 0.463323
0.870746 0.007878 0.459360
1.000000 0.003934 0.455416
1.000000 0.000005 0.451487
0.059463 0.163245 0.469163
0.196916 0.159056 0.464973
0.331285 0.154960 0.460877
0.463997 0.150915 0.456832
0.595568 0.146905 0.452822
0.726267 0.142921 0.448838
0.856262 0.138959 0.444876
0.985665 0.135014 0.440931
1.000000 0.131085 0.437003
0.045364 0.290841 0.455063
0.182817 0.286651 0.450874
0.317186 0.282555 0.446778
0.449898 0.278510 0.442733
0.581469 0.274500 0.438722
0.712167 0.270516 0.434739
0.842162 0.266554 0.430776
0.971566 0.262609 0.426832
1.000000 0.258681 0.422903
0.031453 0.416733 0.441152
0.168905 0.412544 0.436962
0.303274 0.408448 0.432867
0.435987 0.404403 0.428821
0.567557 0.400392 0.424811
0.698256 0.396409 0.420827
0.828251 0.392446 0.416865
0.957569 0.388579 0.412835
1.000000 0.384916 0.408608
0.017667 0.541483 0.427367
0.155120 0.537294 0.423177
0.289489 0.533198 0.419081
0.422202 0.529153 0.415036
0.553542 0.525348 0.410796
0.683939 0.521634 0.406510
0.813633 0.517940 0.402247
0.942737 0.514264 0.398003
1.000000 0.510601 0.393776
0.003949 0.665398 0.413648
0.141084 0.661492 0.409141
0.275142 0.657675 0.404734
0.407547 0.653904 0.400382
0.538813 0.650166 0.396067
0.669210 0.646452 0.391781
0.798904 0.642758 0.387518
0.928008 0.639082 0.383274
1.000000 0.635419 0.379047
0.000000 0.789521 0.399001
0.126437 0.785615 0.394494
0.260495 0.781797 0.390087
0.392900 0.778027 0.385735
0.524166 0.774288 0.381420
0.654563 0.770575 0.377134
0.784257 0.766881 0.372871
0.913361 0.763204 0.368627
1.000000 0.759542 0.364400
0.000000 0.913063 0.384423
0.111858 0.909158 0.379915
0.245916 0.905340 0.375508
0.378321 0.901569 0.371156
0.509587 0.897831 0.366841
0.639984 0.894118 0.362555
0.769678 0.890424 0.358292
0.898782 0.886747 0.354048
1.000000 0.883085 0.349821
0.000000 1.000000 0.369902
0.097338 1.000000 0.365395
0.231396 1.000000 0.360988
0.363801 1.000000 0.356636
0.495067 1.000000 0.352321
0.625464 1.000000 0.348035
0.755158 1.000000 0.343772
0.884262 1.000000 0.339528
1.000000 1.000000 0.335301
0.072571 0.030788 0.619328
0.210024 0.026599 0.615138
0.344393 0.022503 0.611042
0.477105 0.018458 0.606997
0.608676 0.014448 0.602987
0.739375 0.010464 0.599003
0.869369 0.006501 0.595041
0.998773 0.002557 0.591096
1.000000 0.000000 0.587167
0.058087 0.161869 0.604843
0.195539 0.157679 0.600653
0.329908 0.153583 0.596558
0.462621 0.149538 0.592513
0.594191 0.145528 0.588502
0.724890 0.141544 0.584518
0.854885 0.137582 0.580556
0.984289 0.133637 0.576612
1.000000 0.129709 0.572683
0.043987 0.289464 0.590744
0.181440 0.285274 0.586554
0.315809 0.281179 0.582458
0.448521 0.277133 0.578413
0.580092 0.273123 0.574403
0.710791 0.269139 0.570419
0.840785 0.265177 0.566457
0.970189 0.261233 0.562512
1.000000 0.257304 0.558583
0.030076 0.415357 0.576832
0.167529 0.411167 0.572643
0.301897 0.407071 0.568547
0.434610 0.403026 0.564502
0.566180 0.399016 0.560491
0.696879 0.395032 0.556508
0.826874 0.391070 0.552545
0.956087 0.387295 0.548411
1.000000 0.383633 0.544183
0.016291 0.540106 0.563047
0.153744 0.535917 0.558857
0.288112 0.531821 0.554762
0.420795 0.527802 0.550687
0.552061 0.524064 0.546372
0.682458 0.520351 0.542086
0.812152 0.516657 0.537823
0.941256 0.512980 0.533579
1.000000 0.509318 0.529352
0.002468 0.664114 0.549224
0.139603 0.660209 0.544717
0.273661 0.656391 0.540310
0.406066 0.652620 0.535958
0.537332 0.648882 0.531643
0.667729 0.645169 0.527357
0.797422 0.641475 0.523094
0.926527 0.637798 0.518850
1.000000 0.634136 0.514623
0.000000 0.788237 0.534577
0.124955 0.784332 0.530069
0.259013 0.780514 0.525663
0.391419 0.776743 0.521311
0.522685 0.773005 0.516996
0.653081 0.769291 0.512710
0.782775 0.765598 0.508446
0.911880 0.761921 0.504203
1.000000 0.758259 0.499976
0.000000 0.911780 0.519998
0.110377 0.907875 0.515491
0.244435 0.904057 0.511084
0.376840 0.900286 0.506732
0.508106 0.896548 0.502417
0.638503 0.892834 0.498131
0.768197 0.889141 0.493868
0.897301 0.885464 0.489624
1.000000 0.881802 0.485397
0.000000 1.000000 0.505478
0.095857 1.000000 0.500971
0.229915 1.000000 0.496564
0.362320 1.000000 0.492212
0.493586 1.000000 0.487897
0.623983 1.000000 0.483611
0.753676 1.000000 0.479348
0.882781 1.000000 0.475104
1.000000 1.000000 0.470877
0.071204 0.029421 0.754091
0.208657 0.025231 0.749901
0.343025 0.021136 0.745805
0.475738 0.017091 0.741760
0.607308 0.013080 0.737750
0.738007 0.009096 0.733766
0.868002 0.005134 0.729804
0.997406 0.001190 0.725859
1.000000 0.000000 0.721931
0.056719 0.160501 0.739606
0.194172 0.156312 0.735416
0.328541 0.152216 0.731321
0.461253 0.148171 0.727276
0.592824 0.144160 0.723265
0.723523 0.140177 0.719281
0.853517 0.136214 0.715319
0.982921 0.132270 0.711375
1.000000 0.128341 0.707446
0.042620 0.288096 0.725507
0.180073 0.283907 0.721317
0.314441 0.279811 0.717221
0.447154 0.275766 0.713176
0.578724 0.271756 0.709166
0.709423 0.267772 0.705182
0.839418 0.263809 0.701220
0.968822 0.259865 0.697275
1.000000 0.255936 0.693346
0.028708 0.413989 0.711595
0.166161 0.409799 0.707406
0.300530 0.405704 0.703310
0.433242 0.401659 0.699265
0.564813 0.397648 0.695254
0.695512 0.393664 0.691271
0.825506 0.389702 0.687308
0.954616 0.386021 0.683070
1.000000 0.382358 0.678843
0.014923 0.538739 0.697810
0.152376 0.534549 0.693621
0.286745 0.530454 0.689525
0.419324 0.526528 0.685346
0.550590 0.522789 0.681031
0.680986 0.519076 0.676745
0.810680 0.515382 0.672482
0.939785 0.511706 0.668238
1.000000 0.508043 0.664011
0.000997 0.662840 0.683883
0.138131 0.658934 0.679376
0.272189 0.655116 0.674969
0.404595 0.651346 0.670617
0.535861 0.647607 0.666302
0.666257 0.643894 0.662016
0.795951 0.640200 0.657753
0.925056 0.636524 0.653509
1.000000 0.632861 0.649282
0.000000 0.786962 0.669236
0.123484 0.783057 0.664729
0.257542 0.779239 0.660322
0.389947 0.775469 0.655970
0.521214 0.771730 0.651655
0.651610 0.768017 0.647369
0.781304 0.764323 0.643106
0.910408 0.760646 0.638862
1.000000 0.756984 0.634635
0.000000 0.910505 0.654658
0.108906 0.906600 0.650150
0.242963 0.902782 0.645743
0.375369 0.899011 0.641391
0.506635 0.895273 0.637076
0.637031 0.891560 0.632790
0.766725 0.887866 0.628527
0.895830 0.884189 0.624283
1.000000 0.880527 0.620056
0.000000 1.000000 0.640138
0.094385 1.000000 0.635630
0.228443 1.000000 0.631223
0.360849 1.000000 0.626871
0.492115 1.000000 0.622556
0.622511 1.000000 0.618270
0.752205 1.000000 0.614007
0.881310 1.000000 0.609763
1.000000 1.000000 0.605536
0.069844 0.028061 0.888115
0.207297 0.023871 0.883926
0.341665 0.019776 0.879830
0.474378 0.015731 0.875785
0.605948 0.011720 0.871775
0.736647 0.007736 0.867791
0.866642 0.003774 0.863828
0.996046 0.000000 0.859884
1.000000 0.000000 0.855955
0.055359 0.159141 0.873631
0.192812 0.154952 0.869441
0.327181 0.150856 0.865345
0.459893 0.146811 0.861300
0.591464 0.142800 0.857290
0.722163 0.138817 0.853306
0.852157 0.134854 0.849344
0.981561 0.130910 0.845399
1.000000 0.126981 0.841471
0.041260 0.286736 0.859531
0.178713 0.282547 0.855342
0.313081 0.278451 0.851246
0.445794 0.274406 0.847201
0.577364 0.270396 0.843190
0.708063 0.266412 0.839207
0.838058 0.262449 0.835244
0.967462 0.258505 0.831300
1.000000 0.254576 0.827371
0.027348 0.412629 0.845620
0.164801 0.408439 0.841430
0.299170 0.404344 0.837335
0.431882 0.400299 0.833289
0.563453 0.396288 0.829279
0.694152 0.392304 0.825295
0.824049 0.388430 0.821235
0.953153 0.384753 0.816991
1.000000 0.381091 0.812764
0.013563 0.537379 0.831835
0.151016 0.533189 0.827645
0.285385 0.529094 0.823550
0.417861 0.525260 0.819268
0.549127 0.521522 0.814953
0.679523 0.517808 0.810667
0.809217 0.514115 0.806404
0.938321 0.510438 0.802160
1.000000 0.506776 0.797933
0.000000 0.661572 0.817805
0.136668 0.657667 0.813297
0.270726 0.653849 0.808891
0.403131 0.650078 0.804538
0.534398 0.646340 0.800224
0.664794 0.642626 0.795937
0.794488 0.638933 0.791674
0.923592 0.635256 0.787431
1.000000 0.631594 0.783204
0.000000 0.785695 0.803158
0.122021 0.781789 0.798650
0.256079 0.777972 0.794244
0.388484 0.774201 0.789891
0.519750 0.770462 0.785577
0.650147 0.766749 0.781290
0.779841 0.763055 0.777027
0.908945 0.759379 0.772783
1.000000 0.755716 0.768556
0.000000 0.909238 0.788579
0.107442 0.905332 0.784071
0.241500 0.901514 0.779665
0.373906 0.897744 0.775313
0.505172 0.894005 0.770998
0.635568 0.890292 0.766712
0.765262 0.886598 0.762449
0.894366 0.882922 0.758205
1.000000 0.879259 0.753978
0.000000 1.000000 0.774059
0.092922 1.000000 0.769551
0.226980 1.000000 0.765145
0.359386 1.000000 0.760793
0.490652 1.000000 0.756478
0.621048 1.000000 0.752192
0.750742 1.000000 0.747928
0.879846 1.000000 0.743685
1.000000 1.000000 0.739458
0.068490 0.026707 1.000000
0.205943 0.022518 1.000000
0.340312 0.018422 1.000000
0.473024 0.014377 1.000000
0.604595 0.010366 1.000000
0.735294 0.006383 1.000000
0.865288 0.002420 0.997236
0.994692 0.000000 0.993291
1.000000 0.000000 0.989362
0.054005 0.157788 1.000000
0.191458 0.153598 1.000000
0.325827 0.149502 0.998753
0.458540 0.145457 0.994707
0.590110 0.141447 0.990697
0.720809 0.137463 0.986713
0.850804 0.133501 0.982751
0.980207 0.129556 0.978807
1.000000 0.125627 0.974878
0.039906 0.285383 0.992938
0.177359 0.281193 0.988749
0.311728 0.277097 0.984653
0.444440 0.273052 0.980608
0.576011 0.269042 0.976598
0.706710 0.265058 0.972614
0.836704 0.261096 0.968651
0.966108 0.257151 0.964707
1.000000 0.253223 0.960778
0.025995 0.411275 0.979027
0.163447 0.407086 0.974837
0.297816 0.402990 0.970742
0.430529 0.398945 0.966697
0.562099 0.394935 0.962686
0.692798 0.390951 0.958702
0.822592 0.387168 0.954539
0.951697 0.383491 0.950296
1.000000 0.379829 0.946069
0.012210 0.536025 0.965242
0.149662 0.531836 0.961052
0.283999 0.527769 0.956924
0.416404 0.523998 0.952572
0.547670 0.520260 0.948257
0.678067 0.516546 0.943971
0.807761 0.512853 0.939708
0.936865 0.509176 0.935464
1.000000 0.505514 0.931237
0.000000 0.660310 0.951109
0.135212 0.656405 0.946602
0.269270 0.652587 0.942195
0.401675 0.648816 0.937843
0.532941 0.645078 0.933528
0.663338 0.641364 0.929242
0.793031 0.637671 0.924979
0.922136 0.633994 0.920735
1.000000 0.630332 0.916508
0.000000 0.784433 0.936462
0.120565 0.780527 0.931955
0.254622 0.776710 0.927548
0.387028 0.772939 0.923196
0.518294 0.769201 0.918881
0.648691 0.765487 0.914595
0.778384 0.761794 0.910332
0.907489 0.758117 0.906088
1.000000 0.754455 0.901861
0.000000 0.907976 0.921884
0.105986 0.904070 0.917376
0.240044 0.900253 0.912969
0.372449 0.896482 0.908617
0.503715 0.892744 0.904302
0.634112 0.889030 0.900016
0.763806 0.885336 0.895753
0.892910 0.881660 0.891509
1.000000 0.877997 0.887282
0.000000 1.000000 0.907363
0.091466 1.000000 0.902856
0.225524 1.000000 0.898449
0.357929 1.000000 0.894097
0.489195 1.000000 0.889782
0.619592 1.000000 0.885496
0.749286 1.000000 0.881233
0.878390 1.000000 0.876989
1.000000 1.000000 0.872762
0.067142 0.025359 1.000000
0.204595 0.021169 1.000000
0.338963 0.017074 1.000000
0.471676 0.013029 1.000000
0.603246 0.009018 1.000000
0.733945 0.005034 1.000000
0.863940 0.001072 1.000000
0.993344 0.000000 1.000000
1.000000 0.000000 1.000000
0.052657 0.156439 1.000000
0.190110 0.152250 1.000000
0.324479 0.148154 1.000000
0.457191 0.144109 1.000000
0.588762 0.140098 1.000000
0.719461 0.136115 1.000000
0.849455 0.132152 1.000000
0.978859 0.128208 1.000000
1.000000 0.124279 1.000000
0.038558 0.284034 1.000000
0.176011 0.279845 1.000000
0.310379 0.275749 1.000000
0.443092 0.271704 1.000000
0.574662 0.267694 1.000000
0.705361 0.263710 1.000000
0.835356 0.259747 1.000000
0.964760 0.255803 1.000000
1.000000 0.251874 1.000000
0.024646 0.409927 1.000000
0.162099 0.405737 1.000000
0.296468 0.401642 1.000000
0.429180 0.397597 1.000000
0.560751 0.393586 1.000000
0.691448 0.389604 1.000000
0.821141 0.385911 1.000000
0.950246 0.382234 1.000000
1.000000 0.378572 1.000000
0.010861 0.534677 1.000000
0.148314 0.530487 1.000000
0.282548 0.526512 1.000000
0.414953 0.522741 1.000000
0.546220 0.519003 1.000000
0.676616 0.515290 1.000000
0.806310 0.511596 1.000000
0.935414 0.507919 1.000000
1.000000 0.504257 1.000000
0.000000 0.659053 1.000000
0.133761 0.655148 1.000000
0.267819 0.651330 1.000000
0.400224 0.647559 1.000000
0.531490 0.643821 1.000000
0.661887 0.640107 1.000000
0.791581 0.636414 1.000000
0.920685 0.632737 1.000000
1.000000 0.629075 1.000000
0.000000 0.783176 1.000000
0.119114 0.779271 1.000000
0.253172 0.775453 1.000000
0.385577 0.771682 1.000000
0.516843 0.767944 1.000000
0.647240 0.764230 1.000000
0.776934 0.760537 1.000000
0.906038 0.756860 1.000000
1.000000 0.753198 1.000000
0.000000 0.906719 1.000000
0.104535 0.902814 1.000000
0.238593 0.898996 1.000000
0.370998 0.895225 1.000000
0.502265 0.891487 1.000000
0.632661 0.887773 1.000000
0.762355 0.884080 1.000000
0.891459 0.880403 1.000000
1.000000 0.876741 1.000000
0.000000 1.000000 1.000000
0.090015 1.000000 1.000000
0.224073 1.000000 1.000000
0.356478 1.000000 1.000000
0.487744 1.000000 1.000000
0.618141 1.000000 1.000000
0.747835 1.000000 1.000000
0.876939 1.000000 1.000000
1.000000 0.999786 1.000000
