assets/luts/generated_genre/bs_comedy_wes_anderson_pastel_829670986233b89c.cube
# V4 spec-generated LUT — bs_comedy_wes_anderson_pastel
# Genre: comedy
# Look: Whimsical pastel comedy — symmetric storybook. Yeoman/Grand Budapest.
# Spec hash: 829670986233b89c
TITLE "V4 Spec LUT — bs_comedy_wes_anderson_pastel"
LUT_3D_SIZE 5
DOMAIN_MIN 0.0 0.0 0.0
DOMAIN_MAX 1.0 1.0 1.0
0.078186 0.036404 0.065965
0.350008 0.028118 0.057680
0.614291 0.020063 0.049624
0.874984 0.012117 0.041678
1.000000 0.004243 0.033805
0.049602 0.295079 0.037381
0.321424 0.286794 0.029096
0.585707 0.278738 0.021040
0.846400 0.270792 0.013094
1.000000 0.262919 0.005221
0.021906 0.545721 0.009685
0.293727 0.537436 0.001399
0.558010 0.529381 0.000000
0.818193 0.521891 0.000000
1.000000 0.514552 0.000000
0.000000 0.793471 0.000000
0.265055 0.785748 0.000000
0.528726 0.778239 0.000000
0.788817 0.770832 0.000000
1.000000 0.763493 0.000000
0.000000 1.000000 0.000000
0.235956 1.000000 0.000000
0.499627 1.000000 0.000000
0.759718 1.000000 0.000000
1.000000 1.000000 0.000000
0.075337 0.033554 0.346757
0.347159 0.025269 0.338472
0.611442 0.017213 0.330416
0.872135 0.009267 0.322470
1.000000 0.001394 0.314597
0.046753 0.292230 0.318173
0.318575 0.283944 0.309888
0.582858 0.275889 0.301832
0.843551 0.267943 0.293886
1.000000 0.260070 0.286013
0.019057 0.542872 0.290477
0.290878 0.534587 0.282191
0.555037 0.526642 0.274012
0.815127 0.519235 0.265462
1.000000 0.511896 0.256992
0.000000 0.790815 0.262217
0.261989 0.783092 0.253302
0.525661 0.775583 0.244635
0.785751 0.768176 0.236086
1.000000 0.760837 0.227615
0.000000 1.000000 0.233118
0.232890 1.000000 0.224204
0.496562 1.000000 0.215537
0.756652 1.000000 0.206987
1.000000 1.000000 0.198517
0.072571 0.030788 0.619328
0.344393 0.022503 0.611042
0.608676 0.014448 0.602987
0.869369 0.006501 0.595041
1.000000 0.000000 0.587167
0.043987 0.289464 0.590744
0.315809 0.281179 0.582458
0.580092 0.273123 0.574403
0.840785 0.265177 0.566457
1.000000 0.257304 0.558583
0.016291 0.540106 0.563047
0.288112 0.531821 0.554762
0.552061 0.524064 0.546372
0.812152 0.516657 0.537823
1.000000 0.509318 0.529352
0.000000 0.788237 0.534577
0.259013 0.780514 0.525663
0.522685 0.773005 0.516996
0.782775 0.765598 0.508446
1.000000 0.758259 0.499976
0.000000 1.000000 0.505478
0.229915 1.000000 0.496564
0.493586 1.000000 0.487897
0.753676 1.000000 0.479348
1.000000 1.000000 0.470877
0.069844 0.028061 0.888115
0.341665 0.019776 0.879830
0.605948 0.011720 0.871775
0.866642 0.003774 0.863828
1.000000 0.000000 0.855955
0.041260 0.286736 0.859531
0.313081 0.278451 0.851246
0.577364 0.270396 0.843190
0.838058 0.262449 0.835244
1.000000 0.254576 0.827371
0.013563 0.537379 0.831835
0.285385 0.529094 0.823550
0.549127 0.521522 0.814953
0.809217 0.514115 0.806404
1.000000 0.506776 0.797933
0.000000 0.785695 0.803158
0.256079 0.777972 0.794244
0.519750 0.770462 0.785577
0.779841 0.763055 0.777027
1.000000 0.755716 0.768556
0.000000 1.000000 0.774059
0.226980 1.000000 0.765145
0.490652 1.000000 0.756478
0.750742 1.000000 0.747928
1.000000 1.000000 0.739458
0.067142 0.025359 1.000000
0.338963 0.017074 1.000000
0.603246 0.009018 1.000000
0.863940 0.001072 1.000000
1.000000 0.000000 1.000000
0.038558 0.284034 1.000000
0.310379 0.275749 1.000000
0.574662 0.267694 1.000000
0.835356 0.259747 1.000000
1.000000 0.251874 1.000000
0.010861 0.534677 1.000000
0.282548 0.526512 1.000000
0.546220 0.519003 1.000000
0.806310 0.511596 1.000000
1.000000 0.504257 1.000000
0.000000 0.783176 1.000000
0.253172 0.775453 1.000000
0.516843 0.767944 1.000000
0.776934 0.760537 1.000000
1.000000 0.753198 1.000000
0.000000 1.000000 1.000000
0.224073 1.000000 1.000000
0.487744 1.000000 1.000000
0.747835 1.000000 1.000000
1.000000 0.999786 1.000000
