assets/luts/generated_genre/bs_commercial_sundance_indie_e88b6f386aac2e23.cube
# V4 spec-generated LUT — bs_commercial_sundance_indie
# Genre: commercial
# Look: Authentic indie commercial — lo-fi-luxe, lifted blacks, warm. Bradford Young early, Khalik Allah.
# Spec hash: e88b6f386aac2e23
TITLE "V4 Spec LUT — bs_commercial_sundance_indie"
LUT_3D_SIZE 17
DOMAIN_MIN 0.0 0.0 0.0
DOMAIN_MAX 1.0 1.0 1.0
0.061112 0.047815 0.021371
0.113985 0.049848 0.023296
0.165982 0.051848 0.025190
0.217438 0.053826 0.027063
0.268500 0.055789 0.028922
0.319253 0.057741 0.030770
0.369753 0.059682 0.032609
0.420038 0.061616 0.034440
0.470136 0.063542 0.036264
0.520068 0.065462 0.038082
0.569853 0.067376 0.039894
0.619504 0.069285 0.041702
0.669033 0.071189 0.043505
0.718449 0.073089 0.045304
0.767762 0.074985 0.047100
0.816978 0.076878 0.048892
0.866103 0.078767 0.050680
0.068419 0.106227 0.027942
0.121292 0.108260 0.029867
0.173289 0.110260 0.031760
0.224745 0.112238 0.033634
0.275807 0.114201 0.035493
0.326560 0.116153 0.037341
0.377060 0.118094 0.039179
0.427345 0.120028 0.041010
0.477442 0.121954 0.042834
0.527375 0.123874 0.044652
0.577160 0.125788 0.046465
0.626811 0.127697 0.048273
0.676340 0.129601 0.050076
0.725756 0.131501 0.051875
0.775069 0.133397 0.053670
0.824285 0.135290 0.055462
0.873410 0.137179 0.057251
0.075590 0.163555 0.034391
0.128464 0.165588 0.036316
0.180461 0.167587 0.038209
0.231916 0.169566 0.040082
0.282978 0.171529 0.041941
0.333731 0.173481 0.043789
0.384231 0.175422 0.045628
0.434516 0.177356 0.047459
0.484614 0.179282 0.049283
0.534546 0.181202 0.051101
0.584331 0.183116 0.052913
0.633982 0.185025 0.054721
0.683511 0.186929 0.056524
0.732928 0.188829 0.058324
0.782240 0.190725 0.060119
0.831456 0.192618 0.061911
0.880582 0.194506 0.063700
0.082682 0.220245 0.040767
0.135555 0.222278 0.042693
0.187552 0.224277 0.044586
0.239007 0.226255 0.046459
0.290069 0.228219 0.048318
0.340823 0.230170 0.050166
0.391323 0.232112 0.052005
0.441607 0.234045 0.053836
0.491705 0.235971 0.055660
0.541638 0.237891 0.057478
0.591423 0.239805 0.059290
0.641074 0.241714 0.061098
0.690602 0.243619 0.062901
0.740019 0.245519 0.064701
0.789332 0.247415 0.066496
0.838548 0.249307 0.068288
0.887673 0.251196 0.070077
0.089716 0.276480 0.047093
0.142590 0.278513 0.049018
0.194587 0.280512 0.050911
0.246042 0.282491 0.052785
0.297104 0.284454 0.054644
0.347857 0.286405 0.056492
0.398357 0.288347 0.058331
0.448642 0.290280 0.060161
0.498740 0.292207 0.061985
0.548672 0.294126 0.063803
0.598457 0.296041 0.065616
0.648108 0.297950 0.067424
0.697637 0.299854 0.069227
0.747054 0.301754 0.071026
0.796366 0.303650 0.072822
0.845582 0.305542 0.074614
0.894708 0.307431 0.076402
0.096707 0.332363 0.053379
0.149580 0.334396 0.055304
0.201577 0.336395 0.057198
0.253032 0.338373 0.059071
0.304094 0.340336 0.060930
0.354848 0.342288 0.062778
0.405348 0.344230 0.064617
0.455633 0.346163 0.066447
0.505730 0.348089 0.068271
0.555663 0.350009 0.070090
0.605448 0.351923 0.071902
0.655099 0.353832 0.073710
0.704628 0.355737 0.075513
0.754044 0.357637 0.077312
0.803357 0.359533 0.079108
0.852573 0.361425 0.080900
0.901698 0.363314 0.082688
0.103661 0.387957 0.059633
0.156535 0.389990 0.061558
0.208532 0.391989 0.063451
0.259987 0.393968 0.065325
0.311049 0.395931 0.067184
0.361802 0.397882 0.069032
0.412302 0.399824 0.070870
0.462587 0.401757 0.072701
0.512685 0.403684 0.074525
0.562617 0.405604 0.076343
0.612402 0.407518 0.078156
0.662053 0.409427 0.079964
0.711582 0.411331 0.081767
0.760999 0.413231 0.083566
0.810311 0.415127 0.085362
0.859527 0.417019 0.087153
0.908652 0.418908 0.088942
0.110585 0.443308 0.065859
0.163459 0.445341 0.067784
0.215456 0.447340 0.069678
0.266911 0.449319 0.071551
0.317973 0.451282 0.073410
0.368726 0.453234 0.075258
0.419226 0.455175 0.077097
0.469511 0.457109 0.078927
0.519609 0.459035 0.080752
0.569541 0.460955 0.082570
0.619326 0.462869 0.084382
0.668977 0.464778 0.086190
0.718506 0.466682 0.087993
0.767923 0.468582 0.089792
0.817185 0.470477 0.091635
0.866298 0.472367 0.093525
0.915321 0.474253 0.095412
0.117483 0.498449 0.072062
0.170356 0.500482 0.073987
0.222353 0.502481 0.075880
0.273808 0.504460 0.077754
0.324870 0.506423 0.079613
0.375624 0.508374 0.081461
0.426124 0.510316 0.083299
0.476409 0.512249 0.085130
0.526506 0.514176 0.086954
0.576439 0.516095 0.088772
0.626224 0.518010 0.090585
0.675779 0.519916 0.092484
0.725204 0.521818 0.094386
0.774517 0.523716 0.096283
0.823727 0.525609 0.098177
0.872840 0.527499 0.100067
0.921862 0.529385 0.101953
0.124357 0.553404 0.078244
0.177231 0.555437 0.080169
0.229228 0.557437 0.082062
0.280683 0.559415 0.083935
0.331745 0.561378 0.085795
0.382499 0.563330 0.087642
0.432998 0.565271 0.089481
0.483249 0.567204 0.091344
0.533242 0.569128 0.093268
0.583070 0.571045 0.095185
0.632751 0.572957 0.097097
0.682298 0.574863 0.099004
0.731724 0.576765 0.100905
0.781037 0.578662 0.102803
0.830246 0.580556 0.104696
0.879359 0.582446 0.106586
0.928382 0.584332 0.108473
0.131211 0.608194 0.084407
0.184084 0.610227 0.086332
0.236081 0.612226 0.088225
0.287537 0.614205 0.090099
0.338528 0.616166 0.092025
0.389175 0.618115 0.093974
0.439569 0.620054 0.095913
0.489749 0.621985 0.097844
0.539742 0.623909 0.099768
0.589570 0.625826 0.101685
0.639251 0.627738 0.103597
0.688798 0.629644 0.105503
0.738223 0.631546 0.107405
0.787537 0.633444 0.109303
0.836746 0.635337 0.111196
0.885859 0.637227 0.113086
0.934882 0.639113 0.114973
0.138046 0.662834 0.090553
0.190818 0.664865 0.092574
0.242707 0.666861 0.094571
0.294054 0.668837 0.096547
0.345010 0.670798 0.098508
0.395657 0.672747 0.100456
0.446052 0.674686 0.102396
0.496231 0.676617 0.104326
0.546224 0.678540 0.106250
0.596052 0.680458 0.108167
0.645733 0.682369 0.110079
0.695280 0.684276 0.111986
0.744706 0.686178 0.113887
0.794019 0.688075 0.115785
0.843228 0.689969 0.117679
0.892341 0.691858 0.119568
0.941364 0.693745 0.121455
0.144522 0.717330 0.097010
0.197284 0.719360 0.099040
0.249173 0.721356 0.101037
0.300520 0.723332 0.103013
0.351476 0.725293 0.104974
0.402123 0.727242 0.106922
0.452518 0.729181 0.108862
0.502697 0.731112 0.110792
0.552690 0.733035 0.112716
0.602518 0.734953 0.114633
0.652199 0.736864 0.116545
0.701746 0.738771 0.118452
0.751172 0.740673 0.120353
0.800485 0.742570 0.122251
0.849694 0.744464 0.124144
0.898807 0.746354 0.126034
0.947830 0.748240 0.127921
0.150973 0.771699 0.103461
0.203736 0.773730 0.105492
0.255624 0.775726 0.107488
0.306971 0.777702 0.109464
0.357927 0.779663 0.111425
0.408574 0.781612 0.113374
0.458969 0.783551 0.115313
0.509148 0.785482 0.117244
0.559141 0.787405 0.119167
0.608969 0.789323 0.121085
0.658650 0.791234 0.122996
0.708197 0.793141 0.124903
0.757623 0.795043 0.126805
0.806936 0.796940 0.128702
0.856145 0.798834 0.130596
0.905258 0.800723 0.132485
0.954281 0.802610 0.134372
0.157410 0.825953 0.109899
0.210173 0.827984 0.111929
0.262061 0.829980 0.113926
0.313409 0.831956 0.115901
0.364364 0.833917 0.117862
0.415012 0.835866 0.119811
0.465406 0.837805 0.121750
0.515586 0.839736 0.123681
0.565578 0.841659 0.125605
0.615407 0.843577 0.127522
0.665087 0.845488 0.129434
0.714635 0.847395 0.131340
0.764060 0.849297 0.133242
0.813373 0.851194 0.135139
0.862583 0.853088 0.137033
0.911696 0.854977 0.138923
0.960719 0.856864 0.140809
0.163835 0.880100 0.116323
0.216597 0.882130 0.118353
0.268486 0.884127 0.120350
0.319833 0.886102 0.122326
0.370789 0.888063 0.124287
0.421436 0.890012 0.126235
0.471831 0.891951 0.128175
0.522010 0.893882 0.130105
0.572003 0.895806 0.132029
0.621831 0.897723 0.133946
0.671512 0.899635 0.135858
0.721059 0.901541 0.137765
0.770485 0.903443 0.139666
0.819798 0.905340 0.141564
0.869007 0.907234 0.143458
0.918120 0.909124 0.145347
0.967143 0.911010 0.147234
0.170247 0.934145 0.122736
0.223010 0.936176 0.124766
0.274898 0.938172 0.126763
0.326246 0.940148 0.128739
0.377201 0.942109 0.130699
0.427849 0.944058 0.132648
0.478243 0.945997 0.134587
0.528423 0.947927 0.136518
0.578416 0.949851 0.138442
0.628244 0.951768 0.140359
0.677925 0.953680 0.142271
0.727472 0.955587 0.144177
0.776897 0.957489 0.146079
0.826210 0.959386 0.147977
0.875420 0.961280 0.149870
0.924533 0.963169 0.151760
0.973556 0.965056 0.153646
0.061873 0.048538 0.075158
0.114746 0.050571 0.077083
0.166743 0.052570 0.078976
0.218199 0.054549 0.080850
0.269261 0.056512 0.082709
0.320014 0.058463 0.084557
0.370514 0.060405 0.086395
0.420799 0.062338 0.088226
0.470897 0.064265 0.090050
0.520829 0.066185 0.091868
0.570614 0.068099 0.093681
0.620265 0.070008 0.095489
0.669794 0.071912 0.097292
0.719210 0.073812 0.099091
0.768523 0.075708 0.100887
0.817739 0.077600 0.102679
0.866864 0.079489 0.104467
0.069180 0.106950 0.081729
0.122053 0.108983 0.083654
0.174050 0.110982 0.085547
0.225506 0.112961 0.087420
0.276568 0.114924 0.089280
0.327321 0.116875 0.091127
0.377821 0.118817 0.092966
0.428106 0.120750 0.094797
0.478203 0.122677 0.096621
0.528136 0.124596 0.098439
0.577921 0.126511 0.100252
0.627572 0.128420 0.102059
0.677101 0.130324 0.103863
0.726517 0.132224 0.105662
0.775830 0.134120 0.107457
0.825046 0.136012 0.109249
0.874171 0.137901 0.111038
0.076351 0.164278 0.088177
0.129225 0.166311 0.090102
0.181222 0.168310 0.091996
0.232677 0.170289 0.093869
0.283739 0.172252 0.095728
0.334492 0.174203 0.097576
0.384992 0.176145 0.099415
0.435277 0.178078 0.101246
0.485375 0.180005 0.103070
0.535307 0.181924 0.104888
0.585092 0.183839 0.106700
0.634743 0.185748 0.108508
0.684272 0.187652 0.110311
0.733689 0.189552 0.112110
0.783001 0.191448 0.113906
0.832217 0.193340 0.115698
0.881343 0.195229 0.117486
0.083443 0.220967 0.094554
0.136316 0.223000 0.096479
0.188313 0.225000 0.098373
0.239768 0.226978 0.100246
0.290830 0.228941 0.102105
0.341584 0.230893 0.103953
0.392084 0.232834 0.105792
0.442368 0.234768 0.107622
0.492466 0.236694 0.109446
0.542399 0.238614 0.111264
0.592183 0.240528 0.113077
0.641835 0.242437 0.114885
0.691363 0.244341 0.116688
0.740780 0.246241 0.118487
0.790093 0.248138 0.120283
0.839309 0.250030 0.122075
0.888434 0.251919 0.123863
0.090477 0.277203 0.100880
0.143351 0.279236 0.102805
0.195348 0.281235 0.104698
0.246803 0.283213 0.106572
0.297865 0.285177 0.108431
0.348618 0.287128 0.110279
0.399118 0.289070 0.112117
0.449403 0.291003 0.113948
0.499501 0.292929 0.115772
0.549433 0.294849 0.117590
0.599218 0.296763 0.119403
0.648869 0.298672 0.121211
0.698398 0.300577 0.123014
0.747815 0.302477 0.124813
0.797127 0.304373 0.126609
0.846343 0.306265 0.128400
0.895469 0.308154 0.130189
0.097468 0.333085 0.107166
0.150341 0.335118 0.109091
0.202338 0.337117 0.110984
0.253793 0.339096 0.112858
0.304855 0.341059 0.114717
0.355609 0.343011 0.116565
0.406109 0.344952 0.118403
0.456393 0.346886 0.120234
0.506491 0.348812 0.122058
0.556424 0.350732 0.123876
0.606209 0.352646 0.125689
0.655860 0.354555 0.127497
0.705388 0.356459 0.129300
0.754805 0.358359 0.131099
0.804118 0.360255 0.132895
0.853334 0.362148 0.134687
0.902459 0.364036 0.136475
0.104422 0.388680 0.113420
0.157296 0.390713 0.115345
0.209293 0.392712 0.117238
0.260748 0.394690 0.119111
0.311810 0.396654 0.120971
0.362563 0.398605 0.122818
0.413063 0.400547 0.124657
0.463348 0.402480 0.126488
0.513446 0.404406 0.128312
0.563378 0.406326 0.130130
0.613163 0.408240 0.131943
0.662814 0.410149 0.133750
0.712343 0.412054 0.135554
0.761760 0.413954 0.137353
0.811072 0.415850 0.139148
0.860288 0.417742 0.140940
0.909413 0.419631 0.142729
0.111346 0.444031 0.119646
0.164220 0.446064 0.121571
0.216217 0.448063 0.123464
0.267672 0.450042 0.125338
0.318734 0.452005 0.127197
0.369487 0.453956 0.129045
0.419987 0.455898 0.130883
0.470272 0.457831 0.132714
0.520370 0.459758 0.134538
0.570302 0.461677 0.136356
0.620087 0.463592 0.138169
0.669738 0.465501 0.139977
0.719267 0.467405 0.141780
0.768684 0.469305 0.143579
0.817907 0.471199 0.145460
0.867020 0.473089 0.147349
0.916043 0.474975 0.149236
0.118244 0.499172 0.125849
0.171117 0.501205 0.127774
0.223114 0.503204 0.129667
0.274569 0.505182 0.131540
0.325631 0.507146 0.133400
0.376385 0.509097 0.135247
0.426885 0.511039 0.137086
0.477170 0.512972 0.138917
0.527267 0.514898 0.140741
0.577200 0.516818 0.142559
0.626953 0.518732 0.144402
0.676500 0.520638 0.146308
0.725926 0.522540 0.148210
0.775239 0.524437 0.150108
0.824448 0.526331 0.152001
0.873561 0.528221 0.153891
0.922584 0.530107 0.155777
0.125118 0.554127 0.132031
0.177992 0.556160 0.133956
0.229989 0.558159 0.135849
0.281444 0.560138 0.137722
0.332506 0.562101 0.139581
0.383260 0.564052 0.141429
0.433759 0.565994 0.143268
0.483971 0.567926 0.145169
0.533964 0.569849 0.147092
0.583792 0.571767 0.149010
0.633473 0.573678 0.150921
0.683020 0.575585 0.152828
0.732445 0.577487 0.154730
0.781758 0.579384 0.156627
0.830968 0.581278 0.158521
0.880081 0.583168 0.160410
0.929104 0.585054 0.162297
0.131972 0.608917 0.138194
0.184845 0.610950 0.140119
0.236842 0.612949 0.142012
0.288294 0.614927 0.143889
0.339249 0.616888 0.145850
0.389897 0.618837 0.147798
0.440291 0.620776 0.149738
0.490471 0.622707 0.151668
0.540464 0.624630 0.153592
0.590292 0.626548 0.155509
0.639972 0.628459 0.157421
0.689520 0.630366 0.159328
0.738945 0.632268 0.161230
0.788258 0.634165 0.163127
0.837468 0.636059 0.165021
0.886581 0.637949 0.166910
0.935604 0.639835 0.168797
0.138777 0.663556 0.144368
0.191540 0.665586 0.146399
0.243428 0.667583 0.148395
0.294776 0.669559 0.150371
0.345731 0.671519 0.152332
0.396379 0.673468 0.154281
0.446773 0.675407 0.156220
0.496953 0.677338 0.158151
0.546946 0.679262 0.160074
0.596774 0.681179 0.161992
0.646455 0.683091 0.163903
0.696002 0.684997 0.165810
0.745427 0.686899 0.167712
0.794741 0.688797 0.169609
0.843950 0.690690 0.171503
0.893063 0.692580 0.173393
0.942086 0.694467 0.175279
0.145243 0.718051 0.150834
0.198006 0.720081 0.152865
0.249894 0.722078 0.154861
0.301242 0.724054 0.156837
0.352197 0.726015 0.158798
0.402845 0.727963 0.160747
0.453239 0.729903 0.162686
0.503419 0.731833 0.164617
0.553412 0.733757 0.166540
0.603240 0.735674 0.168458
0.652921 0.737586 0.170369
0.702468 0.739493 0.172276
0.751893 0.741394 0.174178
0.801207 0.743292 0.176075
0.850416 0.745186 0.177969
0.899529 0.747075 0.179858
0.948552 0.748962 0.181745
0.151694 0.772421 0.157285
0.204457 0.774451 0.159316
0.256346 0.776448 0.161312
0.307693 0.778424 0.163288
0.358648 0.780384 0.165249
0.409296 0.782333 0.167198
0.459690 0.784272 0.169137
0.509870 0.786203 0.171068
0.559863 0.788127 0.172991
0.609691 0.790044 0.174909
0.659372 0.791956 0.176820
0.708919 0.793862 0.178727
0.758344 0.795764 0.180629
0.807658 0.797662 0.182526
0.856867 0.799555 0.184420
0.905980 0.801445 0.186310
0.955003 0.803332 0.188196
0.158132 0.826675 0.163723
0.210895 0.828705 0.165753
0.262783 0.830702 0.167750
0.314131 0.832678 0.169726
0.365086 0.834638 0.171686
0.415733 0.836587 0.173635
0.466128 0.838526 0.175574
0.516307 0.840457 0.177505
0.566300 0.842381 0.179429
0.616128 0.844298 0.181346
0.665809 0.846210 0.183258
0.715356 0.848116 0.185164
0.764782 0.850018 0.187066
0.814095 0.851916 0.188964
0.863305 0.853809 0.190857
0.912417 0.855699 0.192747
0.961440 0.857586 0.194633
0.164556 0.880821 0.170147
0.217319 0.882852 0.172178
0.269207 0.884848 0.174174
0.320555 0.886824 0.176150
0.371510 0.888785 0.178111
0.422158 0.890734 0.180060
0.472552 0.892673 0.181999
0.522732 0.894604 0.183930
0.572725 0.896527 0.185853
0.622553 0.898445 0.187771
0.672234 0.900356 0.189682
0.721781 0.902263 0.191589
0.771206 0.904165 0.193491
0.820520 0.906062 0.195388
0.869729 0.907956 0.197282
0.918842 0.909845 0.199172
0.967865 0.911732 0.201058
0.170969 0.934867 0.176560
0.223732 0.936897 0.178590
0.275620 0.938894 0.180587
0.326968 0.940870 0.182563
0.377923 0.942830 0.184523
0.428571 0.944779 0.186472
0.478965 0.946718 0.188411
0.529144 0.948649 0.190342
0.579137 0.950573 0.192266
0.628966 0.952490 0.194183
0.678646 0.954402 0.196095
0.728194 0.956308 0.198001
0.777619 0.958210 0.199903
0.826932 0.960108 0.201801
0.876142 0.962001 0.203694
0.925255 0.963891 0.205584
0.974277 0.965777 0.207471
0.062616 0.049243 0.127628
0.115489 0.051276 0.129553
0.167486 0.053275 0.131446
0.218941 0.055254 0.133320
0.270003 0.057217 0.135179
0.320757 0.059168 0.137027
0.371257 0.061110 0.138865
0.421541 0.063043 0.140696
0.471639 0.064970 0.142520
0.521571 0.066889 0.144338
0.571356 0.068804 0.146151
0.621007 0.070713 0.147958
0.670536 0.072617 0.149762
0.719953 0.074517 0.151561
0.769265 0.076413 0.153356
0.818481 0.078305 0.155148
0.867607 0.080194 0.156937
0.069922 0.107655 0.134199
0.122796 0.109688 0.136124
0.174793 0.111687 0.138017
0.226248 0.113666 0.139890
0.277310 0.115629 0.141749
0.328064 0.117580 0.143597
0.378563 0.119522 0.145436
0.428848 0.121455 0.147267
0.478946 0.123382 0.149091
0.528878 0.125301 0.150909
0.578663 0.127216 0.152721
0.628314 0.129125 0.154529
0.677843 0.131029 0.156332
0.727260 0.132929 0.158132
0.776572 0.134825 0.159927
0.825788 0.136717 0.161719
0.874914 0.138606 0.163508
0.077094 0.164983 0.140647
0.129967 0.167016 0.142572
0.181964 0.169015 0.144465
0.233419 0.170993 0.146339
0.284481 0.172957 0.148198
0.335235 0.174908 0.150046
0.385735 0.176850 0.151885
0.436019 0.178783 0.153715
0.486117 0.180709 0.155539
0.536050 0.182629 0.157357
0.585834 0.184544 0.159170
0.635485 0.186453 0.160978
0.685014 0.188357 0.162781
0.734431 0.190257 0.164580
0.783744 0.192153 0.166376
0.832959 0.194045 0.168168
0.882085 0.195934 0.169956
0.084185 0.221672 0.147024
0.137058 0.223705 0.148949
0.189055 0.225705 0.150842
0.240511 0.227683 0.152716
0.291573 0.229646 0.154575
0.342326 0.231598 0.156423
0.392826 0.233539 0.158261
0.443111 0.235473 0.160092
0.493208 0.237399 0.161916
0.543141 0.239319 0.163734
0.592926 0.241233 0.165547
0.642577 0.243142 0.167355
0.692106 0.245046 0.169158
0.741522 0.246946 0.170957
0.790835 0.248842 0.172753
0.840051 0.250735 0.174544
0.889176 0.252624 0.176333
0.091220 0.277908 0.153350
0.144093 0.279941 0.155275
0.196090 0.281940 0.157168
0.247545 0.283918 0.159042
0.298607 0.285881 0.160901
0.349361 0.287833 0.162749
0.399861 0.289775 0.164587
0.450145 0.291708 0.166418
0.500243 0.293634 0.168242
0.550176 0.295554 0.170060
0.599960 0.297468 0.171873
0.649611 0.299377 0.173680
0.699140 0.301282 0.175484
0.748557 0.303182 0.177283
0.797870 0.305078 0.179078
0.847085 0.306970 0.180870
0.896211 0.308859 0.182659
0.098210 0.333790 0.159636
0.151083 0.335823 0.161561
0.203080 0.337822 0.163454
0.254536 0.339801 0.165328
0.305598 0.341764 0.167187
0.356351 0.343715 0.169035
0.406851 0.345657 0.170873
0.457136 0.347591 0.172704
0.507234 0.349517 0.174528
0.557166 0.351437 0.176346
0.606951 0.353351 0.178159
0.656602 0.355260 0.179966
0.706131 0.357164 0.181770
0.755547 0.359064 0.183569
0.804860 0.360960 0.185364
0.854076 0.362852 0.187156
0.903201 0.364741 0.188945
0.105165 0.389385 0.165890
0.158038 0.391418 0.167815
0.210035 0.393417 0.169708
0.261490 0.395395 0.171581
0.312552 0.397359 0.173440
0.363306 0.399310 0.175288
0.413806 0.401252 0.177127
0.464090 0.403185 0.178958
0.514188 0.405111 0.180782
0.564121 0.407031 0.182600
0.613905 0.408945 0.184412
0.663556 0.410854 0.186220
0.713085 0.412759 0.188023
0.762502 0.414659 0.189823
0.811814 0.416555 0.191618
0.861030 0.418447 0.193410
0.910156 0.420336 0.195199
0.112089 0.444736 0.172116
0.164962 0.446769 0.174041
0.216959 0.448768 0.175934
0.268414 0.450746 0.177808
0.319476 0.452710 0.179667
0.370230 0.454661 0.181515
0.420730 0.456603 0.183353
0.471014 0.458536 0.185184
0.521112 0.460462 0.187008
0.571045 0.462382 0.188826
0.620829 0.464297 0.190639
0.670480 0.466206 0.192446
0.720009 0.468110 0.194250
0.769401 0.470009 0.196072
0.818611 0.471903 0.197966
0.867724 0.473793 0.199856
0.916747 0.475679 0.201742
0.118986 0.499877 0.178319
0.171860 0.501910 0.180244
0.223857 0.503909 0.182137
0.275312 0.505887 0.184010
0.326374 0.507851 0.185869
0.377127 0.509802 0.187717
0.427627 0.511744 0.189556
0.477912 0.513677 0.191387
0.528010 0.515603 0.193211
0.577942 0.517523 0.195029
0.627657 0.519436 0.196908
0.677204 0.521342 0.198814
0.726630 0.523244 0.200716
0.775943 0.525141 0.202614
0.825152 0.527035 0.204507
0.874265 0.528925 0.206397
0.923288 0.530811 0.208284
0.125861 0.554832 0.184500
0.178734 0.556865 0.186425
0.230731 0.558864 0.188319
0.282186 0.560843 0.190192
0.333248 0.562806 0.192051
0.384002 0.564757 0.193899
0.434495 0.566699 0.195744
0.484675 0.568630 0.197675
0.534668 0.570553 0.199599
0.584496 0.572471 0.201516
0.634177 0.574382 0.203428
0.683724 0.576289 0.205334
0.733149 0.578191 0.207236
0.782463 0.580088 0.209133
0.831672 0.581982 0.211027
0.880785 0.583872 0.212917
0.929808 0.585758 0.214803
0.132715 0.609622 0.190663
0.185588 0.611655 0.192589
0.237585 0.613654 0.194482
0.288998 0.615631 0.196395
0.339953 0.617592 0.198356
0.390601 0.619541 0.200305
0.440995 0.621480 0.202244
0.491175 0.623411 0.204175
0.541168 0.625334 0.206098
0.590996 0.627252 0.208016
0.640677 0.629163 0.209927
0.690224 0.631070 0.211834
0.739649 0.632972 0.213736
0.788962 0.634869 0.215633
0.838172 0.636763 0.217527
0.887285 0.638653 0.219417
0.936308 0.640539 0.221303
0.139481 0.664260 0.196875
0.192244 0.666290 0.198905
0.244132 0.668287 0.200902
0.295480 0.670263 0.202877
0.346435 0.672223 0.204838
0.397083 0.674172 0.206787
0.447477 0.676111 0.208726
0.497657 0.678042 0.210657
0.547650 0.679966 0.212581
0.597478 0.681883 0.214498
0.647159 0.683795 0.216410
0.696706 0.685702 0.218316
0.746131 0.687603 0.220218
0.795445 0.689501 0.222115
0.844654 0.691394 0.224009
0.893767 0.693284 0.225899
0.942790 0.695171 0.227785
0.145947 0.718755 0.203341
0.198710 0.720785 0.205371
0.250598 0.722782 0.207368
0.301946 0.724758 0.209343
0.352901 0.726719 0.211304
0.403549 0.728667 0.213253
0.453943 0.730607 0.215192
0.504123 0.732537 0.217123
0.554116 0.734461 0.219047
0.603944 0.736378 0.220964
0.653625 0.738290 0.222876
0.703172 0.740197 0.224782
0.752597 0.742098 0.226684
0.801911 0.743996 0.228581
0.851120 0.745890 0.230475
0.900233 0.747779 0.232365
0.949256 0.749666 0.234251
0.152399 0.773125 0.209792
0.205161 0.775155 0.211822
0.257050 0.777152 0.213819
0.308397 0.779128 0.215794
0.359353 0.781088 0.217755
0.410000 0.783037 0.219704
0.460394 0.784976 0.221643
0.510574 0.786907 0.223574
0.560567 0.788831 0.225498
0.610395 0.790748 0.227415
0.660076 0.792660 0.229327
0.709623 0.794566 0.231233
0.759048 0.796468 0.233135
0.808362 0.798366 0.235033
0.857571 0.800259 0.236926
0.906684 0.802149 0.238816
0.955707 0.804036 0.240702
0.158836 0.827379 0.216229
0.211599 0.829409 0.218259
0.263487 0.831406 0.220256
0.314835 0.833382 0.222232
0.365790 0.835342 0.224192
0.416437 0.837291 0.226141
0.466832 0.839230 0.228080
0.517011 0.841161 0.230011
0.567004 0.843085 0.231935
0.616832 0.845002 0.233852
0.666513 0.846914 0.235764
0.716060 0.848820 0.237671
0.765486 0.850722 0.239572
0.814799 0.852620 0.241470
0.864009 0.854513 0.243363
0.913122 0.856403 0.245253
0.962144 0.858290 0.247140
0.165260 0.881525 0.222654
0.218023 0.883556 0.224684
0.269911 0.885552 0.226681
0.321259 0.887528 0.228656
0.372214 0.889489 0.230617
0.422862 0.891438 0.232566
0.473256 0.893377 0.234505
0.523436 0.895308 0.236436
0.573429 0.897231 0.238360
0.623257 0.899149 0.240277
0.672938 0.901060 0.242189
0.722485 0.902967 0.244095
0.771910 0.904869 0.245997
0.821224 0.906766 0.247894
0.870433 0.908660 0.249788
0.919546 0.910549 0.251678
0.968569 0.912436 0.253564
0.171673 0.935571 0.229066
0.224436 0.937601 0.231097
0.276324 0.939598 0.233093
0.327672 0.941574 0.235069
0.378627 0.943534 0.237030
0.429275 0.945483 0.238979
0.479669 0.947422 0.240918
0.529848 0.949353 0.242849
0.579841 0.951277 0.244772
0.629670 0.953194 0.246690
0.679350 0.955106 0.248601
0.728898 0.957012 0.250508
0.778323 0.958914 0.252410
0.827636 0.960812 0.254307
0.876846 0.962705 0.256201
0.925959 0.964595 0.258090
0.974981 0.966481 0.259977
0.063348 0.049939 0.179423
0.116222 0.051972 0.181348
0.168219 0.053971 0.183241
0.219674 0.055949 0.185115
0.270736 0.057913 0.186974
0.321489 0.059864 0.188822
0.371989 0.061806 0.190660
0.422274 0.063739 0.192491
0.472372 0.065665 0.194315
