assets/luts/generated_genre/bs_commercial_sundance_indie_e88b6f386aac2e23.cube
# V4 spec-generated LUT — bs_commercial_sundance_indie
# Genre: commercial
# Look: Authentic indie commercial — lo-fi-luxe, lifted blacks, warm. Bradford Young early, Khalik Allah.
# Spec hash: e88b6f386aac2e23
TITLE "V4 Spec LUT — bs_commercial_sundance_indie"
LUT_3D_SIZE 9
DOMAIN_MIN 0.0 0.0 0.0
DOMAIN_MAX 1.0 1.0 1.0
0.061112 0.047815 0.021371
0.165982 0.051848 0.025190
0.268500 0.055789 0.028922
0.369753 0.059682 0.032609
0.470136 0.063542 0.036264
0.569853 0.067376 0.039894
0.669033 0.071189 0.043505
0.767762 0.074985 0.047100
0.866103 0.078767 0.050680
0.075590 0.163555 0.034391
0.180461 0.167587 0.038209
0.282978 0.171529 0.041941
0.384231 0.175422 0.045628
0.484614 0.179282 0.049283
0.584331 0.183116 0.052913
0.683511 0.186929 0.056524
0.782240 0.190725 0.060119
0.880582 0.194506 0.063700
0.089716 0.276480 0.047093
0.194587 0.280512 0.050911
0.297104 0.284454 0.054644
0.398357 0.288347 0.058331
0.498740 0.292207 0.061985
0.598457 0.296041 0.065616
0.697637 0.299854 0.069227
0.796366 0.303650 0.072822
0.894708 0.307431 0.076402
0.103661 0.387957 0.059633
0.208532 0.391989 0.063451
0.311049 0.395931 0.067184
0.412302 0.399824 0.070870
0.512685 0.403684 0.074525
0.612402 0.407518 0.078156
0.711582 0.411331 0.081767
0.810311 0.415127 0.085362
0.908652 0.418908 0.088942
0.117483 0.498449 0.072062
0.222353 0.502481 0.075880
0.324870 0.506423 0.079613
0.426124 0.510316 0.083299
0.526506 0.514176 0.086954
0.626224 0.518010 0.090585
0.725204 0.521818 0.094386
0.823727 0.525609 0.098177
0.921862 0.529385 0.101953
0.131211 0.608194 0.084407
0.236081 0.612226 0.088225
0.338528 0.616166 0.092025
0.439569 0.620054 0.095913
0.539742 0.623909 0.099768
0.639251 0.627738 0.103597
0.738223 0.631546 0.107405
0.836746 0.635337 0.111196
0.934882 0.639113 0.114973
0.144522 0.717330 0.097010
0.249173 0.721356 0.101037
0.351476 0.725293 0.104974
0.452518 0.729181 0.108862
0.552690 0.733035 0.112716
0.652199 0.736864 0.116545
0.751172 0.740673 0.120353
0.849694 0.744464 0.124144
0.947830 0.748240 0.127921
0.157410 0.825953 0.109899
0.262061 0.829980 0.113926
0.364364 0.833917 0.117862
0.465406 0.837805 0.121750
0.565578 0.841659 0.125605
0.665087 0.845488 0.129434
0.764060 0.849297 0.133242
0.862583 0.853088 0.137033
0.960719 0.856864 0.140809
0.170247 0.934145 0.122736
0.274898 0.938172 0.126763
0.377201 0.942109 0.130699
0.478243 0.945997 0.134587
0.578416 0.949851 0.138442
0.677925 0.953680 0.142271
0.776897 0.957489 0.146079
0.875420 0.961280 0.149870
0.973556 0.965056 0.153646
0.062616 0.049243 0.127628
0.167486 0.053275 0.131446
0.270003 0.057217 0.135179
0.371257 0.061110 0.138865
0.471639 0.064970 0.142520
0.571356 0.068804 0.146151
0.670536 0.072617 0.149762
0.769265 0.076413 0.153356
0.867607 0.080194 0.156937
0.077094 0.164983 0.140647
0.181964 0.169015 0.144465
0.284481 0.172957 0.148198
0.385735 0.176850 0.151885
0.486117 0.180709 0.155539
0.585834 0.184544 0.159170
0.685014 0.188357 0.162781
0.783744 0.192153 0.166376
0.882085 0.195934 0.169956
0.091220 0.277908 0.153350
0.196090 0.281940 0.157168
0.298607 0.285881 0.160901
0.399861 0.289775 0.164587
0.500243 0.293634 0.168242
0.599960 0.297468 0.171873
0.699140 0.301282 0.175484
0.797870 0.305078 0.179078
0.896211 0.308859 0.182659
0.105165 0.389385 0.165890
0.210035 0.393417 0.169708
0.312552 0.397359 0.173440
0.413806 0.401252 0.177127
0.514188 0.405111 0.180782
0.613905 0.408945 0.184412
0.713085 0.412759 0.188023
0.811814 0.416555 0.191618
0.910156 0.420336 0.195199
0.118986 0.499877 0.178319
0.223857 0.503909 0.182137
0.326374 0.507851 0.185869
0.427627 0.511744 0.189556
0.528010 0.515603 0.193211
0.627657 0.519436 0.196908
0.726630 0.523244 0.200716
0.825152 0.527035 0.204507
0.923288 0.530811 0.208284
0.132715 0.609622 0.190663
0.237585 0.613654 0.194482
0.339953 0.617592 0.198356
0.440995 0.621480 0.202244
0.541168 0.625334 0.206098
0.640677 0.629163 0.209927
0.739649 0.632972 0.213736
0.838172 0.636763 0.217527
0.936308 0.640539 0.221303
0.145947 0.718755 0.203341
0.250598 0.722782 0.207368
0.352901 0.726719 0.211304
0.453943 0.730607 0.215192
0.554116 0.734461 0.219047
0.653625 0.738290 0.222876
0.752597 0.742098 0.226684
0.851120 0.745890 0.230475
0.949256 0.749666 0.234251
0.158836 0.827379 0.216229
0.263487 0.831406 0.220256
0.365790 0.835342 0.224192
0.466832 0.839230 0.228080
0.567004 0.843085 0.231935
0.666513 0.846914 0.235764
0.765486 0.850722 0.239572
0.864009 0.854513 0.243363
0.962144 0.858290 0.247140
0.171673 0.935571 0.229066
0.276324 0.939598 0.233093
0.378627 0.943534 0.237030
0.479669 0.947422 0.240918
0.579841 0.951277 0.244772
0.679350 0.955106 0.248601
0.778323 0.958914 0.252410
0.876846 0.962705 0.256201
0.974981 0.966481 0.259977
0.064075 0.050629 0.230759
0.168945 0.054661 0.234578
0.271462 0.058602 0.238310
0.372716 0.062496 0.241997
0.473098 0.066355 0.245652
0.572815 0.070189 0.249282
0.671995 0.074003 0.252893
0.770725 0.077799 0.256488
0.869066 0.081580 0.260068
0.078553 0.166369 0.243779
0.183423 0.170401 0.247597
0.285940 0.174342 0.251330
0.387194 0.178235 0.255016
0.487576 0.182095 0.258671
0.587294 0.185929 0.262302
0.686473 0.189742 0.265913
0.785203 0.193539 0.269507
0.883544 0.197320 0.273088
0.092679 0.279293 0.256481
0.197549 0.283325 0.260300
0.300066 0.287267 0.264032
0.401320 0.291160 0.267719
0.501702 0.295020 0.271373
0.601420 0.298854 0.275004
0.700599 0.302667 0.278615
0.799329 0.306463 0.282210
0.897670 0.310244 0.285790
0.106624 0.390770 0.269021
0.211494 0.394802 0.272839
0.314011 0.398744 0.276572
0.415265 0.402637 0.280258
0.515647 0.406497 0.283913
0.615364 0.410331 0.287544
0.714544 0.414144 0.291155
0.813274 0.417940 0.294750
0.911564 0.421720 0.298379
0.120445 0.501262 0.281450
0.225316 0.505294 0.285268
0.327833 0.509236 0.289001
0.429086 0.513129 0.292687
0.529469 0.516989 0.296342
0.629041 0.520819 0.300111
0.728013 0.524628 0.303919
0.826536 0.528419 0.307711
0.924672 0.532195 0.311487
0.134174 0.611007 0.293795
0.239034 0.615039 0.297623
0.341337 0.618976 0.301559
0.442379 0.622864 0.305447
0.542551 0.626718 0.309302
0.642060 0.630547 0.313131
0.741033 0.634356 0.316939
0.839556 0.638147 0.320730
0.937691 0.641923 0.324506
0.147331 0.720139 0.306544
0.251982 0.724166 0.310571
0.354285 0.728102 0.314507
0.455327 0.731990 0.318395
0.555500 0.735845 0.322250
0.655008 0.739674 0.326079
0.753981 0.743482 0.329887
0.852504 0.747273 0.333678
0.950640 0.751049 0.337454
0.160220 0.828763 0.319432
0.264871 0.832790 0.323459
0.367174 0.836726 0.327396
0.468215 0.840614 0.331284
0.568388 0.844469 0.335138
0.667897 0.848298 0.338967
0.766869 0.852106 0.342776
0.865392 0.855897 0.346567
0.963528 0.859673 0.350343
0.173057 0.936955 0.332270
0.277708 0.940982 0.336296
0.380011 0.944918 0.340233
0.481053 0.948806 0.344121
0.581225 0.952661 0.347975
0.680734 0.956490 0.351804
0.779707 0.960298 0.355613
0.878230 0.964089 0.359404
0.976365 0.967865 0.363180
0.065513 0.051995 0.332457
0.170384 0.056027 0.336276
0.272901 0.059969 0.340008
0.374155 0.063862 0.343695
0.474537 0.067722 0.347349
0.574254 0.071556 0.350980
0.673434 0.075369 0.354591
0.772163 0.079165 0.358186
0.870505 0.082946 0.361766
0.079992 0.167735 0.345477
0.184862 0.171767 0.349295
0.287379 0.175709 0.353027
0.388633 0.179602 0.356714
0.489015 0.183461 0.360369
0.588732 0.187295 0.363999
0.687912 0.191109 0.367610
0.786642 0.194905 0.371205
0.884983 0.198686 0.374786
0.094118 0.280660 0.358179
0.198988 0.284692 0.361997
0.301505 0.288633 0.365730
0.402759 0.292527 0.369417
0.503141 0.296386 0.373071
0.602858 0.300220 0.376702
0.702038 0.304034 0.380313
0.800768 0.307830 0.383908
0.899109 0.311611 0.387488
0.108063 0.392137 0.370719
0.212933 0.396169 0.374537
0.315450 0.400110 0.378270
0.416704 0.404004 0.381956
0.517086 0.407863 0.385611
0.616803 0.411697 0.389242
0.715983 0.415511 0.392853
0.814712 0.419307 0.396447
0.912928 0.423085 0.400147
0.121884 0.502629 0.383148
0.226755 0.506661 0.386966
0.329272 0.510602 0.390699
0.430525 0.514496 0.394385
0.530896 0.518355 0.398051
0.630405 0.522184 0.401880
0.729378 0.525992 0.405688
0.827901 0.529783 0.409479
0.926037 0.533559 0.413255
0.135613 0.612374 0.395493
0.240399 0.616404 0.399391
0.342702 0.620340 0.403328
0.443743 0.624228 0.407216
0.543916 0.628083 0.411070
0.643425 0.631912 0.414899
0.742397 0.635720 0.418708
0.840920 0.639511 0.422499
0.939056 0.643287 0.426275
0.148696 0.721504 0.408312
0.253347 0.725530 0.412339
0.355650 0.729467 0.416276
0.456692 0.733355 0.420164
0.556864 0.737209 0.424018
0.656373 0.741038 0.427847
0.755346 0.744847 0.431656
0.853868 0.748638 0.435447
0.952004 0.752414 0.439223
0.161584 0.830127 0.421201
0.266235 0.834154 0.425228
0.368538 0.838091 0.429164
0.469580 0.841979 0.433052
0.569753 0.845833 0.436907
0.669261 0.849662 0.440736
0.768234 0.853471 0.444544
0.866757 0.857262 0.448335
0.964893 0.861038 0.452111
0.174421 0.938319 0.434038
0.279072 0.942346 0.438065
0.381375 0.946283 0.442001
0.482417 0.950171 0.445889
0.582590 0.954025 0.449744
0.682099 0.957854 0.453573
0.781071 0.961663 0.457381
0.879594 0.965454 0.461172
0.977730 0.969230 0.464949
0.066939 0.053349 0.433207
0.171809 0.057381 0.437025
0.274326 0.061322 0.440758
0.375580 0.065216 0.444444
0.475962 0.069075 0.448099
0.575680 0.072909 0.451730
0.674860 0.076723 0.455341
0.773589 0.080519 0.458935
0.871930 0.084300 0.462516
0.081417 0.169088 0.446226
0.186287 0.173121 0.450044
0.288805 0.177062 0.453777
0.390058 0.180955 0.457463
0.490440 0.184815 0.461118
0.590158 0.188649 0.464749
0.689338 0.192462 0.468360
0.788067 0.196258 0.471955
0.886408 0.200040 0.475535
0.095543 0.282013 0.458929
0.200413 0.286045 0.462747
0.302931 0.289987 0.466479
0.404184 0.293880 0.470166
0.504566 0.297740 0.473821
0.604284 0.301574 0.477451
0.703464 0.305387 0.481062
0.802193 0.309183 0.484657
0.900534 0.312964 0.488238
0.109488 0.393490 0.471468
0.214358 0.397522 0.475287
0.316876 0.401464 0.479019
0.418129 0.405357 0.482706
0.518511 0.409217 0.486361
0.618229 0.413051 0.489991
0.717409 0.416864 0.493602
0.816138 0.420660 0.497197
0.914280 0.424437 0.500967
0.123310 0.503982 0.483897
0.228180 0.508014 0.487716
0.330697 0.511956 0.491448
0.431951 0.515849 0.495135
0.532248 0.519707 0.498870
0.631757 0.523536 0.502699
0.730730 0.527344 0.506508
0.829253 0.531135 0.510299
0.927388 0.534911 0.514075
0.137038 0.613727 0.496242
0.241750 0.617756 0.500211
0.344053 0.621692 0.504147
0.445095 0.625580 0.508035
0.545268 0.629435 0.511890
0.644777 0.633264 0.515719
0.743749 0.637072 0.519527
0.842272 0.640863 0.523318
0.940408 0.644639 0.527094
0.150048 0.722855 0.509132
0.254699 0.726882 0.513159
0.357002 0.730819 0.517095
0.458043 0.734707 0.520983
0.558216 0.738561 0.524838
0.657725 0.742390 0.528667
0.756697 0.746199 0.532475
0.855220 0.749990 0.536266
0.953356 0.753766 0.540042
0.162936 0.831479 0.522020
0.267587 0.835506 0.526047
0.369890 0.839443 0.529984
0.470932 0.843331 0.533872
0.571104 0.847185 0.537726
0.670613 0.851014 0.541555
0.769586 0.854822 0.545364
0.868109 0.858614 0.549155
0.966244 0.862390 0.552931
0.175773 0.939671 0.534858
0.280424 0.943698 0.538884
0.382727 0.947635 0.542821
0.483769 0.951523 0.546709
0.583942 0.955377 0.550563
0.683450 0.959206 0.554392
0.782423 0.963014 0.558201
0.880946 0.966805 0.561992
0.979082 0.970582 0.565768
0.068354 0.054693 0.533247
0.173225 0.058725 0.537065
0.275742 0.062667 0.540798
0.376995 0.066560 0.544484
0.477378 0.070419 0.548139
0.577095 0.074253 0.551770
0.676275 0.078067 0.555381
0.775004 0.081863 0.558975
0.873345 0.085644 0.562556
0.082832 0.170433 0.546266
0.187703 0.174465 0.550084
0.290220 0.178406 0.553817
0.391473 0.182300 0.557503
0.491856 0.186159 0.561158
0.591573 0.189993 0.564789
0.690753 0.193807 0.568400
0.789482 0.197603 0.571995
0.887824 0.201384 0.575575
0.096958 0.283357 0.558969
0.201829 0.287389 0.562787
0.304346 0.291331 0.566519
0.405599 0.295224 0.570206
0.505982 0.299084 0.573861
0.605699 0.302918 0.577491
0.704879 0.306731 0.581103
0.803608 0.310527 0.584697
0.901950 0.314308 0.588278
0.110903 0.394834 0.571508
0.215774 0.398866 0.575327
0.318291 0.402808 0.579059
0.419544 0.406701 0.582746
0.519927 0.410561 0.586401
0.619644 0.414395 0.590031
0.718824 0.418208 0.593642
0.817487 0.422003 0.597300
0.915623 0.425779 0.601076
0.124725 0.505326 0.583937
0.229595 0.509358 0.587756
0.332113 0.513300 0.591488
0.433366 0.517193 0.595175
0.533591 0.521049 0.598980
0.633100 0.524878 0.602809
0.732072 0.528686 0.606617
0.830595 0.532477 0.610408
0.928731 0.536254 0.614184
0.138442 0.615071 0.596293
0.243093 0.619098 0.600320
0.345396 0.623034 0.604257
0.446438 0.626922 0.608145
0.546610 0.630777 0.611999
0.646119 0.634606 0.615828
0.745092 0.638414 0.619637
0.843614 0.642205 0.623428
0.941750 0.645981 0.627204
0.151390 0.724198 0.609241
0.256041 0.728225 0.613268
0.358344 0.732161 0.617205
0.459386 0.736049 0.621093
0.559558 0.739904 0.624947
0.659067 0.743733 0.628776
0.758040 0.747541 0.632585
0.856563 0.751332 0.636376
0.954698 0.755108 0.640152
0.164278 0.832822 0.622130
0.268929 0.836848 0.626157
0.371232 0.840785 0.630093
0.472274 0.844673 0.633981
0.572447 0.848527 0.637836
0.671956 0.852356 0.641665
0.770928 0.856165 0.645473
0.869451 0.859956 0.649264
0.967587 0.863732 0.653040
0.177116 0.941013 0.634967
0.281767 0.945040 0.638994
0.384070 0.948977 0.642931
0.485111 0.952865 0.646819
0.585284 0.956719 0.650673
0.684793 0.960548 0.654502
0.783765 0.964357 0.658310
0.882288 0.968148 0.662101
0.980424 0.971924 0.665878
0.069762 0.056029 0.632720
0.174632 0.060061 0.636539
0.277149 0.064003 0.640271
0.378403 0.067896 0.643958
0.478785 0.071756 0.647613
0.578502 0.075590 0.651243
0.677682 0.079403 0.654854
0.776412 0.083199 0.658449
0.874753 0.086980 0.662030
0.084240 0.171769 0.645740
0.189110 0.175801 0.649558
0.291627 0.179743 0.653291
0.392881 0.183636 0.656977
0.493263 0.187496 0.660632
0.592981 0.191330 0.664263
0.692160 0.195143 0.667874
0.790890 0.198939 0.671468
0.889231 0.202720 0.675049
0.098366 0.284694 0.658442
0.203236 0.288726 0.662261
0.305753 0.292668 0.665993
0.407007 0.296561 0.669680
0.507389 0.300420 0.673335
0.607107 0.304254 0.676965
0.706286 0.308068 0.680576
0.805016 0.311864 0.684171
0.903357 0.315645 0.687751
0.112311 0.396171 0.670982
0.217181 0.400203 0.674800
0.319698 0.404145 0.678533
0.420952 0.408038 0.682220
0.521334 0.411897 0.685874
0.621051 0.415731 0.689505
0.720231 0.419545 0.693116
0.818822 0.423337 0.696843
0.916957 0.427114 0.700619
0.126132 0.506663 0.683411
0.231003 0.510695 0.687229
0.333520 0.514637 0.690962
0.434753 0.518529 0.694668
0.534925 0.522384 0.698523
0.634434 0.526213 0.702352
0.733407 0.530021 0.706160
0.831930 0.533812 0.709951
0.930065 0.537588 0.713727
0.139776 0.616406 0.695836
0.244427 0.620433 0.699863
0.346730 0.624369 0.703800
0.447772 0.628257 0.707688
0.547945 0.632112 0.711542
0.647454 0.635941 0.715371
0.746426 0.639749 0.719179
0.844949 0.643540 0.722971
0.943085 0.647316 0.726747
0.152725 0.725532 0.708784
0.257376 0.729559 0.712811
0.359679 0.733496 0.716748
0.460720 0.737384 0.720636
0.560893 0.741238 0.724490
0.660402 0.745067 0.728319
0.759374 0.748876 0.732128
0.857897 0.752667 0.735919
0.956033 0.756443 0.739695
0.165613 0.834156 0.721673
0.270264 0.838183 0.725700
0.372567 0.842120 0.729636
0.473609 0.846008 0.733524
0.573781 0.849862 0.737379
0.673290 0.853691 0.741208
0.772263 0.857499 0.745016
0.870786 0.861291 0.748807
0.968921 0.865067 0.752583
0.178450 0.942348 0.734510
0.283101 0.946375 0.738537
0.385404 0.950312 0.742473
0.486446 0.954200 0.746361
0.586619 0.958054 0.750216
0.686127 0.961883 0.754045
0.785100 0.965691 0.757853
0.883623 0.969482 0.761644
0.981759 0.973259 0.765420
0.071162 0.057359 0.731723
0.176033 0.061391 0.735541
0.278550 0.065333 0.739274
0.379803 0.069226 0.742960
0.480186 0.073086 0.746615
0.579903 0.076920 0.750246
0.679083 0.080733 0.753857
0.777812 0.084529 0.757452
0.876154 0.088310 0.761032
0.085641 0.173099 0.744742
0.190511 0.177131 0.748561
0.293028 0.181073 0.752293
0.394282 0.184966 0.755980
0.494664 0.188826 0.759635
0.594381 0.192660 0.763265
0.693561 0.196473 0.766876
0.792290 0.200269 0.770471
0.890632 0.204050 0.774051
0.099767 0.286024 0.757445
0.204637 0.290056 0.761263
0.307154 0.293998 0.764996
0.408408 0.297891 0.768682
0.508790 0.301750 0.772337
0.608507 0.305584 0.775968
0.707687 0.309398 0.779579
0.806416 0.313194 0.783174
0.904758 0.316975 0.786754
0.113711 0.397501 0.769985
0.218582 0.401533 0.773803
0.321099 0.405475 0.777536
0.422352 0.409368 0.781222
0.522735 0.413227 0.784877
0.622452 0.417062 0.788508
0.721627 0.420875 0.792123
0.820150 0.424666 0.795914
0.918286 0.428442 0.799691
0.127533 0.507993 0.782414
0.232403 0.512025 0.786232
0.334921 0.515967 0.789965
0.436081 0.519858 0.793740
0.536254 0.523712 0.797594
0.635763 0.527541 0.801423
0.734735 0.531349 0.805231
0.833258 0.535141 0.809022
0.931394 0.538917 0.812799
0.141105 0.617734 0.794908
0.245756 0.621761 0.798935
0.348059 0.625697 0.802871
0.449101 0.629585 0.806759
0.549273 0.633440 0.810614
0.648782 0.637269 0.814443
0.747755 0.641077 0.818251
0.846278 0.644868 0.822042
0.944413 0.648645 0.825818
0.154053 0.726861 0.807856
0.258704 0.730888 0.811883
0.361007 0.734824 0.815819
0.462049 0.738712 0.819707
0.562221 0.742567 0.823562
0.661730 0.746396 0.827391
0.760703 0.750204 0.831199
0.859226 0.753995 0.834990
0.957361 0.757771 0.838766
0.166941 0.835485 0.820744
0.271592 0.839512 0.824771
0.373895 0.843448 0.828708
0.474937 0.847336 0.832596
0.575110 0.851191 0.836450
0.674619 0.855020 0.840279
0.773591 0.858828 0.844087
0.872114 0.862619 0.847879
0.970250 0.866395 0.851655
0.179779 0.943677 0.833581
0.284430 0.947703 0.837608
0.386733 0.951640 0.841545
0.487774 0.955528 0.845433
0.587947 0.959382 0.849287
0.687456 0.963211 0.853116
0.786428 0.967020 0.856925
0.884951 0.970811 0.860716
0.983087 0.974587 0.864492
0.072557 0.058684 0.830323
0.177428 0.062716 0.834141
0.279945 0.066658 0.837873
0.381198 0.070551 0.841560
0.481581 0.074411 0.845215
0.581298 0.078245 0.848845
0.680478 0.082058 0.852457
0.779207 0.085854 0.856051
0.877549 0.089635 0.859632
0.087036 0.174424 0.843342
0.191906 0.178456 0.847160
0.294423 0.182398 0.850893
0.395677 0.186291 0.854579
0.496059 0.190150 0.858234
0.595776 0.193984 0.861865
0.694956 0.197798 0.865476
0.793685 0.201594 0.869070
0.892027 0.205375 0.872651
0.101162 0.287349 0.856045
0.206032 0.291381 0.859863
0.308549 0.295322 0.863595
0.409803 0.299216 0.867282
0.510185 0.303075 0.870937
0.609902 0.306909 0.874567
0.709082 0.310723 0.878178
0.807811 0.314519 0.881773
0.906153 0.318300 0.885354
0.115106 0.398826 0.868584
0.219977 0.402858 0.872403
0.322494 0.406799 0.876135
0.423747 0.410693 0.879822
0.524130 0.414552 0.883477
0.623847 0.418386 0.887107
0.722950 0.422198 0.890791
0.821473 0.425989 0.894583
0.919609 0.429765 0.898359
0.128928 0.509318 0.881013
0.233798 0.513350 0.884832
0.336316 0.517291 0.888564
0.437404 0.521181 0.892408
0.537577 0.525035 0.896262
0.637086 0.528864 0.900091
0.736058 0.532672 0.903900
0.834581 0.536464 0.907691
0.932717 0.540240 0.911467
0.142428 0.619057 0.893576
0.247079 0.623084 0.897603
0.349382 0.627020 0.901539
0.450424 0.630908 0.905427
0.550596 0.634763 0.909282
0.650105 0.638592 0.913111
0.749078 0.642400 0.916919
0.847600 0.646191 0.920710
0.945736 0.649968 0.924486
0.155376 0.728184 0.906524
0.260027 0.732211 0.910551
0.362330 0.736147 0.914487
0.463372 0.740035 0.918375
0.563544 0.743890 0.922230
0.663053 0.747719 0.926059
0.762026 0.751527 0.929867
0.860549 0.755318 0.933658
0.958684 0.759094 0.937434
0.168264 0.836808 0.919412
0.272915 0.840834 0.923439
0.375218 0.844771 0.927376
0.476260 0.848659 0.931264
0.576433 0.852514 0.935118
0.675942 0.856343 0.938947
0.774914 0.860151 0.942756
0.873437 0.863942 0.946547
0.971573 0.867718 0.950323
0.181102 0.945000 0.932250
0.285753 0.949026 0.936276
0.388056 0.952963 0.940213
0.489097 0.956851 0.944101
0.589270 0.960705 0.947955
0.688779 0.964534 0.951784
0.787751 0.968343 0.955593
0.886274 0.972134 0.959384
0.984410 0.975910 0.963160
