assets/luts/generated_genre/bs_commercial_neon_dream_2722f571bff83e25.cube
# V4 spec-generated LUT — bs_commercial_neon_dream
# Genre: commercial
# Look: Maximalist neon-dream commercial — anthemic, hyper-stylized magenta-cyan. Nike Dream Crazy, Honda Ha
# Spec hash: 2722f571bff83e25
TITLE "V4 Spec LUT — bs_commercial_neon_dream"
LUT_3D_SIZE 17
DOMAIN_MIN 0.0 0.0 0.0
DOMAIN_MAX 1.0 1.0 1.0
0.000000 0.005775 0.029775
0.003916 0.004527 0.028950
0.081177 0.001101 0.026685
0.160380 0.000000 0.024364
0.240648 0.000000 0.022011
0.321664 0.000000 0.019636
0.403259 0.000000 0.017244
0.485327 0.000000 0.014839
0.567795 0.000000 0.012421
0.650609 0.000000 0.009994
0.733731 0.000000 0.007557
0.817128 0.000000 0.005113
0.900773 0.000000 0.002661
0.984647 0.000000 0.000203
1.000000 0.000000 0.000000
1.000000 0.000000 0.000000
1.000000 0.000000 0.000000
0.000000 0.029999 0.027000
0.002970 0.028751 0.026175
0.080232 0.025325 0.023910
0.159434 0.021813 0.021589
0.239703 0.018253 0.019236
0.320719 0.014661 0.016861
0.402314 0.011043 0.014469
0.484381 0.007404 0.012064
0.566849 0.003747 0.009647
0.649664 0.000075 0.007219
0.732786 0.000000 0.004783
0.816182 0.000000 0.002338
0.899828 0.000000 0.000000
0.983701 0.000000 0.000000
1.000000 0.000000 0.000000
1.000000 0.000000 0.000000
1.000000 0.000000 0.000000
0.000000 0.096507 0.019381
0.000374 0.095259 0.018556
0.077636 0.091833 0.016292
0.156838 0.088321 0.013970
0.237107 0.084761 0.011617
0.318123 0.081169 0.009243
0.399718 0.077551 0.006851
0.481786 0.073912 0.004445
0.564253 0.070255 0.002028
0.647068 0.066583 0.000000
0.730190 0.062897 0.000000
0.813586 0.059199 0.000000
0.897232 0.055490 0.000000
0.981105 0.051770 0.000000
1.000000 0.048042 0.000000
1.000000 0.044305 0.000000
1.000000 0.040560 0.000000
0.000000 0.164685 0.011571
0.000000 0.163437 0.010746
0.074975 0.160011 0.008482
0.154177 0.156499 0.006160
0.234446 0.152940 0.003807
0.315462 0.149347 0.001433
0.397057 0.145729 0.000000
0.479125 0.142090 0.000000
0.561592 0.138433 0.000000
0.644407 0.134761 0.000000
0.727529 0.131075 0.000000
0.810925 0.127377 0.000000
0.894571 0.123668 0.000000
0.978444 0.119949 0.000000
1.000000 0.116220 0.000000
1.000000 0.112483 0.000000
1.000000 0.108738 0.000000
0.000000 0.233782 0.003656
0.000000 0.232534 0.002831
0.072278 0.229108 0.000567
0.151481 0.225596 0.000000
0.231749 0.222036 0.000000
0.312765 0.218444 0.000000
0.394360 0.214826 0.000000
0.476428 0.211187 0.000000
0.558895 0.207530 0.000000
0.641710 0.203857 0.000000
0.724832 0.200172 0.000000
0.808228 0.196474 0.000000
0.891874 0.192764 0.000000
0.975748 0.189045 0.000000
1.000000 0.185317 0.000000
1.000000 0.181580 0.000000
1.000000 0.177834 0.000000
0.000000 0.303522 0.000000
0.000000 0.302274 0.000000
0.069556 0.298848 0.000000
0.148759 0.295336 0.000000
0.229027 0.291776 0.000000
0.310043 0.288184 0.000000
0.391638 0.284566 0.000000
0.473706 0.280927 0.000000
0.556174 0.277270 0.000000
0.638988 0.273598 0.000000
0.722110 0.269912 0.000000
0.805507 0.266214 0.000000
0.889152 0.262505 0.000000
0.973026 0.258785 0.000000
1.000000 0.255057 0.000000
1.000000 0.251320 0.000000
1.000000 0.247575 0.000000
0.000000 0.373760 0.000000
0.000000 0.372512 0.000000
0.066815 0.369086 0.000000
0.146017 0.365574 0.000000
0.226286 0.362014 0.000000
0.307302 0.358422 0.000000
0.388897 0.354804 0.000000
0.470964 0.351165 0.000000
0.553432 0.347508 0.000000
0.636247 0.343836 0.000000
0.719369 0.340150 0.000000
0.802765 0.336452 0.000000
0.886411 0.332743 0.000000
0.970284 0.329023 0.000000
1.000000 0.325295 0.000000
1.000000 0.321558 0.000000
1.000000 0.317813 0.000000
0.000000 0.444405 0.000000
0.000000 0.443157 0.000000
0.064058 0.439731 0.000000
0.143260 0.436219 0.000000
0.223528 0.432659 0.000000
0.304545 0.429067 0.000000
0.386140 0.425449 0.000000
0.468207 0.421810 0.000000
0.550675 0.418153 0.000000
0.633490 0.414481 0.000000
0.716611 0.410795 0.000000
0.800008 0.407097 0.000000
0.883654 0.403388 0.000000
0.967527 0.399668 0.000000
1.000000 0.396149 0.000000
1.000000 0.393786 0.000000
1.000000 0.391417 0.000000
0.000000 0.515394 0.000000
0.000000 0.514146 0.000000
0.061287 0.510720 0.000000
0.140489 0.507208 0.000000
0.220758 0.503649 0.000000
0.301774 0.500056 0.000000
0.383369 0.496438 0.000000
0.465437 0.492799 0.000000
0.547904 0.489142 0.000000
0.630719 0.485470 0.000000
0.713841 0.481784 0.000000
0.796041 0.478716 0.000000
0.877099 0.476370 0.000000
0.958377 0.474018 0.000000
1.000000 0.471660 0.000000
1.000000 0.469297 0.000000
1.000000 0.466928 0.000000
0.000000 0.586682 0.000000
0.000000 0.585435 0.000000
0.058505 0.582009 0.000000
0.137707 0.578496 0.000000
0.217975 0.574937 0.000000
0.298992 0.571345 0.000000
0.380587 0.567727 0.000000
0.462654 0.564087 0.000000
0.543021 0.561537 0.000000
0.623273 0.559215 0.000000
0.703823 0.556884 0.000000
0.784639 0.554545 0.000000
0.865697 0.552199 0.000000
0.946975 0.549847 0.000000
1.000000 0.547489 0.000000
1.000000 0.545126 0.000000
1.000000 0.542757 0.000000
0.000000 0.658235 0.000000
0.000000 0.656987 0.000000
0.055712 0.653561 0.000000
0.134914 0.650049 0.000000
0.214552 0.646822 0.000000
0.293061 0.644550 0.000000
0.372132 0.642262 0.000000
0.451660 0.639960 0.000000
0.531576 0.637647 0.000000
0.611829 0.635325 0.000000
0.692378 0.632994 0.000000
0.773195 0.630655 0.000000
0.854252 0.628309 0.000000
0.935531 0.625957 0.000000
1.000000 0.623599 0.000000
1.000000 0.621236 0.000000
1.000000 0.618867 0.000000
0.000000 0.730612 0.000000
0.000000 0.729822 0.000000
0.048533 0.727656 0.000000
0.125284 0.725435 0.000000
0.203069 0.723184 0.000000
0.281579 0.720911 0.000000
0.360649 0.718623 0.000000
0.440178 0.716322 0.000000
0.520094 0.714009 0.000000
0.600346 0.711687 0.000000
0.680896 0.709355 0.000000
0.761712 0.707017 0.000000
0.842770 0.704671 0.000000
0.924048 0.702319 0.000000
1.000000 0.699961 0.000000
1.000000 0.697597 0.000000
1.000000 0.695229 0.000000
0.000000 0.807201 0.000000
0.000000 0.806412 0.000000
0.037016 0.804245 0.000000
0.113768 0.802024 0.000000
0.191553 0.799773 0.000000
0.270063 0.797501 0.000000
0.349133 0.795213 0.000000
0.428661 0.792911 0.000000
0.508577 0.790599 0.000000
0.588830 0.788276 0.000000
0.669380 0.785945 0.000000
0.750196 0.783606 0.000000
0.831254 0.781261 0.000000
0.912532 0.778908 0.000000
0.994014 0.776550 0.000000
1.000000 0.774187 0.000000
1.000000 0.771818 0.000000
0.000000 0.884000 0.000000
0.000000 0.883211 0.000000
0.025468 0.881044 0.000000
0.102220 0.878823 0.000000
0.180005 0.876572 0.000000
0.258515 0.874300 0.000000
0.337585 0.872011 0.000000
0.417113 0.869710 0.000000
0.497029 0.867397 0.000000
0.577282 0.865075 0.000000
0.657832 0.862744 0.000000
0.738648 0.860405 0.000000
0.819706 0.858059 0.000000
0.900984 0.855707 0.000000
0.982466 0.853349 0.000000
1.000000 0.850985 0.000000
1.000000 0.848617 0.000000
0.000000 0.960990 0.000000
0.000000 0.960201 0.000000
0.013891 0.958034 0.000000
0.090643 0.955813 0.000000
0.168428 0.953562 0.000000
0.246938 0.951290 0.000000
0.326008 0.949002 0.000000
0.405536 0.946700 0.000000
0.485453 0.944388 0.000000
0.565705 0.942065 0.000000
0.646255 0.939734 0.000000
0.727071 0.937395 0.000000
0.808129 0.935050 0.000000
0.889407 0.932697 0.000000
0.970889 0.930339 0.000000
1.000000 0.927976 0.000000
1.000000 0.925607 0.000000
0.000000 1.000000 0.000000
0.000000 1.000000 0.000000
0.002288 1.000000 0.000000
0.079040 1.000000 0.000000
0.156825 1.000000 0.000000
0.235334 1.000000 0.000000
0.314404 1.000000 0.000000
0.393933 1.000000 0.000000
0.473849 1.000000 0.000000
0.554102 1.000000 0.000000
0.634651 1.000000 0.000000
0.715468 1.000000 0.000000
0.796525 1.000000 0.000000
0.877804 1.000000 0.000000
0.959285 1.000000 0.000000
1.000000 1.000000 0.000000
1.000000 1.000000 0.000000
0.000000 1.000000 0.000000
0.000000 1.000000 0.000000
0.000000 1.000000 0.000000
0.067411 1.000000 0.000000
0.145196 1.000000 0.000000
0.223706 1.000000 0.000000
0.302776 1.000000 0.000000
0.382304 1.000000 0.000000
0.462220 1.000000 0.000000
0.542473 1.000000 0.000000
0.623023 1.000000 0.000000
0.703839 1.000000 0.000000
0.784897 1.000000 0.000000
0.866175 1.000000 0.000000
0.947657 1.000000 0.000000
1.000000 1.000000 0.000000
1.000000 1.000000 0.000000
0.000000 0.005351 0.057916
0.003820 0.004103 0.057092
0.081082 0.000677 0.054827
0.160284 0.000000 0.052505
0.240553 0.000000 0.050152
0.321569 0.000000 0.047778
0.403164 0.000000 0.045386
0.485231 0.000000 0.042980
0.567699 0.000000 0.040563
0.650514 0.000000 0.038136
0.733636 0.000000 0.035699
0.817032 0.000000 0.033254
0.900678 0.000000 0.030803
0.984551 0.000000 0.028344
1.000000 0.000000 0.025879
1.000000 0.000000 0.023409
1.000000 0.000000 0.020933
0.000000 0.029575 0.055142
0.002875 0.028327 0.054317
0.080136 0.024901 0.052052
0.159339 0.021389 0.049730
0.239607 0.017830 0.047377
0.320624 0.014237 0.045003
0.402218 0.010619 0.042611
0.484286 0.006980 0.040205
0.566754 0.003323 0.037788
0.649568 0.000000 0.035361
0.732690 0.000000 0.032924
0.816087 0.000000 0.030480
0.899732 0.000000 0.028028
0.983606 0.000000 0.025569
1.000000 0.000000 0.023105
1.000000 0.000000 0.020634
1.000000 0.000000 0.018158
0.000000 0.096083 0.047523
0.000279 0.094835 0.046698
0.077541 0.091409 0.044433
0.156743 0.087897 0.042112
0.237011 0.084338 0.039759
0.318028 0.080745 0.037384
0.399623 0.077127 0.034992
0.481690 0.073488 0.032587
0.564158 0.069831 0.030169
0.646973 0.066159 0.027742
0.730094 0.062473 0.025305
0.813491 0.058775 0.022861
0.897136 0.055066 0.020409
0.981010 0.051347 0.017951
1.000000 0.047618 0.015486
1.000000 0.043881 0.013016
1.000000 0.040136 0.010540
0.000000 0.164261 0.039713
0.000000 0.163014 0.038888
0.074880 0.159588 0.036623
0.154082 0.156076 0.034302
0.234350 0.152516 0.031949
0.315367 0.148924 0.029574
0.396962 0.145306 0.027182
0.479029 0.141666 0.024777
0.561497 0.138010 0.022359
0.644312 0.134337 0.019932
0.727433 0.130652 0.017496
0.810830 0.126953 0.015051
0.894476 0.123244 0.012599
0.978349 0.119525 0.010141
1.000000 0.115797 0.007676
1.000000 0.112060 0.005206
1.000000 0.108314 0.002730
0.000000 0.233358 0.031798
0.000000 0.232110 0.030973
0.072183 0.228684 0.028708
0.151385 0.225172 0.026387
0.231654 0.221613 0.024034
0.312670 0.218020 0.021659
0.394265 0.214402 0.019267
0.476332 0.210763 0.016862
0.558800 0.207106 0.014444
0.641615 0.203434 0.012017
0.724737 0.199748 0.009580
0.808133 0.196050 0.007136
0.891779 0.192341 0.004684
0.975652 0.188622 0.002225
1.000000 0.184893 0.000000
1.000000 0.181156 0.000000
1.000000 0.177411 0.000000
0.000000 0.303098 0.023809
0.000000 0.301850 0.022984
0.069461 0.298424 0.020719
0.148663 0.294912 0.018398
0.228932 0.291353 0.016045
0.309948 0.287760 0.013670
0.391543 0.284142 0.011278
0.473610 0.280503 0.008873
0.556078 0.276846 0.006455
0.638893 0.273174 0.004028
0.722015 0.269488 0.001591
0.805411 0.265790 0.000000
0.889057 0.262081 0.000000
0.972930 0.258362 0.000000
1.000000 0.254633 0.000000
1.000000 0.250896 0.000000
1.000000 0.247151 0.000000
0.000000 0.373336 0.015763
0.000000 0.372088 0.014938
0.066719 0.368662 0.012673
0.145922 0.365150 0.010352
0.226190 0.361591 0.007999
0.307207 0.357998 0.005624
0.388801 0.354380 0.003232
0.470869 0.350741 0.000827
0.553337 0.347084 0.000000
0.636152 0.343412 0.000000
0.719273 0.339726 0.000000
0.802670 0.336028 0.000000
0.886315 0.332319 0.000000
0.970189 0.328600 0.000000
1.000000 0.324871 0.000000
1.000000 0.321134 0.000000
1.000000 0.317389 0.000000
0.000000 0.443981 0.007670
0.000000 0.442733 0.006846
0.063962 0.439307 0.004581
0.143164 0.435795 0.002259
0.223433 0.432236 0.000000
0.304449 0.428643 0.000000
0.386044 0.425025 0.000000
0.468112 0.421386 0.000000
0.550579 0.417729 0.000000
0.633394 0.414057 0.000000
0.716516 0.410371 0.000000
0.799912 0.406673 0.000000
0.883558 0.402964 0.000000
0.967432 0.399245 0.000000
1.000000 0.395881 0.000000
1.000000 0.393518 0.000000
1.000000 0.391149 0.000000
0.000000 0.514970 0.000000
0.000000 0.513723 0.000000
0.061192 0.510297 0.000000
0.140394 0.506784 0.000000
0.220662 0.503225 0.000000
0.301679 0.499633 0.000000
0.383274 0.496014 0.000000
0.465341 0.492375 0.000000
0.547809 0.488719 0.000000
0.630624 0.485046 0.000000
0.713745 0.481360 0.000000
0.795650 0.478448 0.000000
0.876708 0.476102 0.000000
0.957986 0.473750 0.000000
1.000000 0.471392 0.000000
1.000000 0.469029 0.000000
1.000000 0.466660 0.000000
0.000000 0.586259 0.000000
0.000000 0.585011 0.000000
0.058409 0.581585 0.000000
0.137611 0.578073 0.000000
0.217880 0.574513 0.000000
0.298896 0.570921 0.000000
0.380491 0.567303 0.000000
0.462559 0.563664 0.000000
0.542629 0.561269 0.000000
0.622882 0.558947 0.000000
0.703432 0.556616 0.000000
0.784248 0.554277 0.000000
0.865306 0.551931 0.000000
0.946584 0.549579 0.000000
1.000000 0.547221 0.000000
1.000000 0.544858 0.000000
1.000000 0.542489 0.000000
0.000000 0.657811 0.000000
0.000000 0.656563 0.000000
0.055617 0.653137 0.000000
0.134819 0.649625 0.000000
0.214161 0.646554 0.000000
0.292670 0.644282 0.000000
0.371741 0.641994 0.000000
0.451269 0.639692 0.000000
0.531185 0.637379 0.000000
0.611438 0.635057 0.000000
0.691987 0.632726 0.000000
0.772804 0.630387 0.000000
0.853861 0.628041 0.000000
0.935140 0.625689 0.000000
1.000000 0.623331 0.000000
1.000000 0.620968 0.000000
1.000000 0.618599 0.000000
0.000000 0.730344 0.000000
0.000000 0.729554 0.000000
0.048142 0.727388 0.000000
0.124893 0.725167 0.000000
0.202678 0.722915 0.000000
0.281188 0.720643 0.000000
0.360258 0.718355 0.000000
0.439787 0.716054 0.000000
0.519703 0.713741 0.000000
0.599955 0.711419 0.000000
0.680505 0.709087 0.000000
0.761321 0.706749 0.000000
0.842379 0.704403 0.000000
0.923657 0.702051 0.000000
1.000000 0.699693 0.000000
1.000000 0.697329 0.000000
1.000000 0.694961 0.000000
0.000000 0.806933 0.000000
0.000000 0.806144 0.000000
0.036625 0.803977 0.000000
0.113377 0.801756 0.000000
0.191162 0.799505 0.000000
0.269671 0.797233 0.000000
0.348742 0.794945 0.000000
0.428270 0.792643 0.000000
0.508186 0.790331 0.000000
0.588439 0.788008 0.000000
0.668989 0.785677 0.000000
0.749805 0.783338 0.000000
0.830862 0.780993 0.000000
0.912141 0.778640 0.000000
0.993623 0.776282 0.000000
1.000000 0.773919 0.000000
1.000000 0.771550 0.000000
0.000000 0.883732 0.000000
0.000000 0.882943 0.000000
0.025077 0.880776 0.000000
0.101829 0.878555 0.000000
0.179614 0.876304 0.000000
0.258124 0.874032 0.000000
0.337194 0.871743 0.000000
0.416722 0.869442 0.000000
0.496638 0.867129 0.000000
0.576891 0.864807 0.000000
0.657441 0.862476 0.000000
0.738257 0.860137 0.000000
0.819314 0.857791 0.000000
0.900593 0.855439 0.000000
0.982075 0.853081 0.000000
1.000000 0.850717 0.000000
1.000000 0.848349 0.000000
0.000000 0.960722 0.000000
0.000000 0.959933 0.000000
0.013500 0.957766 0.000000
0.090252 0.955545 0.000000
0.168037 0.953294 0.000000
0.246547 0.951022 0.000000
0.325617 0.948734 0.000000
0.405145 0.946432 0.000000
0.485061 0.944120 0.000000
0.565314 0.941797 0.000000
0.645864 0.939466 0.000000
0.726680 0.937127 0.000000
0.807738 0.934782 0.000000
0.889016 0.932429 0.000000
0.970498 0.930071 0.000000
1.000000 0.927708 0.000000
1.000000 0.925339 0.000000
0.000000 1.000000 0.000000
0.000000 1.000000 0.000000
0.001897 1.000000 0.000000
0.078648 1.000000 0.000000
0.156433 1.000000 0.000000
0.234943 1.000000 0.000000
0.314013 1.000000 0.000000
0.393542 1.000000 0.000000
0.473458 1.000000 0.000000
0.553710 1.000000 0.000000
0.634260 1.000000 0.000000
0.715076 1.000000 0.000000
0.796134 1.000000 0.000000
0.877412 1.000000 0.000000
0.958894 1.000000 0.000000
1.000000 1.000000 0.000000
1.000000 1.000000 0.000000
0.000000 1.000000 0.000000
0.000000 1.000000 0.000000
0.000000 1.000000 0.000000
0.067020 1.000000 0.000000
0.144805 1.000000 0.000000
0.223314 1.000000 0.000000
0.302385 1.000000 0.000000
0.381913 1.000000 0.000000
0.461829 1.000000 0.000000
0.542082 1.000000 0.000000
0.622632 1.000000 0.000000
0.703448 1.000000 0.000000
0.784505 1.000000 0.000000
0.865784 1.000000 0.000000
0.947266 1.000000 0.000000
1.000000 1.000000 0.000000
1.000000 1.000000 0.000000
0.000000 0.004188 0.135181
0.003558 0.002940 0.134356
0.080820 0.000000 0.132091
0.160022 0.000000 0.129769
0.240291 0.000000 0.127417
0.321307 0.000000 0.125042
0.402902 0.000000 0.122650
0.484969 0.000000 0.120245
0.567437 0.000000 0.117827
0.650252 0.000000 0.115400
0.733374 0.000000 0.112963
0.816770 0.000000 0.110519
0.900416 0.000000 0.108067
0.984289 0.000000 0.105608
1.000000 0.000000 0.103144
1.000000 0.000000 0.100673
1.000000 0.000000 0.098198
0.000000 0.028411 0.132406
0.002613 0.027164 0.131581
0.079874 0.023738 0.129316
0.159077 0.020226 0.126995
0.239345 0.016666 0.124642
0.320361 0.013074 0.122267
0.401956 0.009456 0.119875
0.484024 0.005816 0.117470
0.566492 0.002160 0.115052
0.649306 0.000000 0.112625
0.732428 0.000000 0.110188
0.815825 0.000000 0.107744
0.899470 0.000000 0.105292
0.983344 0.000000 0.102833
1.000000 0.000000 0.100369
1.000000 0.000000 0.097898
1.000000 0.000000 0.095423
0.000000 0.094919 0.124787
0.000017 0.093672 0.123962
0.077279 0.090246 0.121698
0.156481 0.086734 0.119376
0.236749 0.083174 0.117023
0.317766 0.079582 0.114648
0.399361 0.075964 0.112257
0.481428 0.072324 0.109851
0.563896 0.068668 0.107434
0.646711 0.064995 0.105006
0.729832 0.061310 0.102570
0.813229 0.057611 0.100125
0.896874 0.053902 0.097673
0.980748 0.050183 0.095215
1.000000 0.046455 0.092750
1.000000 0.042718 0.090280
1.000000 0.038972 0.087804
0.000000 0.163098 0.116977
0.000000 0.161850 0.116152
0.074618 0.158424 0.113888
0.153820 0.154912 0.111566
0.234088 0.151353 0.109213
0.315105 0.147760 0.106838
0.396700 0.144142 0.104447
0.478767 0.140503 0.102041
0.561235 0.136846 0.099624
0.644050 0.133174 0.097196
0.727171 0.129488 0.094760
0.810568 0.125790 0.092315
0.894213 0.122081 0.089863
0.978087 0.118362 0.087405
1.000000 0.114633 0.084940
1.000000 0.110896 0.082470
1.000000 0.107151 0.079994
0.000000 0.232194 0.109062
0.000000 0.230946 0.108237
0.071921 0.227520 0.105972
0.151123 0.224008 0.103651
0.231392 0.220449 0.101298
0.312408 0.216857 0.098923
0.394003 0.213238 0.096531
0.476070 0.209599 0.094126
0.558538 0.205942 0.091709
0.641353 0.202270 0.089281
0.724474 0.198584 0.086845
0.807871 0.194886 0.084400
0.891517 0.191177 0.081948
0.975390 0.187458 0.079490
1.000000 0.183730 0.077025
1.000000 0.179992 0.074555
1.000000 0.176247 0.072079
0.000000 0.301934 0.101073
0.000000 0.300687 0.100248
0.069199 0.297261 0.097984
0.148401 0.293748 0.095662
0.228670 0.290189 0.093309
0.309686 0.286597 0.090934
0.391281 0.282979 0.088543
0.473348 0.279339 0.086137
0.555816 0.275683 0.083720
0.638631 0.272010 0.081292
0.721753 0.268324 0.078856
0.805149 0.264626 0.076411
0.888795 0.260917 0.073959
0.972668 0.257198 0.071501
1.000000 0.253470 0.069036
1.000000 0.249732 0.066566
1.000000 0.245987 0.064090
0.000000 0.372172 0.093027
0.000000 0.370925 0.092202
0.066457 0.367499 0.089938
0.145660 0.363987 0.087616
0.225928 0.360427 0.085263
0.306945 0.356835 0.082888
0.388539 0.353217 0.080497
0.470607 0.349577 0.078091
0.553075 0.345921 0.075674
0.635890 0.342248 0.073246
0.719011 0.338563 0.070810
0.802408 0.334864 0.068365
0.886053 0.331155 0.065913
0.969927 0.327436 0.063455
1.000000 0.323708 0.060990
1.000000 0.319971 0.058520
1.000000 0.316225 0.056044
0.000000 0.442817 0.084935
0.000000 0.441570 0.084110
0.063700 0.438144 0.081845
0.142902 0.434632 0.079523
0.223171 0.431072 0.077171
0.304187 0.427480 0.074796
0.385782 0.423862 0.072404
0.467850 0.420222 0.069999
0.550317 0.416566 0.067581
0.633132 0.412893 0.065154
0.716254 0.409207 0.062717
0.799650 0.405509 0.060273
0.883296 0.401800 0.057821
0.967170 0.398081 0.055362
1.000000 0.395145 0.052437
1.000000 0.392782 0.049169
1.000000 0.390413 0.045894
0.000000 0.513807 0.076803
0.000000 0.512559 0.075978
0.060929 0.509133 0.073713
0.140132 0.505621 0.071391
0.220400 0.502062 0.069039
0.301417 0.498469 0.066664
0.383011 0.494851 0.064272
0.465079 0.491212 0.061867
0.547547 0.487555 0.059449
0.630362 0.483883 0.057022
0.713483 0.480197 0.054585
0.794576 0.477712 0.051436
0.875634 0.475367 0.048192
0.956912 0.473014 0.044939
1.000000 0.470656 0.041679
1.000000 0.468293 0.038410
1.000000 0.465924 0.035135
0.000000 0.585095 0.068636
0.000000 0.583847 0.067812
0.058147 0.580421 0.065547
0.137349 0.576909 0.063225
0.217618 0.573350 0.060872
0.298634 0.569757 0.058498
0.380229 0.566139 0.056106
0.461639 0.562846 0.053499
0.541556 0.560534 0.050301
0.621808 0.558211 0.047089
0.702358 0.555880 0.043866
0.783174 0.553541 0.040632
0.864232 0.551196 0.037388
0.945510 0.548843 0.034135
1.000000 0.546485 0.030875
1.000000 0.544122 0.027606
1.000000 0.541753 0.024331
0.000000 0.656647 0.060440
0.000000 0.655400 0.059615
0.055354 0.651974 0.057350
0.134557 0.648462 0.055029
0.213087 0.645818 0.052144
0.291596 0.643546 0.049002
0.370667 0.641258 0.045838
0.450195 0.638956 0.042655
0.530111 0.636644 0.039457
0.610364 0.634321 0.036246
0.690913 0.631990 0.033022
0.771730 0.629651 0.029788
0.852787 0.627305 0.026544
0.934066 0.624953 0.023291
1.000000 0.622595 0.020031
1.000000 0.620232 0.016762
1.000000 0.617863 0.013487
0.000000 0.729608 0.051536
0.000000 0.728819 0.050445
0.047068 0.726652 0.047448
0.123819 0.724431 0.044377
0.201604 0.722180 0.041264
0.280114 0.719908 0.038122
0.359184 0.717619 0.034958
0.438713 0.715318 0.031775
0.518629 0.713005 0.028577
0.598881 0.710683 0.025366
0.679431 0.708352 0.022142
0.760247 0.706013 0.018908
0.841305 0.703667 0.015664
0.922583 0.701315 0.012412
1.000000 0.698957 0.009151
1.000000 0.696593 0.005883
1.000000 0.694225 0.002607
0.000000 0.806198 0.040624
0.000000 0.805408 0.039532
0.035551 0.803242 0.036536
0.112303 0.801020 0.033465
0.190088 0.798769 0.030352
0.268598 0.796497 0.027210
0.347668 0.794209 0.024046
0.427196 0.791908 0.020863
0.507112 0.789595 0.017665
0.587365 0.787272 0.014453
0.667915 0.784941 0.011230
0.748731 0.782603 0.007996
0.829789 0.780257 0.004752
0.911067 0.777905 0.001499
0.992549 0.775547 0.000000
1.000000 0.773183 0.000000
1.000000 0.770814 0.000000
0.000000 0.882996 0.029681
0.000000 0.882207 0.028590
0.024003 0.880040 0.025594
0.100755 0.877819 0.022522
0.178540 0.875568 0.019410
0.257050 0.873296 0.016268
0.336120 0.871007 0.013104
0.415648 0.868706 0.009921
0.495564 0.866393 0.006723
0.575817 0.864071 0.003511
0.656367 0.861740 0.000288
0.737183 0.859401 0.000000
0.818241 0.857055 0.000000
0.899519 0.854703 0.000000
0.981001 0.852345 0.000000
1.000000 0.849981 0.000000
1.000000 0.847613 0.000000
0.000000 0.959986 0.018712
0.000000 0.959197 0.017621
0.012426 0.957031 0.014625
0.089178 0.954809 0.011553
0.166963 0.952558 0.008440
0.245473 0.950286 0.005298
0.324543 0.947998 0.002134
0.404071 0.945697 0.000000
0.483988 0.943384 0.000000
0.564240 0.941061 0.000000
0.644790 0.938730 0.000000
0.725606 0.936391 0.000000
0.806664 0.934046 0.000000
0.887942 0.931694 0.000000
0.969424 0.929335 0.000000
1.000000 0.926972 0.000000
1.000000 0.924603 0.000000
0.000000 1.000000 0.007717
0.000000 1.000000 0.006626
0.000823 1.000000 0.003630
0.077575 1.000000 0.000558
0.155360 1.000000 0.000000
0.233869 1.000000 0.000000
0.312939 1.000000 0.000000
0.392468 1.000000 0.000000
0.472384 1.000000 0.000000
0.552637 1.000000 0.000000
0.633186 1.000000 0.000000
0.714003 1.000000 0.000000
0.795060 1.000000 0.000000
0.876339 1.000000 0.000000
0.957820 1.000000 0.000000
1.000000 1.000000 0.000000
1.000000 1.000000 0.000000
0.000000 1.000000 0.000000
0.000000 1.000000 0.000000
0.000000 1.000000 0.000000
0.065946 1.000000 0.000000
0.143731 1.000000 0.000000
0.222241 1.000000 0.000000
0.301311 1.000000 0.000000
0.380839 1.000000 0.000000
0.460755 1.000000 0.000000
0.541008 1.000000 0.000000
0.621558 1.000000 0.000000
0.702374 1.000000 0.000000
0.783432 1.000000 0.000000
0.864710 1.000000 0.000000
0.946192 1.000000 0.000000
1.000000 1.000000 0.000000
1.000000 1.000000 0.000000
0.000000 0.002995 0.214385
0.003289 0.001747 0.213561
0.080551 0.000000 0.211296
0.159753 0.000000 0.208974
0.240022 0.000000 0.206621
0.321038 0.000000 0.204247
0.402633 0.000000 0.201855
0.484701 0.000000 0.199449
0.567168 0.000000 0.197032
0.649983 0.000000 0.194605
