assets/luts/generated_genre/bs_commercial_sundance_indie_e88b6f386aac2e23.cube
# V4 spec-generated LUT — bs_commercial_sundance_indie
# Genre: commercial
# Look: Authentic indie commercial — lo-fi-luxe, lifted blacks, warm. Bradford Young early, Khalik Allah.
# Spec hash: e88b6f386aac2e23
TITLE "V4 Spec LUT — bs_commercial_sundance_indie"
LUT_3D_SIZE 5
DOMAIN_MIN 0.0 0.0 0.0
DOMAIN_MAX 1.0 1.0 1.0
0.061112 0.047815 0.021371
0.268500 0.055789 0.028922
0.470136 0.063542 0.036264
0.669033 0.071189 0.043505
0.866103 0.078767 0.050680
0.089716 0.276480 0.047093
0.297104 0.284454 0.054644
0.498740 0.292207 0.061985
0.697637 0.299854 0.069227
0.894708 0.307431 0.076402
0.117483 0.498449 0.072062
0.324870 0.506423 0.079613
0.526506 0.514176 0.086954
0.725204 0.521818 0.094386
0.921862 0.529385 0.101953
0.144522 0.717330 0.097010
0.351476 0.725293 0.104974
0.552690 0.733035 0.112716
0.751172 0.740673 0.120353
0.947830 0.748240 0.127921
0.170247 0.934145 0.122736
0.377201 0.942109 0.130699
0.578416 0.949851 0.138442
0.776897 0.957489 0.146079
0.973556 0.965056 0.153646
0.064075 0.050629 0.230759
0.271462 0.058602 0.238310
0.473098 0.066355 0.245652
0.671995 0.074003 0.252893
0.869066 0.081580 0.260068
0.092679 0.279293 0.256481
0.300066 0.287267 0.264032
0.501702 0.295020 0.271373
0.700599 0.302667 0.278615
0.897670 0.310244 0.285790
0.120445 0.501262 0.281450
0.327833 0.509236 0.289001
0.529469 0.516989 0.296342
0.728013 0.524628 0.303919
0.924672 0.532195 0.311487
0.147331 0.720139 0.306544
0.354285 0.728102 0.314507
0.555500 0.735845 0.322250
0.753981 0.743482 0.329887
0.950640 0.751049 0.337454
0.173057 0.936955 0.332270
0.380011 0.944918 0.340233
0.581225 0.952661 0.347975
0.779707 0.960298 0.355613
0.976365 0.967865 0.363180
0.066939 0.053349 0.433207
0.274326 0.061322 0.440758
0.475962 0.069075 0.448099
0.674860 0.076723 0.455341
0.871930 0.084300 0.462516
0.095543 0.282013 0.458929
0.302931 0.289987 0.466479
0.504566 0.297740 0.473821
0.703464 0.305387 0.481062
0.900534 0.312964 0.488238
0.123310 0.503982 0.483897
0.330697 0.511956 0.491448
0.532248 0.519707 0.498870
0.730730 0.527344 0.506508
0.927388 0.534911 0.514075
0.150048 0.722855 0.509132
0.357002 0.730819 0.517095
0.558216 0.738561 0.524838
0.756697 0.746199 0.532475
0.953356 0.753766 0.540042
0.175773 0.939671 0.534858
0.382727 0.947635 0.542821
0.583942 0.955377 0.550563
0.782423 0.963014 0.558201
0.979082 0.970582 0.565768
0.069762 0.056029 0.632720
0.277149 0.064003 0.640271
0.478785 0.071756 0.647613
0.677682 0.079403 0.654854
0.874753 0.086980 0.662030
0.098366 0.284694 0.658442
0.305753 0.292668 0.665993
0.507389 0.300420 0.673335
0.706286 0.308068 0.680576
0.903357 0.315645 0.687751
0.126132 0.506663 0.683411
0.333520 0.514637 0.690962
0.534925 0.522384 0.698523
0.733407 0.530021 0.706160
0.930065 0.537588 0.713727
0.152725 0.725532 0.708784
0.359679 0.733496 0.716748
0.560893 0.741238 0.724490
0.759374 0.748876 0.732128
0.956033 0.756443 0.739695
0.178450 0.942348 0.734510
0.385404 0.950312 0.742473
0.586619 0.958054 0.750216
0.785100 0.965691 0.757853
0.981759 0.973259 0.765420
0.072557 0.058684 0.830323
0.279945 0.066658 0.837873
0.481581 0.074411 0.845215
0.680478 0.082058 0.852457
0.877549 0.089635 0.859632
0.101162 0.287349 0.856045
0.308549 0.295322 0.863595
0.510185 0.303075 0.870937
0.709082 0.310723 0.878178
0.906153 0.318300 0.885354
0.128928 0.509318 0.881013
0.336316 0.517291 0.888564
0.537577 0.525035 0.896262
0.736058 0.532672 0.903900
0.932717 0.540240 0.911467
0.155376 0.728184 0.906524
0.362330 0.736147 0.914487
0.563544 0.743890 0.922230
0.762026 0.751527 0.929867
0.958684 0.759094 0.937434
0.181102 0.945000 0.932250
0.388056 0.952963 0.940213
0.589270 0.960705 0.947955
0.787751 0.968343 0.955593
0.984410 0.975910 0.963160
