assets/luts/generated_genre/bs_commercial_neon_dream_2722f571bff83e25.cube
# V4 spec-generated LUT — bs_commercial_neon_dream
# Genre: commercial
# Look: Maximalist neon-dream commercial — anthemic, hyper-stylized magenta-cyan. Nike Dream Crazy, Honda Ha
# Spec hash: 2722f571bff83e25
TITLE "V4 Spec LUT — bs_commercial_neon_dream"
LUT_3D_SIZE 5
DOMAIN_MIN 0.0 0.0 0.0
DOMAIN_MAX 1.0 1.0 1.0
0.000000 0.005775 0.029775
0.240648 0.000000 0.022011
0.567795 0.000000 0.012421
0.900773 0.000000 0.002661
1.000000 0.000000 0.000000
0.000000 0.233782 0.003656
0.231749 0.222036 0.000000
0.558895 0.207530 0.000000
0.891874 0.192764 0.000000
1.000000 0.177834 0.000000
0.000000 0.515394 0.000000
0.220758 0.503649 0.000000
0.547904 0.489142 0.000000
0.877099 0.476370 0.000000
1.000000 0.466928 0.000000
0.000000 0.807201 0.000000
0.191553 0.799773 0.000000
0.508577 0.790599 0.000000
0.831254 0.781261 0.000000
1.000000 0.771818 0.000000
0.000000 1.000000 0.000000
0.145196 1.000000 0.000000
0.462220 1.000000 0.000000
0.784897 1.000000 0.000000
1.000000 1.000000 0.000000
0.000000 0.001786 0.294657
0.239750 0.000000 0.286893
0.566896 0.000000 0.277303
0.899875 0.000000 0.267543
1.000000 0.000000 0.257674
0.000000 0.229793 0.268538
0.230851 0.218048 0.260774
0.557997 0.203541 0.251185
0.890976 0.188776 0.241424
1.000000 0.173846 0.231555
0.000000 0.511405 0.236279
0.219859 0.499660 0.228515
0.547006 0.485154 0.218925
0.873417 0.473848 0.207155
1.000000 0.464405 0.194098
0.000000 0.804679 0.199587
0.187871 0.797251 0.189315
0.504896 0.788076 0.176628
0.827572 0.778738 0.163715
1.000000 0.769296 0.150658
0.000000 1.000000 0.155662
0.141514 1.000000 0.145390
0.458539 1.000000 0.132703
0.781215 1.000000 0.119790
1.000000 1.000000 0.106733
0.000000 0.000000 0.621814
0.238640 0.000000 0.614050
0.565787 0.000000 0.604460
0.898765 0.000000 0.594700
1.000000 0.000000 0.584831
0.000000 0.224866 0.595695
0.229741 0.213121 0.587931
0.556888 0.198614 0.578342
0.889866 0.183849 0.568581
1.000000 0.168919 0.558712
0.000000 0.506479 0.563436
0.218750 0.494734 0.555672
0.545896 0.480227 0.546082
0.868870 0.470732 0.533260
1.000000 0.461290 0.520203
0.000000 0.801563 0.525692
0.183324 0.794135 0.515420
0.500349 0.784960 0.502733
0.823025 0.775622 0.489820
1.000000 0.766180 0.476763
0.000000 1.000000 0.481767
0.136967 1.000000 0.471495
0.453992 1.000000 0.458808
0.776668 1.000000 0.445895
1.000000 1.000000 0.432838
0.000000 0.000000 0.954803
0.237511 0.000000 0.947039
0.564657 0.000000 0.937450
0.897636 0.000000 0.927689
1.000000 0.000000 0.917820
0.000000 0.219852 0.928685
0.228612 0.208107 0.920921
0.555758 0.193600 0.911331
0.888737 0.178835 0.901571
1.000000 0.163905 0.891702
0.000000 0.501465 0.896425
0.217620 0.489719 0.888661
0.541566 0.476899 0.878092
0.864242 0.467561 0.865179
1.000000 0.458118 0.852122
0.000000 0.798392 0.857611
0.178696 0.790964 0.847339
0.495721 0.781789 0.834652
0.818397 0.772451 0.821739
1.000000 0.763009 0.808682
0.000000 1.000000 0.813686
0.132339 1.000000 0.803414
0.449364 1.000000 0.790727
0.772040 1.000000 0.777814
1.000000 1.000000 0.764757
0.000000 0.000000 1.000000
0.236369 0.000000 1.000000
0.563515 0.000000 1.000000
0.896494 0.000000 1.000000
1.000000 0.000000 1.000000
0.000000 0.214782 1.000000
0.227470 0.203036 1.000000
0.554616 0.188530 1.000000
0.887595 0.173765 1.000000
1.000000 0.158835 1.000000
0.000000 0.496394 1.000000
0.216479 0.484649 1.000000
0.536886 0.473692 1.000000
0.859562 0.464354 1.000000
1.000000 0.454912 1.000000
0.000000 0.795185 1.000000
0.174016 0.787757 1.000000
0.491041 0.778582 1.000000
0.813717 0.769244 1.000000
1.000000 0.759802 1.000000
0.000000 1.000000 1.000000
0.127659 1.000000 1.000000
0.444684 1.000000 1.000000
0.767360 1.000000 1.000000
1.000000 1.000000 1.000000
