assets/luts/generated_genre/bs_comedy_bright_clean_4f1d57ed9f7b7138.cube
# V4 spec-generated LUT — bs_comedy_bright_clean
# Genre: comedy
# Look: Bright accessible comedy — uplifting, warm. Shelton/Ted Lasso, Parks & Rec.
# Spec hash: 4f1d57ed9f7b7138
TITLE "V4 Spec LUT — bs_comedy_bright_clean"
LUT_3D_SIZE 17
DOMAIN_MIN 0.0 0.0 0.0
DOMAIN_MAX 1.0 1.0 1.0
0.038756 0.032602 0.026424
0.107686 0.031500 0.025173
0.175634 0.030413 0.023940
0.243035 0.029336 0.022717
0.310053 0.028264 0.021501
0.376777 0.027197 0.020291
0.443262 0.026134 0.019084
0.509545 0.025074 0.017882
0.575655 0.024017 0.016682
0.641613 0.022963 0.015486
0.707434 0.021911 0.014291
0.773132 0.020860 0.013099
0.838717 0.019812 0.011909
0.904200 0.018765 0.010721
0.969588 0.017719 0.009535
1.000000 0.016675 0.008350
1.000000 0.015632 0.007167
0.035526 0.099241 0.022187
0.104456 0.098139 0.020936
0.172404 0.097052 0.019703
0.239804 0.095975 0.018481
0.306823 0.094903 0.017265
0.373547 0.093836 0.016054
0.440032 0.092773 0.014848
0.506315 0.091714 0.013645
0.572425 0.090657 0.012446
0.638383 0.089602 0.011249
0.704204 0.088550 0.010055
0.769901 0.087499 0.008863
0.835487 0.086451 0.007673
0.900970 0.085404 0.006485
0.966358 0.084358 0.005298
1.000000 0.083314 0.004113
1.000000 0.082272 0.002930
0.032346 0.164861 0.018015
0.101275 0.163759 0.016764
0.169223 0.162672 0.015532
0.236624 0.161595 0.014309
0.303642 0.160523 0.013093
0.370366 0.159456 0.011882
0.436851 0.158393 0.010676
0.503135 0.157334 0.009473
0.569245 0.156277 0.008274
0.635202 0.155222 0.007077
0.701023 0.154170 0.005883
0.766721 0.153119 0.004691
0.832307 0.152071 0.003501
0.897789 0.151024 0.002313
0.963177 0.149978 0.001126
1.000000 0.148934 0.000000
1.000000 0.147891 0.000000
0.029191 0.229932 0.013878
0.098121 0.228830 0.012627
0.166069 0.227744 0.011395
0.233470 0.226666 0.010172
0.300488 0.225595 0.008956
0.367212 0.224528 0.007745
0.433697 0.223465 0.006539
0.499980 0.222405 0.005336
0.566091 0.221348 0.004137
0.632048 0.220294 0.002940
0.697869 0.219241 0.001746
0.763567 0.218191 0.000554
0.829152 0.217142 0.000000
0.894635 0.216095 0.000000
0.960023 0.215050 0.000000
1.000000 0.214006 0.000000
1.000000 0.212963 0.000000
0.026056 0.294625 0.009765
0.094985 0.293523 0.008514
0.162933 0.292437 0.007282
0.230334 0.291359 0.006059
0.297352 0.290288 0.004843
0.364076 0.289221 0.003632
0.430561 0.288158 0.002426
0.496845 0.287098 0.001223
0.562955 0.286041 0.000024
0.628912 0.284987 0.000000
0.694733 0.283934 0.000000
0.760431 0.282884 0.000000
0.826017 0.281835 0.000000
0.891500 0.280788 0.000000
0.956887 0.279743 0.000000
1.000000 0.278699 0.000000
1.000000 0.277656 0.000000
0.022934 0.359029 0.005670
0.091863 0.357927 0.004420
0.159811 0.356840 0.003187
0.227212 0.355763 0.001964
0.294230 0.354691 0.000748
0.360954 0.353625 0.000000
0.427439 0.352562 0.000000
0.493723 0.351502 0.000000
0.559833 0.350445 0.000000
0.625790 0.349390 0.000000
0.691611 0.348338 0.000000
0.757309 0.347287 0.000000
0.822895 0.346239 0.000000
0.888378 0.345192 0.000000
0.953765 0.344146 0.000000
1.000000 0.343102 0.000000
1.000000 0.342060 0.000000
0.019824 0.423198 0.001591
0.088753 0.422096 0.000340
0.156701 0.421010 0.000000
0.224102 0.419932 0.000000
0.291120 0.418860 0.000000
0.357844 0.417794 0.000000
0.424329 0.416731 0.000000
0.490613 0.415671 0.000000
0.556723 0.414614 0.000000
0.622680 0.413559 0.000000
0.688501 0.412507 0.000000
0.754199 0.411457 0.000000
0.819785 0.410408 0.000000
0.885267 0.409361 0.000000
0.950655 0.408316 0.000000
1.000000 0.407272 0.000000
1.000000 0.406233 0.000000
0.016723 0.487170 0.000000
0.085652 0.486068 0.000000
0.153600 0.484982 0.000000
0.221001 0.483904 0.000000
0.288019 0.482833 0.000000
0.354743 0.481766 0.000000
0.421228 0.480703 0.000000
0.487512 0.479643 0.000000
0.553622 0.478586 0.000000
0.619579 0.477532 0.000000
0.685400 0.476479 0.000000
0.751098 0.475429 0.000000
0.816556 0.474382 0.000000
0.881761 0.473339 0.000000
0.946870 0.472297 0.000000
1.000000 0.471257 0.000000
1.000000 0.470218 0.000000
0.013630 0.550973 0.000000
0.082560 0.549871 0.000000
0.150508 0.548785 0.000000
0.217908 0.547707 0.000000
0.284926 0.546636 0.000000
0.351650 0.545569 0.000000
0.418135 0.544506 0.000000
0.484419 0.543446 0.000000
0.550529 0.542389 0.000000
0.616247 0.541338 0.000000
0.681788 0.540289 0.000000
0.747206 0.539242 0.000000
0.812513 0.538197 0.000000
0.877717 0.537154 0.000000
0.942826 0.536112 0.000000
1.000000 0.535072 0.000000
1.000000 0.534033 0.000000
0.010545 0.614627 0.000000
0.079474 0.613525 0.000000
0.147422 0.612439 0.000000
0.214823 0.611361 0.000000
0.281841 0.610290 0.000000
0.348503 0.609224 0.000000
0.414705 0.608164 0.000000
0.480707 0.607108 0.000000
0.546536 0.606055 0.000000
0.612212 0.605004 0.000000
0.677753 0.603956 0.000000
0.743172 0.602909 0.000000
0.808478 0.601864 0.000000
0.873683 0.600821 0.000000
0.938792 0.599779 0.000000
1.000000 0.598739 0.000000
1.000000 0.597699 0.000000
0.007466 0.678148 0.000000
0.076395 0.677046 0.000000
0.144190 0.675962 0.000000
0.211304 0.674888 0.000000
0.278037 0.673820 0.000000
0.344477 0.672757 0.000000
0.410679 0.671698 0.000000
0.476681 0.670642 0.000000
0.542510 0.669589 0.000000
0.608186 0.668538 0.000000
0.673727 0.667489 0.000000
0.739146 0.666442 0.000000
0.804452 0.665398 0.000000
0.869657 0.664354 0.000000
0.934766 0.663313 0.000000
0.999788 0.662272 0.000000
1.000000 0.661233 0.000000
0.003876 0.741557 0.000000
0.072513 0.740458 0.000000
0.140172 0.739376 0.000000
0.207285 0.738302 0.000000
0.274019 0.737234 0.000000
0.340459 0.736171 0.000000
0.406661 0.735112 0.000000
0.472663 0.734056 0.000000
0.538491 0.733003 0.000000
0.604168 0.731952 0.000000
0.669709 0.730903 0.000000
0.735127 0.729856 0.000000
0.800434 0.728811 0.000000
0.865638 0.727768 0.000000
0.930748 0.726726 0.000000
0.995769 0.725686 0.000000
1.000000 0.724647 0.000000
0.000000 0.804861 0.000000
0.068501 0.803763 0.000000
0.136160 0.802681 0.000000
0.203274 0.801607 0.000000
0.270007 0.800539 0.000000
0.336447 0.799476 0.000000
0.402649 0.798417 0.000000
0.468651 0.797361 0.000000
0.534480 0.796308 0.000000
0.600157 0.795257 0.000000
0.665697 0.794208 0.000000
0.731116 0.793161 0.000000
0.796423 0.792116 0.000000
0.861627 0.791073 0.000000
0.926736 0.790031 0.000000
0.991758 0.788991 0.000000
1.000000 0.787952 0.000000
0.000000 0.868066 0.000000
0.064496 0.866968 0.000000
0.132155 0.865886 0.000000
0.199269 0.864812 0.000000
0.266002 0.863744 0.000000
0.332442 0.862681 0.000000
0.398644 0.861622 0.000000
0.464646 0.860566 0.000000
0.530475 0.859512 0.000000
0.596151 0.858462 0.000000
0.661692 0.857413 0.000000
0.727111 0.856366 0.000000
0.792417 0.855321 0.000000
0.857622 0.854278 0.000000
0.922731 0.853236 0.000000
0.987753 0.852196 0.000000
1.000000 0.851157 0.000000
0.000000 0.931179 0.000000
0.060497 0.930081 0.000000
0.128156 0.928998 0.000000
0.195270 0.927924 0.000000
0.262003 0.926856 0.000000
0.328443 0.925793 0.000000
0.394645 0.924734 0.000000
0.460647 0.923678 0.000000
0.526476 0.922625 0.000000
0.592152 0.921574 0.000000
0.657693 0.920525 0.000000
0.723111 0.919479 0.000000
0.788418 0.918434 0.000000
0.853622 0.917390 0.000000
0.918732 0.916349 0.000000
0.983753 0.915308 0.000000
1.000000 0.914269 0.000000
0.000000 0.994205 0.000000
0.056503 0.993107 0.000000
0.124162 0.992025 0.000000
0.191276 0.990951 0.000000
0.258009 0.989883 0.000000
0.324449 0.988820 0.000000
0.390651 0.987761 0.000000
0.456653 0.986705 0.000000
0.522482 0.985651 0.000000
0.588158 0.984601 0.000000
0.653699 0.983552 0.000000
0.719118 0.982505 0.000000
0.784424 0.981460 0.000000
0.849629 0.980417 0.000000
0.914738 0.979375 0.000000
0.979760 0.978335 0.000000
1.000000 0.977296 0.000000
0.000000 1.000000 0.000000
0.052514 1.000000 0.000000
0.120173 1.000000 0.000000
0.187287 1.000000 0.000000
0.254020 1.000000 0.000000
0.320460 1.000000 0.000000
0.386662 1.000000 0.000000
0.452664 1.000000 0.000000
0.518493 1.000000 0.000000
0.584170 1.000000 0.000000
0.649711 1.000000 0.000000
0.715129 1.000000 0.000000
0.780436 1.000000 0.000000
0.845640 1.000000 0.000000
0.910749 1.000000 0.000000
0.975771 1.000000 0.000000
1.000000 1.000000 0.000000
0.038428 0.032222 0.096873
0.107358 0.031120 0.095622
0.175305 0.030034 0.094389
0.242706 0.028956 0.093166
0.309724 0.027884 0.091950
0.376448 0.026818 0.090740
0.442933 0.025755 0.089533
0.509217 0.024695 0.088331
0.575327 0.023638 0.087131
0.641284 0.022583 0.085934
0.707105 0.021531 0.084740
0.772803 0.020481 0.083548
0.838389 0.019432 0.082358
0.903872 0.018385 0.081170
0.969259 0.017339 0.079984
1.000000 0.016295 0.078799
1.000000 0.015253 0.077616
0.035198 0.098861 0.092636
0.104127 0.097759 0.091385
0.172075 0.096673 0.090152
0.239476 0.095595 0.088929
0.306494 0.094524 0.087713
0.373218 0.093457 0.086503
0.439703 0.092394 0.085297
0.505987 0.091334 0.084094
0.572097 0.090277 0.082894
0.638054 0.089223 0.081698
0.703875 0.088170 0.080503
0.769573 0.087120 0.079311
0.835159 0.086071 0.078121
0.900642 0.085024 0.076933
0.966029 0.083979 0.075747
1.000000 0.082935 0.074562
1.000000 0.081892 0.073379
0.032017 0.164481 0.088464
0.100947 0.163379 0.087213
0.168895 0.162293 0.085980
0.236295 0.161215 0.084758
0.303313 0.160143 0.083542
0.370037 0.159077 0.082331
0.436522 0.158014 0.081125
0.502806 0.156954 0.079922
0.568916 0.155897 0.078722
0.634874 0.154842 0.077526
0.700694 0.153790 0.076332
0.766392 0.152740 0.075140
0.831978 0.151691 0.073950
0.897461 0.150644 0.072761
0.962849 0.149599 0.071575
1.000000 0.148555 0.070390
1.000000 0.147512 0.069207
0.028863 0.229553 0.084327
0.097793 0.228451 0.083076
0.165740 0.227364 0.081843
0.233141 0.226287 0.080620
0.300159 0.225215 0.079404
0.366883 0.224148 0.078194
0.433368 0.223085 0.076988
0.499652 0.222026 0.075785
0.565762 0.220969 0.074585
0.631719 0.219914 0.073389
0.697540 0.218862 0.072194
0.763238 0.217811 0.071002
0.828824 0.216763 0.069812
0.894307 0.215716 0.068624
0.959695 0.214670 0.067438
1.000000 0.213626 0.066253
1.000000 0.212584 0.065070
0.025727 0.294246 0.080214
0.094657 0.293144 0.078963
0.162605 0.292057 0.077730
0.230005 0.290980 0.076507
0.297024 0.289908 0.075291
0.363748 0.288841 0.074081
0.430232 0.287778 0.072875
0.496516 0.286719 0.071672
0.562626 0.285662 0.070472
0.628584 0.284607 0.069276
0.694405 0.283555 0.068081
0.760102 0.282504 0.066889
0.825688 0.281456 0.065699
0.891171 0.280409 0.064511
0.956559 0.279363 0.063325
1.000000 0.278319 0.062140
1.000000 0.277277 0.060957
0.022605 0.358649 0.076119
0.091535 0.357547 0.074869
0.159483 0.356461 0.073636
0.226884 0.355383 0.072413
0.293902 0.354312 0.071197
0.360626 0.353245 0.069986
0.427111 0.352182 0.068780
0.493395 0.351122 0.067577
0.559505 0.350065 0.066378
0.625462 0.349011 0.065181
0.691283 0.347958 0.063987
0.756981 0.346908 0.062795
0.822566 0.345859 0.061605
0.888049 0.344812 0.060417
0.953437 0.343767 0.059230
1.000000 0.342723 0.058046
1.000000 0.341680 0.056862
0.019495 0.422818 0.072040
0.088425 0.421716 0.070789
0.156373 0.420630 0.069556
0.223773 0.419552 0.068333
0.290791 0.418481 0.067117
0.357515 0.417414 0.065907
0.424000 0.416351 0.064700
0.490284 0.415291 0.063498
0.556394 0.414234 0.062298
0.622351 0.413180 0.061101
0.688172 0.412127 0.059907
0.753870 0.411077 0.058715
0.819456 0.410028 0.057525
0.884939 0.408981 0.056337
0.950327 0.407936 0.055151
1.000000 0.406893 0.054023
1.000000 0.405854 0.052984
0.016394 0.486791 0.067972
0.085324 0.485689 0.066722
0.153272 0.484602 0.065489
0.220672 0.483525 0.064266
0.287691 0.482453 0.063050
0.354415 0.481386 0.061839
0.420900 0.480323 0.060633
0.487183 0.479264 0.059430
0.553293 0.478207 0.058231
0.619251 0.477152 0.057034
0.685072 0.476100 0.055840
0.750769 0.475049 0.054648
0.816127 0.474004 0.053577
0.881331 0.472960 0.052533
0.946441 0.471919 0.051492
1.000000 0.470878 0.050451
1.000000 0.469839 0.049412
0.013302 0.550594 0.063916
0.082231 0.549492 0.062665
0.150179 0.548405 0.061433
0.217580 0.547328 0.060210
0.284598 0.546256 0.058994
0.351322 0.545189 0.057783
0.417807 0.544126 0.056577
0.484091 0.543066 0.055374
0.550141 0.542010 0.054206
0.615817 0.540959 0.053155
0.681358 0.539911 0.052106
0.746776 0.538864 0.051060
0.812083 0.537819 0.050015
0.877287 0.536776 0.048971
0.942397 0.535734 0.047930
1.000000 0.534694 0.046889
1.000000 0.533655 0.045850
0.010216 0.614248 0.059869
0.079146 0.613145 0.058618
0.147094 0.612059 0.057386
0.214494 0.610981 0.056163
0.281513 0.609910 0.054947
0.348073 0.608845 0.053821
0.414276 0.607786 0.052762
0.480277 0.606730 0.051706
0.546106 0.605677 0.050652
0.611783 0.604626 0.049601
0.677324 0.603577 0.048553
0.742742 0.602531 0.047506
0.808049 0.601486 0.046461
0.873253 0.600442 0.045418
0.938363 0.599401 0.044376
1.000000 0.598360 0.043336
1.000000 0.597321 0.042297
0.007137 0.677769 0.055831
0.076067 0.676667 0.054580
0.143760 0.675584 0.053479
0.210874 0.674510 0.052405
0.277607 0.673442 0.051338
0.344048 0.672379 0.050275
0.410250 0.671320 0.049215
0.476251 0.670264 0.048159
0.542080 0.669210 0.047106
0.607757 0.668160 0.046055
0.673298 0.667111 0.045007
0.738716 0.666064 0.043960
0.804023 0.665019 0.042915
0.869227 0.663976 0.041872
0.934337 0.662934 0.040830
0.999358 0.661894 0.039790
1.000000 0.660855 0.038751
0.003447 0.741178 0.052120
0.072083 0.740080 0.051022
0.139742 0.738998 0.049940
0.206856 0.737924 0.048866
0.273589 0.736856 0.047798
0.340029 0.735793 0.046735
0.406231 0.734734 0.045676
0.472233 0.733678 0.044620
0.538062 0.732624 0.043567
0.603739 0.731574 0.042516
0.669279 0.730525 0.041467
0.734698 0.729478 0.040420
0.800005 0.728433 0.039375
0.865209 0.727390 0.038332
0.930318 0.726348 0.037290
0.995340 0.725308 0.036250
1.000000 0.724269 0.035211
0.000000 0.804483 0.048587
0.068072 0.803385 0.047489
0.135731 0.802302 0.046406
0.202845 0.801229 0.045333
0.269578 0.800161 0.044265
0.336018 0.799098 0.043202
0.402220 0.798039 0.042142
0.468222 0.796983 0.041086
0.534050 0.795929 0.040033
0.599727 0.794878 0.038982
0.665268 0.793830 0.037934
0.730686 0.792783 0.036887
0.795993 0.791738 0.035842
0.861197 0.790695 0.034799
0.926307 0.789653 0.033757
0.991328 0.788613 0.032717
1.000000 0.787574 0.031678
0.000000 0.867688 0.045059
0.064067 0.866590 0.043961
0.131726 0.865507 0.042879
0.198839 0.864433 0.041805
0.265573 0.863366 0.040737
0.332013 0.862303 0.039674
0.398215 0.861243 0.038615
0.464217 0.860187 0.037559
0.530045 0.859134 0.036505
0.595722 0.858083 0.035455
0.661263 0.857035 0.034406
0.726681 0.855988 0.033359
0.791988 0.854943 0.032314
0.857192 0.853900 0.031271
0.922302 0.852858 0.030229
0.987323 0.851818 0.029189
1.000000 0.850779 0.028150
0.000000 0.930800 0.041537
0.060067 0.929702 0.040438
0.127726 0.928620 0.039356
0.194840 0.927546 0.038282
0.261573 0.926478 0.037214
0.328013 0.925415 0.036151
0.394216 0.924356 0.035092
0.460217 0.923300 0.034036
0.526046 0.922247 0.032983
0.591723 0.921196 0.031932
0.657264 0.920147 0.030883
0.722682 0.919100 0.029836
0.787989 0.918055 0.028792
0.853193 0.917012 0.027748
0.918303 0.915970 0.026707
0.983324 0.914930 0.025666
1.000000 0.913891 0.024627
0.000000 0.993827 0.038019
0.056074 0.992729 0.036920
0.123733 0.991646 0.035838
0.190846 0.990572 0.034764
0.257579 0.989505 0.033696
0.324020 0.988442 0.032633
0.390222 0.987382 0.031574
0.456223 0.986326 0.030518
0.522052 0.985273 0.029465
0.587729 0.984222 0.028414
0.653270 0.983174 0.027365
0.718688 0.982127 0.026319
0.783995 0.981082 0.025274
0.849199 0.980039 0.024230
0.914309 0.978997 0.023189
0.979330 0.977957 0.022148
1.000000 0.976918 0.021109
0.000000 1.000000 0.034505
0.052085 1.000000 0.033407
0.119744 1.000000 0.032325
0.186858 1.000000 0.031251
0.253591 1.000000 0.030183
0.320031 1.000000 0.029120
0.386233 1.000000 0.028061
0.452235 1.000000 0.027005
0.518064 1.000000 0.025951
0.583740 1.000000 0.024901
0.649281 1.000000 0.023852
0.714700 1.000000 0.022805
0.780006 1.000000 0.021760
0.845211 1.000000 0.020717
0.910320 1.000000 0.019675
0.975341 1.000000 0.018635
1.000000 1.000000 0.017596
0.038105 0.031849 0.166156
0.107035 0.030747 0.164906
0.174982 0.029660 0.163673
0.242383 0.028583 0.162450
0.309401 0.027511 0.161234
0.376125 0.026444 0.160023
0.442610 0.025381 0.158817
0.508894 0.024322 0.157614
0.575004 0.023265 0.156415
0.640961 0.022210 0.155218
0.706782 0.021158 0.154024
0.772480 0.020107 0.152832
0.838066 0.019059 0.151642
0.903549 0.018012 0.150454
0.968936 0.016966 0.149267
1.000000 0.015922 0.148083
1.000000 0.014879 0.146899
0.034875 0.098488 0.161919
0.103804 0.097386 0.160669
0.171752 0.096299 0.159436
0.239153 0.095222 0.158213
0.306171 0.094150 0.156997
0.372895 0.093083 0.155787
0.439380 0.092021 0.154580
0.505664 0.090961 0.153378
0.571774 0.089904 0.152178
0.637731 0.088849 0.150981
0.703552 0.087797 0.149787
0.769250 0.086746 0.148595
0.834836 0.085698 0.147405
0.900319 0.084651 0.146217
0.965706 0.083605 0.145031
1.000000 0.082561 0.143846
1.000000 0.081519 0.142663
0.031694 0.164108 0.157748
0.100624 0.163006 0.156497
0.168572 0.161919 0.155264
0.235972 0.160842 0.154041
0.302990 0.159770 0.152825
0.369714 0.158703 0.151615
0.436199 0.157640 0.150408
0.502483 0.156581 0.149206
0.568593 0.155524 0.148006
0.634551 0.154469 0.146809
0.700371 0.153417 0.145615
0.766069 0.152366 0.144423
0.831655 0.151318 0.143233
0.897138 0.150271 0.142045
0.962526 0.149225 0.140859
1.000000 0.148181 0.139674
1.000000 0.147138 0.138491
0.028540 0.229179 0.153611
0.097470 0.228077 0.152360
0.165417 0.226991 0.151127
0.232818 0.225913 0.149904
0.299836 0.224842 0.148688
0.366560 0.223775 0.147478
0.433045 0.222712 0.146271
0.499329 0.221652 0.145069
0.565439 0.220595 0.143869
0.631396 0.219541 0.142672
0.697217 0.218488 0.141478
0.762915 0.217438 0.140286
0.828501 0.216389 0.139096
0.893984 0.215342 0.137908
0.959372 0.214297 0.136722
1.000000 0.213253 0.135537
1.000000 0.212210 0.134354
0.025404 0.293872 0.149498
0.094334 0.292770 0.148247
0.162282 0.291684 0.147014
0.229682 0.290606 0.145791
0.296701 0.289535 0.144575
0.363425 0.288468 0.143365
0.429909 0.287405 0.142158
0.496193 0.286345 0.140956
0.562303 0.285288 0.139756
0.628261 0.284234 0.138559
0.694082 0.283181 0.137365
0.759779 0.282131 0.136173
0.825365 0.281082 0.134983
0.890848 0.280035 0.133795
0.956236 0.278990 0.132609
1.000000 0.277946 0.131424
1.000000 0.276903 0.130241
0.022282 0.358276 0.145403
0.091212 0.357174 0.144152
0.159160 0.356088 0.142919
0.226561 0.355010 0.141697
0.293579 0.353938 0.140481
0.360303 0.352872 0.139270
0.426788 0.351809 0.138064
0.493072 0.350749 0.136861
0.559182 0.349692 0.135662
0.625139 0.348637 0.134465
0.690960 0.347585 0.133271
0.756658 0.346534 0.132079
0.822243 0.345486 0.130889
0.887726 0.344439 0.129700
0.953114 0.343393 0.128514
1.000000 0.342349 0.127329
1.000000 0.341307 0.126146
0.019172 0.422445 0.141323
0.088102 0.421343 0.140073
0.156050 0.420257 0.138840
0.223450 0.419179 0.137617
0.290468 0.418108 0.136401
0.357192 0.417041 0.135190
0.423677 0.415978 0.133984
0.489961 0.414918 0.132781
0.556071 0.413861 0.131582
0.622028 0.412806 0.130385
0.687849 0.411754 0.129191
0.753547 0.410704 0.127999
0.819133 0.409655 0.126809
0.884616 0.408608 0.125621
0.950004 0.407563 0.124434
1.000000 0.406521 0.123358
1.000000 0.405482 0.122319
0.016071 0.486418 0.137256
0.085001 0.485315 0.136005
0.152949 0.484229 0.134773
0.220349 0.483151 0.133550
0.287368 0.482080 0.132334
0.354092 0.481013 0.131123
0.420577 0.479950 0.129917
0.486860 0.478890 0.128714
0.552970 0.477833 0.127515
0.618928 0.476779 0.126318
0.684749 0.475726 0.125124
0.750398 0.474677 0.123957
0.815705 0.473632 0.122912
0.880909 0.472588 0.121869
0.946018 0.471547 0.120827
1.000000 0.470506 0.119787
1.000000 0.469467 0.118748
0.012979 0.550220 0.133200
0.081908 0.549118 0.131949
0.149856 0.548032 0.130716
0.217257 0.546954 0.129493
0.284275 0.545883 0.128277
0.350999 0.544816 0.127067
0.417484 0.543753 0.125860
0.483768 0.542693 0.124658
0.549718 0.541638 0.123541
0.615395 0.540587 0.122490
0.680936 0.539539 0.121442
0.746354 0.538492 0.120395
0.811661 0.537447 0.119350
0.876865 0.536404 0.118307
0.941975 0.535362 0.117265
1.000000 0.534322 0.116225
1.000000 0.533283 0.115186
0.009893 0.613874 0.129153
0.078823 0.612772 0.127902
0.146771 0.611686 0.126669
0.214171 0.610608 0.125446
0.281190 0.609537 0.124230
0.347651 0.608473 0.123156
0.413853 0.607414 0.122097
0.479855 0.606358 0.121041
0.545684 0.605305 0.119988
0.611360 0.604254 0.118937
0.676901 0.603205 0.117888
0.742320 0.602159 0.116841
0.807627 0.601114 0.115796
0.872831 0.600070 0.114753
0.937940 0.599029 0.113711
1.000000 0.597988 0.112671
1.000000 0.596949 0.111632
0.006814 0.677395 0.125114
0.075679 0.676294 0.123897
0.143338 0.675212 0.122815
0.210452 0.674138 0.121741
0.277185 0.673070 0.120673
0.343625 0.672007 0.119610
0.409827 0.670948 0.118551
0.475829 0.669892 0.117495
0.541658 0.668838 0.116441
0.607335 0.667788 0.115391
0.672875 0.666739 0.114342
0.738294 0.665692 0.113295
0.803601 0.664647 0.112250
0.868805 0.663604 0.111207
0.933914 0.662562 0.110165
0.998936 0.661522 0.109125
1.000000 0.660483 0.108086
0.003025 0.740806 0.121456
0.071661 0.739708 0.120358
0.139320 0.738625 0.119275
0.206434 0.737552 0.118201
0.273167 0.736484 0.117134
0.339607 0.735421 0.116070
0.405809 0.734362 0.115011
0.471811 0.733306 0.113955
0.537640 0.732252 0.112902
0.603316 0.731201 0.111851
0.668857 0.730153 0.110802
0.734276 0.729106 0.109756
0.799582 0.728061 0.108711
0.864787 0.727018 0.107668
0.929896 0.725976 0.106626
0.994917 0.724936 0.105585
1.000000 0.723897 0.104546
0.000000 0.804111 0.117922
0.067650 0.803013 0.116824
0.135308 0.801930 0.115742
0.202422 0.800857 0.114668
0.269155 0.799789 0.113600
0.335595 0.798726 0.112537
0.401798 0.797667 0.111478
0.467799 0.796611 0.110422
0.533628 0.795557 0.109368
0.599305 0.794506 0.108318
0.664846 0.793458 0.107269
0.730264 0.792411 0.106222
0.795571 0.791366 0.105177
0.860775 0.790323 0.104134
0.925885 0.789281 0.103092
0.990906 0.788241 0.102052
1.000000 0.787202 0.101013
0.000000 0.867316 0.114395
0.063644 0.866218 0.113296
0.131303 0.865135 0.112214
0.198417 0.864061 0.111140
0.265150 0.862994 0.110072
0.331590 0.861931 0.109009
0.397792 0.860871 0.107950
0.463794 0.859815 0.106894
0.529623 0.858762 0.105841
0.595300 0.857711 0.104790
0.660841 0.856663 0.103741
0.726259 0.855616 0.102694
0.791566 0.854571 0.101650
0.856770 0.853528 0.100606
0.921879 0.852486 0.099565
0.986901 0.851446 0.098524
1.000000 0.850407 0.097485
0.000000 0.930428 0.110872
0.059645 0.929330 0.109774
0.127304 0.928248 0.108691
0.194418 0.927174 0.107617
0.261151 0.926106 0.106550
0.327591 0.925043 0.105487
0.393793 0.923984 0.104427
0.459795 0.922928 0.103371
0.525624 0.921875 0.102318
0.591300 0.920824 0.101267
0.656841 0.919775 0.100218
0.722260 0.918728 0.099172
0.787566 0.917683 0.098127
0.852771 0.916640 0.097084
0.917880 0.915598 0.096042
0.982902 0.914558 0.095001
1.000000 0.913519 0.093962
0.000000 0.993455 0.107354
0.055651 0.992357 0.106256
0.123310 0.991274 0.105173
0.190424 0.990200 0.104099
0.257157 0.989133 0.103032
0.323597 0.988070 0.101969
0.389799 0.987010 0.100909
0.455801 0.985954 0.099853
0.521630 0.984901 0.098800
0.587307 0.983850 0.097749
0.652847 0.982802 0.096701
0.718266 0.981755 0.095654
0.783573 0.980710 0.094609
0.848777 0.979667 0.093566
0.913886 0.978625 0.092524
0.978908 0.977585 0.091484
1.000000 0.976546 0.090445
0.000000 1.000000 0.103841
0.051663 1.000000 0.102742
0.119321 1.000000 0.101660
0.186435 1.000000 0.100586
0.253168 1.000000 0.099518
0.319609 1.000000 0.098455
0.385811 1.000000 0.097396
0.451812 1.000000 0.096340
0.517641 1.000000 0.095287
0.583318 1.000000 0.094236
0.648859 1.000000 0.093187
0.714277 1.000000 0.092141
0.779584 1.000000 0.091096
0.844788 1.000000 0.090052
0.909898 1.000000 0.089011
0.974919 1.000000 0.087970
1.000000 1.000000 0.086931
0.037785 0.031479 0.234839
0.106714 0.030377 0.233588
0.174662 0.029290 0.232355
0.242063 0.028213 0.231133
0.309081 0.027141 0.229917
0.375805 0.026074 0.228706
0.442290 0.025011 0.227500
0.508574 0.023951 0.226297
0.574684 0.022894 0.225098
0.640641 0.021840 0.223901
0.706462 0.020787 0.222707
