assets/luts/generated_genre/bs_commercial_hyperreal_punch_c74ac6293d7be199.cube
# V4 spec-generated LUT — bs_commercial_hyperreal_punch
# Genre: commercial
# Look: Hyperreal premium commercial — glossy, vivid, soft bloom. Apple Shot on iPhone, Lance Acord.
# Spec hash: c74ac6293d7be199
TITLE "V4 Spec LUT — bs_commercial_hyperreal_punch"
LUT_3D_SIZE 17
DOMAIN_MIN 0.0 0.0 0.0
DOMAIN_MAX 1.0 1.0 1.0
0.000001 0.000001 0.000001
0.047430 0.000000 0.000000
0.117606 0.000000 0.000000
0.188233 0.000000 0.000000
0.259132 0.000000 0.000000
0.330228 0.000000 0.000000
0.401479 0.000000 0.000000
0.472857 0.000000 0.000000
0.544343 0.000000 0.000000
0.615924 0.000000 0.000000
0.687588 0.000000 0.000000
0.759327 0.000000 0.000000
0.831134 0.000000 0.000000
0.903003 0.000000 0.000000
0.974929 0.000000 0.000000
1.000000 0.000000 0.000000
1.000000 0.000000 0.000000
0.000000 0.045865 0.000000
0.045203 0.045203 0.000000
0.115379 0.044223 0.000000
0.186005 0.043237 0.000000
0.256904 0.042247 0.000000
0.328001 0.041255 0.000000
0.399251 0.040260 0.000000
0.470629 0.039264 0.000000
0.542116 0.038266 0.000000
0.613696 0.037266 0.000000
0.685360 0.036266 0.000000
0.757099 0.035264 0.000000
0.828906 0.034262 0.000000
0.900775 0.033259 0.000000
0.972702 0.032255 0.000000
1.000000 0.031250 0.000000
1.000000 0.030244 0.000000
0.000000 0.113725 0.000000
0.041907 0.113063 0.000000
0.112083 0.112083 0.000000
0.182710 0.111097 0.000000
0.253609 0.110107 0.000000
0.324705 0.109115 0.000000
0.395956 0.108120 0.000000
0.467334 0.107124 0.000000
0.538820 0.106126 0.000000
0.610401 0.105126 0.000000
0.682065 0.104126 0.000000
0.753804 0.103124 0.000000
0.825611 0.102122 0.000000
0.897480 0.101119 0.000000
0.969406 0.100114 0.000000
1.000000 0.099110 0.000000
1.000000 0.098104 0.000000
0.000000 0.182021 0.000000
0.038590 0.181358 0.000000
0.108766 0.180379 0.000000
0.179393 0.179393 0.000000
0.250292 0.178403 0.000000
0.321388 0.177410 0.000000
0.392639 0.176416 0.000000
0.464017 0.175419 0.000000
0.535503 0.174421 0.000000
0.607084 0.173422 0.000000
0.678748 0.172422 0.000000
0.750487 0.171420 0.000000
0.822294 0.170418 0.000000
0.894163 0.169414 0.000000
0.966089 0.168410 0.000000
1.000000 0.167405 0.000000
1.000000 0.166400 0.000000
0.000000 0.250580 0.000000
0.035261 0.249918 0.000000
0.105436 0.248938 0.000000
0.176063 0.247952 0.000000
0.246962 0.246962 0.000000
0.318058 0.245970 0.000000
0.389309 0.244975 0.000000
0.460687 0.243978 0.000000
0.532173 0.242980 0.000000
0.603754 0.241981 0.000000
0.675418 0.240981 0.000000
0.747157 0.239979 0.000000
0.818964 0.238977 0.000000
0.890833 0.237973 0.000000
0.962760 0.236969 0.000000
1.000000 0.235964 0.000000
1.000000 0.234959 0.000000
0.000000 0.319329 0.000000
0.031922 0.318667 0.000000
0.102098 0.317688 0.000000
0.172724 0.316702 0.000000
0.243623 0.315712 0.000000
0.314719 0.314719 0.000000
0.385970 0.313725 0.000000
0.457348 0.312728 0.000000
0.528834 0.311730 0.000000
0.600415 0.310731 0.000000
0.672079 0.309730 0.000000
0.743818 0.308729 0.000000
0.815625 0.307726 0.000000
0.887494 0.306723 0.000000
0.959421 0.305719 0.000000
1.000000 0.304714 0.000000
1.000000 0.303709 0.000000
0.000000 0.388229 0.000000
0.028575 0.387566 0.000000
0.098751 0.386587 0.000000
0.169378 0.385601 0.000000
0.240277 0.384611 0.000000
0.311373 0.383618 0.000000
0.382624 0.382624 0.000000
0.454002 0.381627 0.000000
0.525488 0.380629 0.000000
0.597069 0.379630 0.000000
0.668733 0.378630 0.000000
0.740472 0.377628 0.000000
0.812279 0.376626 0.000000
0.884148 0.375622 0.000000
0.956074 0.374618 0.000000
1.000000 0.373613 0.000000
1.000000 0.372608 0.000000
0.000000 0.457251 0.000000
0.025223 0.456589 0.000000
0.095399 0.455609 0.000000
0.166026 0.454623 0.000000
0.236925 0.453633 0.000000
0.308021 0.452641 0.000000
0.379272 0.451646 0.000000
0.450650 0.450650 0.000000
0.522136 0.449652 0.000000
0.593717 0.448652 0.000000
0.665381 0.447652 0.000000
0.737120 0.446650 0.000000
0.808927 0.445648 0.000000
0.880796 0.444645 0.000000
0.952964 0.443882 0.000000
1.000000 0.443163 0.000000
1.000000 0.442445 0.000000
0.000000 0.526378 0.000000
0.021866 0.525716 0.000000
0.092042 0.524736 0.000000
0.162668 0.523750 0.000000
0.233568 0.522760 0.000000
0.304664 0.521768 0.000000
0.375914 0.520773 0.000000
0.447292 0.519777 0.000000
0.518779 0.518779 0.000000
0.590359 0.517779 0.000000
0.662078 0.516834 0.000000
0.734103 0.516118 0.000000
0.806196 0.515401 0.000000
0.878351 0.514684 0.000000
0.950564 0.513966 0.000000
1.000000 0.513248 0.000000
1.000000 0.512529 0.000000
0.000000 0.595596 0.000000
0.018504 0.594934 0.000000
0.088680 0.593954 0.000000
0.159307 0.592968 0.000000
0.230206 0.591979 0.000000
0.301302 0.590986 0.000000
0.372553 0.589991 0.000000
0.444089 0.589154 0.000000
0.515860 0.588440 0.000000
0.587726 0.587726 0.000000
0.659675 0.587011 0.000000
0.731700 0.586295 0.000000
0.803792 0.585578 0.000000
0.875948 0.584861 0.000000
0.948160 0.584143 0.000000
1.000000 0.583425 0.000000
1.000000 0.582706 0.000000
0.000000 0.664895 0.000000
0.015139 0.664233 0.000000
0.085315 0.663253 0.000000
0.155941 0.662267 0.000000
0.227108 0.661545 0.000000
0.298487 0.660836 0.000000
0.370021 0.660124 0.000000
0.441683 0.659412 0.000000
0.513454 0.658699 0.000000
0.585320 0.657984 0.000000
0.657269 0.657269 0.000000
0.729294 0.656553 0.000000
0.801386 0.655837 0.000000
0.873542 0.655119 0.000000
0.945754 0.654401 0.000000
1.000000 0.653683 0.000000
1.000000 0.652964 0.000000
0.000000 0.734463 0.000000
0.012155 0.733990 0.000000
0.082610 0.733290 0.000000
0.153518 0.732585 0.000000
0.224699 0.731877 0.000000
0.296078 0.731168 0.000000
0.367613 0.730456 0.000000
0.439275 0.729744 0.000000
0.511046 0.729031 0.000000
0.582911 0.728316 0.000000
0.654861 0.727601 0.000000
0.726885 0.726885 0.000000
0.798978 0.726169 0.000000
0.871133 0.725451 0.000000
0.943346 0.724733 0.000000
1.000000 0.724015 0.000000
1.000000 0.723296 0.000000
0.000000 0.804862 0.000000
0.009744 0.804388 0.000000
0.080199 0.803688 0.000000
0.151107 0.802983 0.000000
0.222288 0.802276 0.000000
0.293668 0.801566 0.000000
0.365202 0.800855 0.000000
0.436864 0.800143 0.000000
0.508635 0.799429 0.000000
0.580500 0.798715 0.000000
0.652450 0.798000 0.000000
0.724474 0.797284 0.000000
0.796567 0.796567 0.000000
0.868722 0.795850 0.000000
0.940935 0.795132 0.000000
1.000000 0.794414 0.000000
1.000000 0.793695 0.000000
0.000000 0.875321 0.000000
0.007331 0.874848 0.000000
0.077787 0.874148 0.000000
0.148694 0.873443 0.000000
0.219876 0.872735 0.000000
0.291255 0.872026 0.000000
0.362789 0.871315 0.000000
0.434451 0.870602 0.000000
0.506222 0.869889 0.000000
0.578088 0.869174 0.000000
0.650037 0.868459 0.000000
0.722061 0.867743 0.000000
0.794154 0.867027 0.000000
0.866309 0.866309 0.000000
0.938522 0.865592 0.000000
1.000000 0.864873 0.000000
1.000000 0.864154 0.000000
0.000000 0.945837 0.000000
0.004916 0.945364 0.000000
0.075372 0.944663 0.000000
0.146279 0.943959 0.000000
0.217461 0.943251 0.000000
0.288840 0.942541 0.000000
0.360374 0.941830 0.000000
0.432036 0.941118 0.000000
0.503807 0.940405 0.000000
0.575673 0.939690 0.000000
0.647622 0.938975 0.000000
0.719647 0.938259 0.000000
0.791739 0.937542 0.000000
0.863895 0.936825 0.000000
0.936107 0.936107 0.000000
1.000000 0.935389 0.000000
1.000000 0.934670 0.000000
0.000000 1.000000 0.000000
0.002500 1.000000 0.000000
0.072955 1.000000 0.000000
0.143863 1.000000 0.000000
0.215044 1.000000 0.000000
0.286423 1.000000 0.000000
0.357958 1.000000 0.000000
0.429620 1.000000 0.000000
0.501391 1.000000 0.000000
0.573256 1.000000 0.000000
0.645205 1.000000 0.000000
0.717230 1.000000 0.000000
0.789323 1.000000 0.000000
0.861478 1.000000 0.000000
0.933691 1.000000 0.000000
1.000000 1.000000 0.000000
1.000000 1.000000 0.000000
0.000000 1.000000 0.000000
0.000082 1.000000 0.000000
0.070537 1.000000 0.000000
0.141445 1.000000 0.000000
0.212626 1.000000 0.000000
0.284005 1.000000 0.000000
0.355539 1.000000 0.000000
0.427201 1.000000 0.000000
0.498972 1.000000 0.000000
0.570838 1.000000 0.000000
0.642787 1.000000 0.000000
0.714812 1.000000 0.000000
0.786905 1.000000 0.000000
0.859060 1.000000 0.000000
0.931272 1.000000 0.000000
1.000000 1.000000 0.000000
1.000000 1.000000 0.000000
0.000000 0.000000 0.047833
0.047205 0.000000 0.047068
0.117381 0.000000 0.045938
0.188008 0.000000 0.044799
0.258907 0.000000 0.043657
0.330003 0.000000 0.042511
0.401254 0.000000 0.041363
0.472632 0.000000 0.040212
0.544118 0.000000 0.039060
0.615699 0.000000 0.037907
0.687363 0.000000 0.036752
0.759102 0.000000 0.035595
0.830909 0.000000 0.034438
0.902778 0.000000 0.033280
0.974704 0.000000 0.032121
1.000000 0.000000 0.030961
1.000000 0.000000 0.029800
0.000000 0.045640 0.045261
0.044978 0.044978 0.044497
0.115154 0.043998 0.043366
0.185781 0.043012 0.042228
0.256680 0.042023 0.041085
0.327776 0.041030 0.039939
0.399026 0.040035 0.038791
0.470404 0.039039 0.037641
0.541891 0.038041 0.036489
0.613471 0.037042 0.035335
0.685136 0.036041 0.034180
0.756875 0.035040 0.033024
0.828681 0.034037 0.031867
0.900551 0.033034 0.030709
0.972477 0.032030 0.029549
1.000000 0.031025 0.028389
1.000000 0.030019 0.027228
0.000000 0.113500 0.041457
0.041682 0.112838 0.040692
0.111858 0.111858 0.039561
0.182485 0.110872 0.038423
0.253384 0.109882 0.037281
0.324480 0.108890 0.036135
0.395731 0.107895 0.034987
0.467109 0.106899 0.033836
0.538595 0.105901 0.032684
0.610176 0.104901 0.031531
0.681840 0.103901 0.030376
0.753579 0.102900 0.029219
0.825386 0.101897 0.028062
0.897255 0.100894 0.026904
0.969181 0.099890 0.025745
1.000000 0.098885 0.024585
1.000000 0.097879 0.023424
0.000000 0.181796 0.037628
0.038365 0.181134 0.036863
0.108541 0.180154 0.035732
0.179168 0.179168 0.034594
0.250067 0.178178 0.033452
0.321163 0.177186 0.032306
0.392414 0.176191 0.031157
0.463792 0.175194 0.030007
0.535278 0.174196 0.028855
0.606859 0.173197 0.027701
0.678523 0.172197 0.026546
0.750262 0.171195 0.025390
0.822069 0.170193 0.024233
0.893938 0.169189 0.023075
0.965864 0.168185 0.021916
1.000000 0.167180 0.020756
1.000000 0.166175 0.019595
0.000000 0.250355 0.033784
0.035036 0.249693 0.033020
0.105212 0.248713 0.031889
0.175838 0.247727 0.030750
0.246737 0.246737 0.029608
0.317833 0.245745 0.028462
0.389084 0.244750 0.027314
0.460462 0.243754 0.026163
0.531948 0.242756 0.025011
0.603529 0.241756 0.023858
0.675193 0.240756 0.022703
0.746932 0.239754 0.021546
0.818739 0.238752 0.020389
0.890608 0.237749 0.019231
0.962535 0.236744 0.018072
1.000000 0.235740 0.016912
1.000000 0.234734 0.015751
0.000000 0.319105 0.029929
0.031697 0.318442 0.029165
0.101873 0.317463 0.028034
0.172499 0.316477 0.026896
0.243398 0.315487 0.025753
0.314494 0.314494 0.024607
0.385745 0.313500 0.023459
0.457123 0.312503 0.022309
0.528610 0.311505 0.021157
0.600190 0.310506 0.020003
0.671854 0.309506 0.018848
0.743593 0.308504 0.017692
0.815400 0.307502 0.016535
0.887269 0.306498 0.015376
0.959196 0.305494 0.014217
1.000000 0.304489 0.013057
1.000000 0.303484 0.011896
0.000000 0.388004 0.026066
0.028350 0.387342 0.025302
0.098526 0.386362 0.024171
0.169153 0.385376 0.023033
0.240052 0.384386 0.021890
0.311148 0.383394 0.020744
0.382399 0.382399 0.019596
0.453777 0.381402 0.018446
0.525263 0.380404 0.017294
0.596844 0.379405 0.016140
0.668508 0.378405 0.014985
0.740247 0.377403 0.013829
0.812054 0.376401 0.012672
0.883923 0.375397 0.011514
0.955850 0.374393 0.010354
1.000000 0.373388 0.009194
1.000000 0.372383 0.008033
0.000000 0.457026 0.022197
0.024998 0.456364 0.021432
0.095174 0.455384 0.020301
0.165801 0.454398 0.019163
0.236700 0.453408 0.018020
0.307796 0.452416 0.016875
0.379047 0.451421 0.015726
0.450425 0.450425 0.014576
0.521911 0.449427 0.013424
0.593492 0.448427 0.012270
0.665156 0.447427 0.011115
0.736895 0.446426 0.009959
0.808702 0.445423 0.008802
0.880590 0.444439 0.007673
0.952803 0.443721 0.006955
1.000000 0.443003 0.006237
1.000000 0.442284 0.005518
0.000000 0.526153 0.018321
0.021641 0.525491 0.017557
0.091817 0.524511 0.016426
0.162444 0.523525 0.015287
0.233343 0.522536 0.014145
0.304439 0.521543 0.012999
0.375689 0.520548 0.011851
0.447067 0.519552 0.010700
0.518554 0.518554 0.009548
0.590134 0.517555 0.008395
0.661918 0.516673 0.007423
0.733942 0.515957 0.006707
0.806035 0.515240 0.005991
0.878190 0.514523 0.005273
0.950403 0.513805 0.004555
1.000000 0.513087 0.003837
1.000000 0.512368 0.003118
0.000000 0.595371 0.014440
0.018279 0.594709 0.013676
0.088455 0.593730 0.012545
0.159082 0.592744 0.011407
0.229981 0.591754 0.010264
0.301077 0.590761 0.009118
0.372328 0.589767 0.007970
0.443929 0.588993 0.007163
0.515699 0.588279 0.006449
0.587565 0.587565 0.005735
0.659514 0.586850 0.005020
0.731539 0.586134 0.004304
0.803632 0.585417 0.003587
0.875787 0.584700 0.002870
0.948000 0.583982 0.002152
1.000000 0.583264 0.001434
1.000000 0.582545 0.000715
0.000000 0.664670 0.010555
0.014914 0.664008 0.009790
0.085090 0.663028 0.008659
0.155766 0.662092 0.007597
0.226947 0.661384 0.006890
0.298326 0.660675 0.006180
0.369860 0.659964 0.005469
0.441523 0.659251 0.004757
0.513293 0.658538 0.004043
0.585159 0.657824 0.003329
0.657108 0.657108 0.002614
0.729133 0.656392 0.001898
0.801226 0.655676 0.001181
0.873381 0.654959 0.000464
0.945594 0.654241 0.000000
1.000000 0.653522 0.000000
1.000000 0.652803 0.000000
0.000000 0.734302 0.007067
0.011994 0.733829 0.006594
0.082449 0.733129 0.005894
0.153357 0.732424 0.005189
0.224538 0.731716 0.004481
0.295918 0.731007 0.003772
0.367452 0.730296 0.003061
0.439114 0.729583 0.002348
0.510885 0.728870 0.001635
0.582750 0.728156 0.000921
0.654700 0.727440 0.000205
0.726724 0.726724 0.000000
0.798817 0.726008 0.000000
0.870972 0.725290 0.000000
0.943185 0.724573 0.000000
1.000000 0.723854 0.000000
1.000000 0.723135 0.000000
0.000000 0.804701 0.004657
0.009583 0.804228 0.004183
0.080039 0.803527 0.003483
0.150946 0.802823 0.002778
0.222128 0.802115 0.002071
0.293507 0.801405 0.001361
0.365041 0.800694 0.000650
0.436703 0.799982 0.000000
0.508474 0.799269 0.000000
0.580340 0.798554 0.000000
0.652289 0.797839 0.000000
0.724314 0.797123 0.000000
0.796406 0.796406 0.000000
0.868562 0.795689 0.000000
0.940774 0.794971 0.000000
1.000000 0.794253 0.000000
1.000000 0.793534 0.000000
0.000000 0.875161 0.002244
0.007170 0.874687 0.001770
0.077626 0.873987 0.001070
0.148533 0.873282 0.000365
0.219715 0.872574 0.000000
0.291094 0.871865 0.000000
0.362628 0.871154 0.000000
0.434290 0.870442 0.000000
0.506061 0.869728 0.000000
0.577927 0.869014 0.000000
0.649876 0.868298 0.000000
0.721901 0.867583 0.000000
0.793993 0.866866 0.000000
0.866149 0.866149 0.000000
0.938361 0.865431 0.000000
1.000000 0.864712 0.000000
1.000000 0.863994 0.000000
0.000000 0.945676 0.000000
0.004756 0.945203 0.000000
0.075211 0.944503 0.000000
0.146119 0.943798 0.000000
0.217300 0.943090 0.000000
0.288679 0.942381 0.000000
0.360213 0.941670 0.000000
0.431876 0.940957 0.000000
0.503646 0.940244 0.000000
0.575512 0.939529 0.000000
0.647461 0.938814 0.000000
0.719486 0.938098 0.000000
0.791579 0.937382 0.000000
0.863734 0.936664 0.000000
0.935947 0.935947 0.000000
1.000000 0.935228 0.000000
1.000000 0.934509 0.000000
0.000000 1.000000 0.000000
0.002339 1.000000 0.000000
0.072794 1.000000 0.000000
0.143702 1.000000 0.000000
0.214883 1.000000 0.000000
0.286262 1.000000 0.000000
0.357797 1.000000 0.000000
0.429459 1.000000 0.000000
0.501230 1.000000 0.000000
0.573095 1.000000 0.000000
0.645045 1.000000 0.000000
0.717069 1.000000 0.000000
0.789162 1.000000 0.000000
0.861317 1.000000 0.000000
0.933530 1.000000 0.000000
1.000000 1.000000 0.000000
1.000000 1.000000 0.000000
0.000000 1.000000 0.000000
0.000000 1.000000 0.000000
0.070376 1.000000 0.000000
0.141284 1.000000 0.000000
0.212465 1.000000 0.000000
0.283844 1.000000 0.000000
0.355379 1.000000 0.000000
0.427041 1.000000 0.000000
0.498812 1.000000 0.000000
0.570677 1.000000 0.000000
0.642626 1.000000 0.000000
0.714651 1.000000 0.000000
0.786744 1.000000 0.000000
0.858899 1.000000 0.000000
0.931112 1.000000 0.000000
1.000000 1.000000 0.000000
1.000000 1.000000 0.000000
0.000000 0.000000 0.118604
0.046873 0.000000 0.117840
0.117049 0.000000 0.116709
0.187675 0.000000 0.115571
0.258574 0.000000 0.114428
0.329671 0.000000 0.113282
0.400921 0.000000 0.112134
0.472299 0.000000 0.110984
0.543786 0.000000 0.109832
0.615366 0.000000 0.108678
0.687030 0.000000 0.107523
0.758769 0.000000 0.106367
0.830576 0.000000 0.105210
0.902445 0.000000 0.104052
0.974372 0.000000 0.102892
1.000000 0.000000 0.101732
1.000000 0.000000 0.100571
0.000000 0.045307 0.116033
0.044645 0.044645 0.115269
0.114821 0.043666 0.114138
0.185448 0.042680 0.112999
0.256347 0.041690 0.111857
0.327443 0.040697 0.110711
0.398694 0.039703 0.109563
0.470072 0.038706 0.108412
0.541558 0.037708 0.107260
0.613139 0.036709 0.106107
0.684803 0.035708 0.104952
0.756542 0.034707 0.103796
0.828349 0.033704 0.102638
0.900218 0.032701 0.101480
0.972144 0.031697 0.100321
1.000000 0.030692 0.099161
1.000000 0.029687 0.098000
0.000000 0.113167 0.112228
0.041350 0.112505 0.111464
0.111526 0.111526 0.110333
0.182152 0.110540 0.109195
0.253051 0.109550 0.108052
0.324147 0.108557 0.106906
0.395398 0.107563 0.105758
0.466776 0.106566 0.104608
0.538262 0.105568 0.103456
0.609843 0.104569 0.102302
0.681507 0.103568 0.101147
0.753246 0.102567 0.099991
0.825053 0.101564 0.098834
0.896922 0.100561 0.097675
0.968849 0.099557 0.096516
1.000000 0.098552 0.095356
1.000000 0.097546 0.094195
0.000000 0.181463 0.108399
0.038033 0.180801 0.107635
0.108209 0.179821 0.106504
0.178835 0.178835 0.105366
0.249734 0.177845 0.104223
0.320830 0.176853 0.103077
0.392081 0.175858 0.101929
0.463459 0.174862 0.100779
0.534945 0.173864 0.099627
0.606526 0.172864 0.098473
0.678190 0.171864 0.097318
0.749929 0.170862 0.096162
0.821736 0.169860 0.095005
0.893605 0.168857 0.093846
0.965532 0.167853 0.092687
1.000000 0.166848 0.091527
1.000000 0.165842 0.090366
0.000000 0.250022 0.104555
0.034703 0.249360 0.103791
0.104879 0.248380 0.102660
0.175505 0.247394 0.101522
0.246405 0.246405 0.100379
0.317501 0.245412 0.099233
0.388751 0.244417 0.098085
0.460129 0.243421 0.096935
0.531616 0.242423 0.095783
0.603196 0.241424 0.094629
0.674861 0.240423 0.093474
0.746600 0.239422 0.092318
0.818406 0.238419 0.091161
0.890276 0.237416 0.090003
0.962202 0.236412 0.088843
1.000000 0.235407 0.087683
1.000000 0.234401 0.086523
0.000000 0.318772 0.100701
0.031364 0.318110 0.099937
0.101540 0.317130 0.098806
0.172167 0.316144 0.097667
0.243066 0.315154 0.096525
0.314162 0.314162 0.095379
0.385412 0.313167 0.094231
0.456790 0.312171 0.093080
0.528277 0.311173 0.091928
0.599857 0.310173 0.090775
0.671522 0.309173 0.089620
0.743261 0.308171 0.088464
0.815067 0.307169 0.087306
0.886937 0.306166 0.086148
0.958863 0.305161 0.084989
1.000000 0.304157 0.083829
1.000000 0.303151 0.082668
0.000000 0.387671 0.096838
0.028018 0.387009 0.096074
0.098194 0.386029 0.094943
0.168820 0.385043 0.093804
0.239719 0.384053 0.092662
0.310816 0.383061 0.091516
0.382066 0.382066 0.090368
0.453444 0.381070 0.089217
0.524931 0.380072 0.088065
0.596511 0.379072 0.086912
0.668175 0.378072 0.085757
0.739914 0.377070 0.084601
0.811721 0.376068 0.083443
0.883590 0.375065 0.082285
0.955517 0.374061 0.081126
1.000000 0.373056 0.079966
1.000000 0.372068 0.078832
0.000000 0.456693 0.092968
0.024666 0.456031 0.092204
0.094842 0.455052 0.091073
0.165468 0.454066 0.089935
0.236367 0.453076 0.088792
0.307463 0.452083 0.087646
0.378714 0.451089 0.086498
0.450092 0.450092 0.085348
0.521578 0.449094 0.084196
0.593159 0.448095 0.083042
0.664823 0.447094 0.081887
0.736562 0.446093 0.080731
0.808369 0.445090 0.079574
0.880352 0.444201 0.078591
0.952565 0.443483 0.077873
1.000000 0.442765 0.077155
1.000000 0.442046 0.076436
0.000000 0.525820 0.089093
0.021308 0.525158 0.088328
0.091484 0.524179 0.087197
0.162111 0.523193 0.086059
0.233010 0.522203 0.084916
0.304106 0.521210 0.083771
0.375357 0.520216 0.082622
0.446735 0.519219 0.081472
0.518221 0.518221 0.080320
0.589802 0.517222 0.079166
0.661680 0.516435 0.078341
0.733704 0.515719 0.077625
0.805797 0.515003 0.076908
0.877952 0.514285 0.076191
0.950165 0.513568 0.075473
1.000000 0.512849 0.074755
1.000000 0.512130 0.074036
0.000000 0.595039 0.085212
0.017947 0.594377 0.084447
0.088123 0.593397 0.083316
0.158749 0.592411 0.082178
0.229648 0.591421 0.081036
0.300744 0.590429 0.079890
0.372029 0.589467 0.078793
0.443691 0.588755 0.078081
0.515462 0.588042 0.077367
0.587327 0.587327 0.076653
0.659277 0.586612 0.075938
0.731301 0.585896 0.075222
0.803394 0.585179 0.074505
0.875549 0.584462 0.073788
0.947762 0.583744 0.073070
1.000000 0.583026 0.072352
1.000000 0.582307 0.071633
0.000000 0.664338 0.081326
0.014581 0.663675 0.080562
0.084757 0.662696 0.079431
0.155528 0.661854 0.078515
0.226709 0.661146 0.077808
0.298088 0.660437 0.077098
0.369623 0.659726 0.076387
0.441285 0.659014 0.075675
0.513056 0.658300 0.074961
0.584921 0.657586 0.074247
0.656871 0.656871 0.073532
0.728895 0.656155 0.072816
0.800988 0.655438 0.072099
0.873143 0.654721 0.071382
0.945356 0.654003 0.070664
1.000000 0.653284 0.069946
1.000000 0.652566 0.069227
0.000000 0.734065 0.077985
0.011756 0.733591 0.077512
0.082212 0.732891 0.076812
0.153119 0.732186 0.076107
0.224301 0.731478 0.075399
0.295680 0.730769 0.074690
0.367214 0.730058 0.073979
0.438876 0.729346 0.073266
0.510647 0.728632 0.072553
0.582513 0.727918 0.071838
0.654462 0.727202 0.071123
0.726487 0.726487 0.070407
0.798579 0.725770 0.069691
0.870734 0.725053 0.068973
0.942947 0.724335 0.068256
1.000000 0.723616 0.067537
1.000000 0.722898 0.066818
0.000000 0.804463 0.075575
0.009346 0.803990 0.075101
0.079801 0.803290 0.074401
0.150708 0.802585 0.073696
0.221890 0.801877 0.072988
0.293269 0.801168 0.072279
0.364803 0.800456 0.071568
0.436465 0.799744 0.070855
0.508236 0.799031 0.070142
0.580102 0.798316 0.069428
0.652051 0.797601 0.068712
0.724076 0.796885 0.067996
0.796169 0.796169 0.067280
0.868324 0.795451 0.066563
0.940536 0.794733 0.065845
1.000000 0.794015 0.065126
1.000000 0.793296 0.064408
0.000000 0.874923 0.073162
0.006933 0.874449 0.072688
0.077388 0.873749 0.071988
0.148296 0.873044 0.071283
0.219477 0.872337 0.070575
0.290856 0.871627 0.069866
0.362390 0.870916 0.069155
0.434052 0.870204 0.068443
0.505823 0.869490 0.067729
0.577689 0.868776 0.067015
0.649638 0.868061 0.066300
0.721663 0.867345 0.065584
0.793756 0.866628 0.064867
0.865911 0.865911 0.064150
0.938124 0.865193 0.063432
1.000000 0.864475 0.062713
1.000000 0.863756 0.061995
0.000000 0.945438 0.070747
0.004518 0.944965 0.070273
0.074973 0.944265 0.069573
0.145881 0.943560 0.068868
0.217062 0.942852 0.068161
0.288441 0.942143 0.067451
0.359976 0.941432 0.066740
0.431638 0.940719 0.066028
0.503409 0.940006 0.065314
0.575274 0.939292 0.064600
0.647223 0.938576 0.063885
0.719248 0.937860 0.063169
0.791341 0.937144 0.062452
0.863496 0.936427 0.061735
0.935709 0.935709 0.061017
1.000000 0.934990 0.060299
1.000000 0.934272 0.059580
0.000000 1.000000 0.068330
0.002101 1.000000 0.067857
0.072557 1.000000 0.067157
0.143464 1.000000 0.066452
0.214646 1.000000 0.065744
0.286025 1.000000 0.065035
0.357559 1.000000 0.064323
0.429221 1.000000 0.063611
0.500992 1.000000 0.062898
0.572858 1.000000 0.062183
0.644807 1.000000 0.061468
0.716831 1.000000 0.060752
0.788924 1.000000 0.060036
0.861079 1.000000 0.059318
0.933292 1.000000 0.058600
1.000000 1.000000 0.057882
1.000000 1.000000 0.057163
0.000000 1.000000 0.065912
0.000000 1.000000 0.065439
0.070138 1.000000 0.064738
0.141046 1.000000 0.064033
0.212227 1.000000 0.063326
0.283606 1.000000 0.062616
0.355141 1.000000 0.061905
0.426803 1.000000 0.061193
0.498574 1.000000 0.060479
0.570439 1.000000 0.059765
0.642389 1.000000 0.059050
0.714413 1.000000 0.058334
0.786506 1.000000 0.057617
0.858661 1.000000 0.056900
0.930874 1.000000 0.056182
1.000000 1.000000 0.055464
1.000000 1.000000 0.054745
0.000000 0.000000 0.189830
0.046538 0.000000 0.189066
0.116714 0.000000 0.187935
0.187340 0.000000 0.186797
0.258240 0.000000 0.185654
0.329336 0.000000 0.184508
0.400586 0.000000 0.183360
0.471964 0.000000 0.182210
0.543451 0.000000 0.181058
0.615031 0.000000 0.179904
