assets/luts/generated_genre/bs_comedy_bright_clean_4f1d57ed9f7b7138.cube
# V4 spec-generated LUT — bs_comedy_bright_clean
# Genre: comedy
# Look: Bright accessible comedy — uplifting, warm. Shelton/Ted Lasso, Parks & Rec.
# Spec hash: 4f1d57ed9f7b7138
TITLE "V4 Spec LUT — bs_comedy_bright_clean"
LUT_3D_SIZE 5
DOMAIN_MIN 0.0 0.0 0.0
DOMAIN_MAX 1.0 1.0 1.0
0.038756 0.032602 0.026424
0.310053 0.028264 0.021501
0.575655 0.024017 0.016682
0.838717 0.019812 0.011909
1.000000 0.015632 0.007167
0.026056 0.294625 0.009765
0.297352 0.290288 0.004843
0.562955 0.286041 0.000024
0.826017 0.281835 0.000000
1.000000 0.277656 0.000000
0.013630 0.550973 0.000000
0.284926 0.546636 0.000000
0.550529 0.542389 0.000000
0.812513 0.538197 0.000000
1.000000 0.534033 0.000000
0.000000 0.804861 0.000000
0.270007 0.800539 0.000000
0.534480 0.796308 0.000000
0.796423 0.792116 0.000000
1.000000 0.787952 0.000000
0.000000 1.000000 0.000000
0.254020 1.000000 0.000000
0.518493 1.000000 0.000000
0.780436 1.000000 0.000000
1.000000 1.000000 0.000000
0.037466 0.031111 0.303112
0.308763 0.026773 0.298189
0.574366 0.022527 0.293370
0.837427 0.018321 0.288597
1.000000 0.014141 0.283855
0.024766 0.293134 0.286453
0.296062 0.288797 0.281531
0.561665 0.284550 0.276712
0.824727 0.280344 0.271939
1.000000 0.276165 0.267196
0.012340 0.549482 0.270155
0.283636 0.545145 0.265233
0.548883 0.540903 0.260599
0.810826 0.536712 0.256408
1.000000 0.532547 0.252243
0.000000 0.803376 0.254980
0.268320 0.799053 0.250658
0.532793 0.794822 0.246426
0.794736 0.790631 0.242235
1.000000 0.786466 0.238070
0.000000 1.000000 0.240898
0.252334 1.000000 0.236576
0.516806 1.000000 0.232344
0.778749 1.000000 0.228153
1.000000 1.000000 0.223989
0.036205 0.029653 0.573601
0.307502 0.025316 0.568679
0.573105 0.021069 0.563859
0.836166 0.016863 0.559087
1.000000 0.012684 0.554344
0.023505 0.291677 0.556942
0.294801 0.287339 0.552020
0.560404 0.283093 0.547201
0.823466 0.278887 0.542428
1.000000 0.274708 0.537685
0.011079 0.548025 0.540644
0.282375 0.543687 0.535722
0.547234 0.539451 0.531290
0.809177 0.535259 0.527098
1.000000 0.531095 0.522934
0.000000 0.801923 0.525671
0.266672 0.797601 0.521348
0.531144 0.793370 0.517117
0.793087 0.789178 0.512926
1.000000 0.785014 0.508761
0.000000 1.000000 0.511589
0.250685 1.000000 0.507267
0.515157 1.000000 0.503035
0.777100 1.000000 0.498844
1.000000 1.000000 0.494680
0.034957 0.028210 0.841446
0.306253 0.023872 0.836523
0.571856 0.019626 0.831704
0.834918 0.015420 0.826931
1.000000 0.011241 0.822189
0.022256 0.290234 0.824787
0.293552 0.285896 0.819865
0.559155 0.281650 0.815046
0.822217 0.277444 0.810273
1.000000 0.273264 0.805530
0.009830 0.546582 0.808489
0.281127 0.542244 0.803567
0.545602 0.538012 0.799334
0.807544 0.533821 0.795143
1.000000 0.529657 0.790979
0.000000 0.800485 0.793715
0.265039 0.796163 0.789393
0.529512 0.791931 0.785161
0.791454 0.787740 0.780970
1.000000 0.783576 0.776806
0.000000 1.000000 0.779633
0.249052 1.000000 0.775311
0.513525 1.000000 0.771080
0.775467 1.000000 0.766888
1.000000 1.000000 0.762724
0.033716 0.026776 1.000000
0.305012 0.022438 1.000000
0.570615 0.018192 1.000000
0.833677 0.013986 1.000000
1.000000 0.009807 1.000000
0.021015 0.288800 1.000000
0.292312 0.284462 1.000000
0.557914 0.280216 1.000000
0.820976 0.276010 1.000000
1.000000 0.271831 1.000000
0.008590 0.545148 1.000000
0.279507 0.540815 1.000000
0.543980 0.536583 1.000000
0.805922 0.532392 1.000000
1.000000 0.528228 1.000000
0.000000 0.799056 1.000000
0.263417 0.794734 1.000000
0.527889 0.790502 1.000000
0.789832 0.786311 1.000000
1.000000 0.782147 1.000000
0.000000 1.000000 1.000000
0.247430 1.000000 1.000000
0.511903 1.000000 1.000000
0.773845 1.000000 1.000000
1.000000 1.000000 1.000000
