assets/luts/generated_genre/bs_commercial_neon_dream_2722f571bff83e25.cube
# V4 spec-generated LUT — bs_commercial_neon_dream
# Genre: commercial
# Look: Maximalist neon-dream commercial — anthemic, hyper-stylized magenta-cyan. Nike Dream Crazy, Honda Ha
# Spec hash: 2722f571bff83e25
TITLE "V4 Spec LUT — bs_commercial_neon_dream"
LUT_3D_SIZE 9
DOMAIN_MIN 0.0 0.0 0.0
DOMAIN_MAX 1.0 1.0 1.0
0.000000 0.005775 0.029775
0.081177 0.001101 0.026685
0.240648 0.000000 0.022011
0.403259 0.000000 0.017244
0.567795 0.000000 0.012421
0.733731 0.000000 0.007557
0.900773 0.000000 0.002661
1.000000 0.000000 0.000000
1.000000 0.000000 0.000000
0.000000 0.096507 0.019381
0.077636 0.091833 0.016292
0.237107 0.084761 0.011617
0.399718 0.077551 0.006851
0.564253 0.070255 0.002028
0.730190 0.062897 0.000000
0.897232 0.055490 0.000000
1.000000 0.048042 0.000000
1.000000 0.040560 0.000000
0.000000 0.233782 0.003656
0.072278 0.229108 0.000567
0.231749 0.222036 0.000000
0.394360 0.214826 0.000000
0.558895 0.207530 0.000000
0.724832 0.200172 0.000000
0.891874 0.192764 0.000000
1.000000 0.185317 0.000000
1.000000 0.177834 0.000000
0.000000 0.373760 0.000000
0.066815 0.369086 0.000000
0.226286 0.362014 0.000000
0.388897 0.354804 0.000000
0.553432 0.347508 0.000000
0.719369 0.340150 0.000000
0.886411 0.332743 0.000000
1.000000 0.325295 0.000000
1.000000 0.317813 0.000000
0.000000 0.515394 0.000000
0.061287 0.510720 0.000000
0.220758 0.503649 0.000000
0.383369 0.496438 0.000000
0.547904 0.489142 0.000000
0.713841 0.481784 0.000000
0.877099 0.476370 0.000000
1.000000 0.471660 0.000000
1.000000 0.466928 0.000000
0.000000 0.658235 0.000000
0.055712 0.653561 0.000000
0.214552 0.646822 0.000000
0.372132 0.642262 0.000000
0.531576 0.637647 0.000000
0.692378 0.632994 0.000000
0.854252 0.628309 0.000000
1.000000 0.623599 0.000000
1.000000 0.618867 0.000000
0.000000 0.807201 0.000000
0.037016 0.804245 0.000000
0.191553 0.799773 0.000000
0.349133 0.795213 0.000000
0.508577 0.790599 0.000000
0.669380 0.785945 0.000000
0.831254 0.781261 0.000000
0.994014 0.776550 0.000000
1.000000 0.771818 0.000000
0.000000 0.960990 0.000000
0.013891 0.958034 0.000000
0.168428 0.953562 0.000000
0.326008 0.949002 0.000000
0.485453 0.944388 0.000000
0.646255 0.939734 0.000000
0.808129 0.935050 0.000000
0.970889 0.930339 0.000000
1.000000 0.925607 0.000000
0.000000 1.000000 0.000000
0.000000 1.000000 0.000000
0.145196 1.000000 0.000000
0.302776 1.000000 0.000000
0.462220 1.000000 0.000000
0.623023 1.000000 0.000000
0.784897 1.000000 0.000000
0.947657 1.000000 0.000000
1.000000 1.000000 0.000000
0.000000 0.004188 0.135181
0.080820 0.000000 0.132091
0.240291 0.000000 0.127417
0.402902 0.000000 0.122650
0.567437 0.000000 0.117827
0.733374 0.000000 0.112963
0.900416 0.000000 0.108067
1.000000 0.000000 0.103144
1.000000 0.000000 0.098198
0.000000 0.094919 0.124787
0.077279 0.090246 0.121698
0.236749 0.083174 0.117023
0.399361 0.075964 0.112257
0.563896 0.068668 0.107434
0.729832 0.061310 0.102570
0.896874 0.053902 0.097673
1.000000 0.046455 0.092750
1.000000 0.038972 0.087804
0.000000 0.232194 0.109062
0.071921 0.227520 0.105972
0.231392 0.220449 0.101298
0.394003 0.213238 0.096531
0.558538 0.205942 0.091709
0.724474 0.198584 0.086845
0.891517 0.191177 0.081948
1.000000 0.183730 0.077025
1.000000 0.176247 0.072079
0.000000 0.372172 0.093027
0.066457 0.367499 0.089938
0.225928 0.360427 0.085263
0.388539 0.353217 0.080497
0.553075 0.345921 0.075674
0.719011 0.338563 0.070810
0.886053 0.331155 0.065913
1.000000 0.323708 0.060990
1.000000 0.316225 0.056044
0.000000 0.513807 0.076803
0.060929 0.509133 0.073713
0.220400 0.502062 0.069039
0.383011 0.494851 0.064272
0.547547 0.487555 0.059449
0.713483 0.480197 0.054585
0.875634 0.475367 0.048192
1.000000 0.470656 0.041679
1.000000 0.465924 0.035135
0.000000 0.656647 0.060440
0.055354 0.651974 0.057350
0.213087 0.645818 0.052144
0.370667 0.641258 0.045838
0.530111 0.636644 0.039457
0.690913 0.631990 0.033022
0.852787 0.627305 0.026544
1.000000 0.622595 0.020031
1.000000 0.617863 0.013487
0.000000 0.806198 0.040624
0.035551 0.803242 0.036536
0.190088 0.798769 0.030352
0.347668 0.794209 0.024046
0.507112 0.789595 0.017665
0.667915 0.784941 0.011230
0.829789 0.780257 0.004752
0.992549 0.775547 0.000000
1.000000 0.770814 0.000000
0.000000 0.959986 0.018712
0.012426 0.957031 0.014625
0.166963 0.952558 0.008440
0.324543 0.947998 0.002134
0.483988 0.943384 0.000000
0.644790 0.938730 0.000000
0.806664 0.934046 0.000000
0.969424 0.929335 0.000000
1.000000 0.924603 0.000000
0.000000 1.000000 0.000000
0.000000 1.000000 0.000000
0.143731 1.000000 0.000000
0.301311 1.000000 0.000000
0.460755 1.000000 0.000000
0.621558 1.000000 0.000000
0.783432 1.000000 0.000000
0.946192 1.000000 0.000000
1.000000 1.000000 0.000000
0.000000 0.001786 0.294657
0.080279 0.000000 0.291567
0.239750 0.000000 0.286893
0.402361 0.000000 0.282126
0.566896 0.000000 0.277303
0.732833 0.000000 0.272439
0.899875 0.000000 0.267543
1.000000 0.000000 0.262620
1.000000 0.000000 0.257674
0.000000 0.092518 0.284263
0.076738 0.087844 0.281174
0.236208 0.080773 0.276499
0.398820 0.073562 0.271733
0.563355 0.066266 0.266910
0.729291 0.058908 0.262046
0.896334 0.051501 0.257149
1.000000 0.044053 0.252226
1.000000 0.036571 0.247280
0.000000 0.229793 0.268538
0.071380 0.225119 0.265448
0.230851 0.218048 0.260774
0.393462 0.210837 0.256007
0.557997 0.203541 0.251185
0.723934 0.196183 0.246321
0.890976 0.188776 0.241424
1.000000 0.181328 0.236501
1.000000 0.173846 0.231555
0.000000 0.369771 0.252503
0.065917 0.365097 0.249414
0.225387 0.358026 0.244739
0.387999 0.350815 0.239973
0.552534 0.343519 0.235150
0.718470 0.336161 0.230286
0.885512 0.328754 0.225389
1.000000 0.321306 0.220466
1.000000 0.313824 0.215520
0.000000 0.511405 0.236279
0.060389 0.506732 0.233189
0.219859 0.499660 0.228515
0.382471 0.492449 0.223748
0.547006 0.485154 0.218925
0.711544 0.478532 0.213633
0.873417 0.473848 0.207155
1.000000 0.469138 0.200642
1.000000 0.464405 0.194098
0.000000 0.654246 0.219916
0.054814 0.649572 0.216826
0.210870 0.644299 0.211107
0.368450 0.639739 0.204801
0.527895 0.635125 0.198420
0.688697 0.630471 0.191985
0.850571 0.625787 0.185507
1.000000 0.621076 0.178994
1.000000 0.616344 0.172450
0.000000 0.804679 0.199587
0.033335 0.801723 0.195499
0.187871 0.797251 0.189315
0.345451 0.792690 0.183009
0.504896 0.788076 0.176628
0.665698 0.783423 0.170193
0.827572 0.778738 0.163715
0.990332 0.774028 0.157202
1.000000 0.769296 0.150658
0.000000 0.958468 0.177675
0.010210 0.955512 0.173588
0.164747 0.951040 0.167403
0.322327 0.946479 0.161097
0.481771 0.941865 0.154717
0.642573 0.937211 0.148282
0.804447 0.932527 0.141804
0.967208 0.927817 0.135290
1.000000 0.923085 0.128747
0.000000 1.000000 0.155662
0.000000 1.000000 0.151574
0.141514 1.000000 0.145390
0.299094 1.000000 0.139084
0.458539 1.000000 0.132703
0.619341 1.000000 0.126268
0.781215 1.000000 0.119790
0.943975 1.000000 0.113277
1.000000 1.000000 0.106733
0.000000 0.000000 0.457273
0.079727 0.000000 0.454184
0.239198 0.000000 0.449509
0.401809 0.000000 0.444743
0.566345 0.000000 0.439920
0.732281 0.000000 0.435056
0.899323 0.000000 0.430159
1.000000 0.000000 0.425236
1.000000 0.000000 0.420290
0.000000 0.090069 0.446880
0.076186 0.085395 0.443790
0.235657 0.078324 0.439116
0.398268 0.071113 0.434349
0.562803 0.063817 0.429526
0.728740 0.056459 0.424662
0.895782 0.049052 0.419766
1.000000 0.041604 0.414843
1.000000 0.034122 0.409897
0.000000 0.227344 0.431154
0.070828 0.222670 0.428065
0.230299 0.215599 0.423390
0.392910 0.208388 0.418624
0.557446 0.201092 0.413801
0.723382 0.193734 0.408937
0.890424 0.186327 0.404041
1.000000 0.178879 0.399117
1.000000 0.171397 0.394171
0.000000 0.367322 0.415120
0.065365 0.362648 0.412030
0.224836 0.355577 0.407356
0.387447 0.348366 0.402589
0.551982 0.341070 0.397766
0.717919 0.333712 0.392902
0.884961 0.326305 0.388006
1.000000 0.318857 0.383083
1.000000 0.312201 0.377657
0.000000 0.508957 0.398895
0.059837 0.504283 0.395806
0.219308 0.497211 0.391131
0.381919 0.490001 0.386365
0.546454 0.482705 0.381542
0.709283 0.476984 0.375727
0.871157 0.472299 0.369249
1.000000 0.467589 0.362735
1.000000 0.462857 0.356192
0.000000 0.651797 0.382532
0.054073 0.647223 0.379385
0.208610 0.642751 0.373201
0.366190 0.638190 0.366895
0.525634 0.633576 0.360514
0.686437 0.628923 0.354079
0.848311 0.624238 0.347601
1.000000 0.619528 0.341088
1.000000 0.614796 0.334544
0.000000 0.803130 0.361680
0.031075 0.800174 0.357593
0.185611 0.795702 0.351409
0.343191 0.791142 0.345102
0.502636 0.786527 0.338722
0.663438 0.781874 0.332287
0.825312 0.777189 0.325809
0.988072 0.772479 0.319295
1.000000 0.767747 0.312752
0.000000 0.956919 0.339769
0.007950 0.953963 0.335681
0.162486 0.949491 0.329497
0.320066 0.944931 0.323191
0.479511 0.940316 0.316810
0.640313 0.935663 0.310375
0.802187 0.930978 0.303897
0.964947 0.926268 0.297384
1.000000 0.921536 0.290840
0.000000 1.000000 0.317756
0.000000 1.000000 0.313668
0.139254 1.000000 0.307484
0.296834 1.000000 0.301178
0.456279 1.000000 0.294797
0.617081 1.000000 0.288362
0.778955 1.000000 0.281884
0.941715 1.000000 0.275370
1.000000 1.000000 0.268827
0.000000 0.000000 0.621814
0.079169 0.000000 0.618724
0.238640 0.000000 0.614050
0.401251 0.000000 0.609283
0.565787 0.000000 0.604460
0.731723 0.000000 0.599596
0.898765 0.000000 0.594700
1.000000 0.000000 0.589777
1.000000 0.000000 0.584831
0.000000 0.087591 0.611420
0.075628 0.082918 0.608331
0.235099 0.075846 0.603656
0.397710 0.068636 0.598890
0.562245 0.061340 0.594067
0.728182 0.053982 0.589203
0.895224 0.046574 0.584306
1.000000 0.039127 0.579383
1.000000 0.031644 0.574437
0.000000 0.224866 0.595695
0.070270 0.220192 0.592605
0.229741 0.213121 0.587931
0.392352 0.205910 0.583165
0.556888 0.198614 0.578342
0.722824 0.191256 0.573478
0.889866 0.183849 0.568581
1.000000 0.176402 0.563658
1.000000 0.168919 0.558712
0.000000 0.364844 0.579660
0.064807 0.360171 0.576571
0.224278 0.353099 0.571896
0.386889 0.345889 0.567130
0.551424 0.338593 0.562307
0.717361 0.331235 0.557443
0.884403 0.323827 0.552547
1.000000 0.316380 0.547623
1.000000 0.310634 0.541669
0.000000 0.506479 0.563436
0.059279 0.501805 0.560346
0.218750 0.494734 0.555672
0.381361 0.487523 0.550905
0.545896 0.480227 0.546082
0.706996 0.475417 0.539738
0.868870 0.470732 0.533260
1.000000 0.466022 0.526747
1.000000 0.461290 0.520203
0.000000 0.649319 0.547073
0.051786 0.645656 0.543397
0.206323 0.641184 0.537212
0.363903 0.636623 0.530906
0.523348 0.632009 0.524526
0.684150 0.627356 0.518090
0.846024 0.622671 0.511613
1.000000 0.617961 0.505099
1.000000 0.613229 0.498555
0.000000 0.801563 0.525692
0.028788 0.798607 0.521604
0.183324 0.794135 0.515420
0.340904 0.789575 0.509114
0.500349 0.784960 0.502733
0.661151 0.780307 0.496298
0.823025 0.775622 0.489820
0.985785 0.770912 0.483307
1.000000 0.766180 0.476763
0.000000 0.955352 0.503780
0.005663 0.952396 0.499693
0.160200 0.947924 0.493509
0.317780 0.943364 0.487203
0.477224 0.938749 0.480822
0.638026 0.934096 0.474387
0.799900 0.929411 0.467909
0.962660 0.924701 0.461395
1.000000 0.919969 0.454852
0.000000 1.000000 0.481767
0.000000 1.000000 0.477680
0.136967 1.000000 0.471495
0.294547 1.000000 0.465189
0.453992 1.000000 0.458808
0.614794 1.000000 0.452373
0.776668 1.000000 0.445895
0.939428 1.000000 0.439382
1.000000 1.000000 0.432838
0.000000 0.000000 0.787756
0.078607 0.000000 0.784666
0.238077 0.000000 0.779992
0.400689 0.000000 0.775225
0.565224 0.000000 0.770402
0.731160 0.000000 0.765538
0.898202 0.000000 0.760642
1.000000 0.000000 0.755719
1.000000 0.000000 0.750773
0.000000 0.085093 0.777362
0.075065 0.080419 0.774273
0.234536 0.073347 0.769598
0.397147 0.066137 0.764832
0.561683 0.058841 0.760009
0.727619 0.051483 0.755145
0.894661 0.044076 0.750248
1.000000 0.036628 0.745325
1.000000 0.029146 0.740379
0.000000 0.222367 0.761637
0.069707 0.217694 0.758547
0.229178 0.210622 0.753873
0.391789 0.203412 0.749106
0.556325 0.196116 0.744284
0.722261 0.188758 0.739420
0.889303 0.181350 0.734523
1.000000 0.173903 0.729600
1.000000 0.166420 0.724654
0.000000 0.362346 0.745602
0.064244 0.357672 0.742513
0.223715 0.350600 0.737838
0.386326 0.343390 0.733072
0.550861 0.336094 0.728249
0.716798 0.328736 0.723385
0.883840 0.321329 0.718488
1.000000 0.313881 0.713565
1.000000 0.309053 0.707077
0.000000 0.503980 0.729378
0.058716 0.499306 0.726288
0.218187 0.492235 0.721614
0.380798 0.485024 0.716847
0.543888 0.478490 0.711582
0.704690 0.473836 0.705147
0.866564 0.469152 0.698669
1.000000 0.464441 0.692155
1.000000 0.459709 0.685612
0.000000 0.647031 0.712893
0.049480 0.644075 0.708805
0.204017 0.639603 0.702621
0.361597 0.635043 0.696315
0.521041 0.630429 0.689934
0.681844 0.625775 0.683499
0.843717 0.621091 0.677021
1.000000 0.616380 0.670507
1.000000 0.611648 0.663964
0.000000 0.799983 0.691100
0.026481 0.797027 0.687013
0.181018 0.792555 0.680828
0.338598 0.787994 0.674522
0.498042 0.783380 0.668142
0.658845 0.778726 0.661707
0.820719 0.774042 0.655229
0.983479 0.769332 0.648715
1.000000 0.764600 0.642172
0.000000 0.953772 0.669189
0.003356 0.950816 0.665101
0.157893 0.946343 0.658917
0.315473 0.941783 0.652611
0.474918 0.937169 0.646230
0.635720 0.932515 0.639795
0.797594 0.927831 0.633317
0.960354 0.923121 0.626804
1.000000 0.918389 0.620260
0.000000 1.000000 0.647175
0.000000 1.000000 0.643088
0.134661 1.000000 0.636904
0.292241 1.000000 0.630597
0.451685 1.000000 0.624217
0.612488 1.000000 0.617782
0.774362 1.000000 0.611304
0.937122 1.000000 0.604790
1.000000 1.000000 0.598247
0.000000 0.000000 0.954803
0.078040 0.000000 0.951714
0.237511 0.000000 0.947039
0.400122 0.000000 0.942273
0.564657 0.000000 0.937450
0.730594 0.000000 0.932586
0.897636 0.000000 0.927689
1.000000 0.000000 0.922766
1.000000 0.000000 0.917820
0.000000 0.082577 0.944410
0.074499 0.077903 0.941320
0.233970 0.070832 0.936646
0.396581 0.063621 0.931879
0.561116 0.056325 0.927056
0.727052 0.048967 0.922192
0.894095 0.041560 0.917296
1.000000 0.034112 0.912373
1.000000 0.026630 0.907427
0.000000 0.219852 0.928685
0.069141 0.215178 0.925595
0.228612 0.208107 0.920921
0.391223 0.200896 0.916154
0.555758 0.193600 0.911331
0.721695 0.186242 0.906467
0.888737 0.178835 0.901571
1.000000 0.171387 0.896648
1.000000 0.163905 0.891702
0.000000 0.359830 0.912650
0.063678 0.355156 0.909560
0.223148 0.348085 0.904886
0.385760 0.340874 0.900119
0.550295 0.333578 0.895296
0.716231 0.326220 0.890432
0.883274 0.318813 0.885536
1.000000 0.312195 0.880131
1.000000 0.307463 0.873587
0.000000 0.501465 0.896425
0.058150 0.496791 0.893336
0.217620 0.489719 0.888661
0.380232 0.482509 0.883895
0.541566 0.476899 0.878092
0.702368 0.472245 0.871657
0.864242 0.467561 0.865179
1.000000 0.462851 0.858666
1.000000 0.458118 0.852122
0.000000 0.645440 0.879403
0.047158 0.642485 0.875315
0.201695 0.638012 0.869131
0.359275 0.633452 0.862825
0.518719 0.628838 0.856444
0.679522 0.624184 0.850009
0.841396 0.619500 0.843531
1.000000 0.614790 0.837018
1.000000 0.610057 0.830474
0.000000 0.798392 0.857611
0.024159 0.795436 0.853523
0.178696 0.790964 0.847339
0.336276 0.786403 0.841033
0.495721 0.781789 0.834652
0.656523 0.777136 0.828217
0.818397 0.772451 0.821739
0.981157 0.767741 0.815226
1.000000 0.763009 0.808682
0.000000 0.952181 0.835699
0.001035 0.949225 0.831612
0.155571 0.944753 0.825427
0.313151 0.940192 0.819121
0.472596 0.935578 0.812741
0.633398 0.930924 0.806306
0.795272 0.926240 0.799828
0.958032 0.921530 0.793314
1.000000 0.916798 0.786771
0.000000 1.000000 0.813686
0.000000 1.000000 0.809598
0.132339 1.000000 0.803414
0.289919 1.000000 0.797108
0.449364 1.000000 0.790727
0.610166 1.000000 0.784292
0.772040 1.000000 0.777814
0.934800 1.000000 0.771301
1.000000 1.000000 0.764757
0.000000 0.000000 1.000000
0.077470 0.000000 1.000000
0.236941 0.000000 1.000000
0.399552 0.000000 1.000000
0.564088 0.000000 1.000000
0.730024 0.000000 1.000000
0.897066 0.000000 1.000000
1.000000 0.000000 1.000000
1.000000 0.000000 1.000000
0.000000 0.080048 1.000000
0.073929 0.075374 1.000000
0.233400 0.068303 1.000000
0.396011 0.061092 1.000000
0.560546 0.053796 1.000000
0.726483 0.046438 1.000000
0.893525 0.039031 1.000000
1.000000 0.031583 1.000000
1.000000 0.024101 1.000000
0.000000 0.217323 1.000000
0.068571 0.212649 1.000000
0.228042 0.205577 1.000000
0.390653 0.198367 1.000000
0.555189 0.191071 1.000000
0.721125 0.183713 1.000000
0.888167 0.176306 1.000000
1.000000 0.168858 1.000000
1.000000 0.161376 1.000000
0.000000 0.357301 1.000000
0.063108 0.352627 1.000000
0.222579 0.345556 1.000000
0.385190 0.338345 1.000000
0.549725 0.331049 1.000000
0.715662 0.323691 1.000000
0.882704 0.316284 1.000000
1.000000 0.310595 1.000000
1.000000 0.305863 1.000000
0.000000 0.498935 1.000000
0.057580 0.494261 1.000000
0.217051 0.487190 1.000000
0.379662 0.479979 1.000000
0.539232 0.475299 1.000000
0.700034 0.470646 1.000000
0.861908 0.465961 1.000000
1.000000 0.461251 1.000000
1.000000 0.456519 1.000000
0.000000 0.643841 1.000000
0.044824 0.640885 1.000000
0.199361 0.636413 1.000000
0.356940 0.631852 1.000000
0.516385 0.627238 1.000000
0.677187 0.622585 1.000000
0.839061 0.617900 1.000000
1.000000 0.613190 1.000000
1.000000 0.608458 0.997897
0.000000 0.796792 1.000000
0.021825 0.793836 1.000000
0.176362 0.789364 1.000000
0.333942 0.784804 1.000000
0.493386 0.780190 1.000000
0.654189 0.775536 0.995639
0.816062 0.770851 0.989162
0.978823 0.766141 0.982648
1.000000 0.761409 0.976104
0.000000 0.950581 1.000000
0.000000 0.947625 0.999034
0.153237 0.943153 0.992850
0.310817 0.938593 0.986544
0.470261 0.933978 0.980163
0.631064 0.929325 0.973728
0.792938 0.924640 0.967250
0.955698 0.919930 0.960737
1.000000 0.915198 0.954193
0.000000 1.000000 0.981108
0.000000 1.000000 0.977021
0.130005 1.000000 0.970836
0.287585 1.000000 0.964530
0.447029 1.000000 0.958150
0.607832 1.000000 0.951715
0.769705 1.000000 0.945237
0.932466 1.000000 0.938723
1.000000 1.000000 0.932179
0.000000 0.000000 1.000000
0.076898 0.000000 1.000000
0.236369 0.000000 1.000000
0.398980 0.000000 1.000000
0.563515 0.000000 1.000000
0.729452 0.000000 1.000000
0.896494 0.000000 1.000000
1.000000 0.000000 1.000000
1.000000 0.000000 1.000000
0.000000 0.077507 1.000000
0.073357 0.072833 1.000000
0.232828 0.065762 1.000000
0.395439 0.058551 1.000000
0.559974 0.051255 1.000000
0.725911 0.043897 1.000000
0.892953 0.036490 1.000000
1.000000 0.029042 1.000000
1.000000 0.021560 1.000000
0.000000 0.214782 1.000000
0.067999 0.210108 1.000000
0.227470 0.203036 1.000000
0.390081 0.195826 1.000000
0.554616 0.188530 1.000000
0.720553 0.181172 1.000000
0.887595 0.173765 1.000000
1.000000 0.166317 1.000000
1.000000 0.158835 1.000000
0.000000 0.354760 1.000000
0.062536 0.350086 1.000000
0.222006 0.343015 1.000000
0.384618 0.335804 1.000000
0.549153 0.328508 1.000000
0.715089 0.321150 1.000000
0.882132 0.313743 1.000000
1.000000 0.308988 1.000000
1.000000 0.304256 1.000000
0.000000 0.496394 1.000000
0.057008 0.491720 1.000000
0.216479 0.484649 1.000000
0.377442 0.478306 1.000000
0.536886 0.473692 1.000000
0.697689 0.469039 1.000000
0.859562 0.464354 1.000000
1.000000 0.459644 1.000000
1.000000 0.454912 1.000000
0.000000 0.642234 1.000000
0.042479 0.639278 1.000000
0.197015 0.634806 1.000000
0.354595 0.630245 1.000000
0.514040 0.625631 1.000000
0.674842 0.620978 1.000000
0.836716 0.616293 1.000000
0.999476 0.611583 1.000000
1.000000 0.606851 1.000000
0.000000 0.795185 1.000000
0.019480 0.792229 1.000000
0.174016 0.787757 1.000000
0.331596 0.783197 1.000000
0.491041 0.778582 1.000000
0.651843 0.773929 1.000000
0.813717 0.769244 1.000000
0.976477 0.764534 1.000000
1.000000 0.759802 1.000000
0.000000 0.948974 1.000000
0.000000 0.946018 1.000000
0.150892 0.941546 1.000000
0.308472 0.936986 1.000000
0.467916 0.932371 1.000000
0.628718 0.927718 1.000000
0.790592 0.923033 1.000000
0.953353 0.918323 1.000000
1.000000 0.913591 1.000000
0.000000 1.000000 1.000000
0.000000 1.000000 1.000000
0.127659 1.000000 1.000000
0.285239 1.000000 1.000000
0.444684 1.000000 1.000000
0.605486 1.000000 1.000000
0.767360 1.000000 1.000000
0.930120 1.000000 1.000000
1.000000 1.000000 1.000000
