assets/luts/generated_genre/bs_comedy_wes_anderson_pastel_829670986233b89c.cube
# V4 spec-generated LUT — bs_comedy_wes_anderson_pastel
# Genre: comedy
# Look: Whimsical pastel comedy — symmetric storybook. Yeoman/Grand Budapest.
# Spec hash: 829670986233b89c
TITLE "V4 Spec LUT — bs_comedy_wes_anderson_pastel"
LUT_3D_SIZE 17
DOMAIN_MIN 0.0 0.0 0.0
DOMAIN_MAX 1.0 1.0 1.0
0.078186 0.036404 0.065965
0.147487 0.034291 0.063853
0.215639 0.032214 0.061775
0.283081 0.030158 0.059720
0.350008 0.028118 0.057680
0.416530 0.026091 0.055652
0.482720 0.024073 0.053635
0.548628 0.022064 0.051626
0.614291 0.020063 0.049624
0.679737 0.018068 0.047629
0.744990 0.016079 0.045640
0.810067 0.014095 0.043657
0.874984 0.012117 0.041678
0.939754 0.010142 0.039704
1.000000 0.008172 0.037734
1.000000 0.006206 0.035768
1.000000 0.004243 0.033805
0.070867 0.102642 0.058646
0.140167 0.100530 0.056533
0.208320 0.098453 0.054456
0.275762 0.096397 0.052400
0.342688 0.094357 0.050360
0.409211 0.092329 0.048333
0.475401 0.090312 0.046315
0.541309 0.088303 0.044306
0.606971 0.086301 0.042305
0.672418 0.084306 0.040310
0.737670 0.082318 0.038321
0.802748 0.080334 0.036337
0.867665 0.078355 0.034359
0.932435 0.076381 0.032384
0.997069 0.074411 0.030414
1.000000 0.072445 0.028448
1.000000 0.070482 0.026485
0.063702 0.167484 0.051480
0.133002 0.165371 0.049368
0.201155 0.163294 0.047291
0.268597 0.161238 0.045235
0.335523 0.159198 0.043195
0.402046 0.157171 0.041167
0.468236 0.155153 0.039150
0.534143 0.153144 0.037141
0.599806 0.151143 0.035140
0.665253 0.149148 0.033145
0.730505 0.147159 0.031156
0.795583 0.145176 0.029172
0.860500 0.143197 0.027193
0.925270 0.141223 0.025219
0.989904 0.139252 0.023249
1.000000 0.137286 0.021283
1.000000 0.135324 0.019320
0.056622 0.231551 0.044401
0.125923 0.229439 0.042289
0.194075 0.227361 0.040211
0.261517 0.225306 0.038156
0.328444 0.223266 0.036116
0.394966 0.221238 0.034088
0.461156 0.219221 0.032070
0.527064 0.217212 0.030061
0.592727 0.215210 0.028060
0.658173 0.213215 0.026065
0.723426 0.211226 0.024076
0.788503 0.209243 0.022093
0.853420 0.207264 0.020114
0.918190 0.205290 0.018140
0.982824 0.203320 0.016170
1.000000 0.201353 0.014203
1.000000 0.199391 0.012241
0.049602 0.295079 0.037381
0.118903 0.292967 0.035269
0.187055 0.290889 0.033191
0.254497 0.288834 0.031136
0.321424 0.286794 0.029096
0.387946 0.284766 0.027068
0.454136 0.282748 0.025050
0.520044 0.280740 0.023042
0.585707 0.278738 0.021040
0.651153 0.276743 0.019045
0.716406 0.274754 0.017056
0.781483 0.272771 0.015073
0.846400 0.270792 0.013094
0.911170 0.268818 0.011120
0.975804 0.266848 0.009150
1.000000 0.264881 0.007183
1.000000 0.262919 0.005221
0.042628 0.358193 0.030407
0.111929 0.356081 0.028294
0.180081 0.354003 0.026217
0.247523 0.351948 0.024161
0.314450 0.349908 0.022121
0.380972 0.347880 0.020094
0.447162 0.345863 0.018076
0.513070 0.343854 0.016067
0.578733 0.341852 0.014066
0.644179 0.339857 0.012071
0.709432 0.337868 0.010082
0.774509 0.335885 0.008098
0.839426 0.333906 0.006120
0.904196 0.331932 0.004146
0.968830 0.329962 0.002175
1.000000 0.327996 0.000209
1.000000 0.326033 0.000000
0.035691 0.420972 0.023470
0.104992 0.418859 0.021357
0.173144 0.416782 0.019280
0.240586 0.414726 0.017224
0.307512 0.412686 0.015184
0.374035 0.410659 0.013157
0.440225 0.408641 0.011139
0.506133 0.406632 0.009130
0.571795 0.404631 0.007129
0.637242 0.402636 0.005134
0.702494 0.400647 0.003145
0.767572 0.398663 0.001161
0.832489 0.396685 0.000000
0.897259 0.394710 0.000000
0.961893 0.392740 0.000000
1.000000 0.390774 0.000000
1.000000 0.388867 0.000000
0.028785 0.483468 0.016564
0.098086 0.481356 0.014451
0.166238 0.479278 0.012374
0.233680 0.477223 0.010318
0.300607 0.475183 0.008278
0.367129 0.473155 0.006251
0.433319 0.471138 0.004233
0.499227 0.469129 0.002224
0.564889 0.467127 0.000223
0.630336 0.465132 0.000000
0.695588 0.463143 0.000000
0.760666 0.461160 0.000000
0.825583 0.459181 0.000000
0.890214 0.457331 0.000000
0.954699 0.455494 0.000000
1.000000 0.453662 0.000000
1.000000 0.451832 0.000000
0.021906 0.545721 0.009685
0.091206 0.543609 0.007572
0.159359 0.541532 0.005495
0.226801 0.539476 0.003439
0.293727 0.537436 0.001399
0.360250 0.535409 0.000000
0.426440 0.533391 0.000000
0.492348 0.531382 0.000000
0.558010 0.529381 0.000000
0.623397 0.527439 0.000000
0.688499 0.525585 0.000000
0.753426 0.523736 0.000000
0.818193 0.521891 0.000000
0.882813 0.520051 0.000000
0.947297 0.518215 0.000000
1.000000 0.516382 0.000000
1.000000 0.514552 0.000000
0.015050 0.607761 0.002829
0.084351 0.605649 0.000717
0.152503 0.603572 0.000000
0.219945 0.601516 0.000000
0.286872 0.599476 0.000000
0.353394 0.597448 0.000000
0.419460 0.595541 0.000000
0.485216 0.593669 0.000000
0.550727 0.591803 0.000000
0.616021 0.589944 0.000000
0.681123 0.588090 0.000000
0.746050 0.586241 0.000000
0.810817 0.584396 0.000000
0.875437 0.582556 0.000000
0.939921 0.580719 0.000000
1.000000 0.578887 0.000000
1.000000 0.577057 0.000000
0.008216 0.669611 0.000000
0.077516 0.667498 0.000000
0.145644 0.665443 0.000000
0.212930 0.663527 0.000000
0.279702 0.661625 0.000000
0.346070 0.659735 0.000000
0.412107 0.657855 0.000000
0.477862 0.655982 0.000000
0.543373 0.654116 0.000000
0.608668 0.652257 0.000000
0.673770 0.650403 0.000000
0.738697 0.648554 0.000000
0.803464 0.646709 0.000000
0.868084 0.644869 0.000000
0.932568 0.643032 0.000000
0.996926 0.641200 0.000000
1.000000 0.639370 0.000000
0.001176 0.731489 0.000000
0.070317 0.729520 0.000000
0.138311 0.727583 0.000000
0.205597 0.725667 0.000000
0.272369 0.723765 0.000000
0.338737 0.721875 0.000000
0.404774 0.719995 0.000000
0.470530 0.718122 0.000000
0.536040 0.716256 0.000000
0.601335 0.714397 0.000000
0.666437 0.712543 0.000000
0.731364 0.710694 0.000000
0.796131 0.708849 0.000000
0.860751 0.707009 0.000000
0.925235 0.705173 0.000000
0.989593 0.703340 0.000000
1.000000 0.701510 0.000000
0.000000 0.793471 0.000000
0.063002 0.791502 0.000000
0.130997 0.789566 0.000000
0.198283 0.787650 0.000000
0.265055 0.785748 0.000000
0.331423 0.783858 0.000000
0.397460 0.781977 0.000000
0.463215 0.780105 0.000000
0.528726 0.778239 0.000000
0.594021 0.776380 0.000000
0.659123 0.774525 0.000000
0.724049 0.772676 0.000000
0.788817 0.770832 0.000000
0.853437 0.768992 0.000000
0.917921 0.767155 0.000000
0.982279 0.765322 0.000000
1.000000 0.763493 0.000000
0.000000 0.855309 0.000000
0.055705 0.853340 0.000000
0.123700 0.851404 0.000000
0.190986 0.849488 0.000000
0.257757 0.847586 0.000000
0.324126 0.845696 0.000000
0.390163 0.843816 0.000000
0.455918 0.841943 0.000000
0.521429 0.840077 0.000000
0.586724 0.838218 0.000000
0.651825 0.836364 0.000000
0.716752 0.834515 0.000000
0.781519 0.832670 0.000000
0.846139 0.830830 0.000000
0.910624 0.828993 0.000000
0.974981 0.827161 0.000000
1.000000 0.825331 0.000000
0.000000 0.917014 0.000000
0.048424 0.915045 0.000000
0.116418 0.913109 0.000000
0.183704 0.911193 0.000000
0.250476 0.909291 0.000000
0.316845 0.907401 0.000000
0.382881 0.905520 0.000000
0.448637 0.903648 0.000000
0.514147 0.901782 0.000000
0.579442 0.899922 0.000000
0.644544 0.898068 0.000000
0.709471 0.896219 0.000000
0.774238 0.894375 0.000000
0.838858 0.892535 0.000000
0.903342 0.890698 0.000000
0.967700 0.888865 0.000000
1.000000 0.887036 0.000000
0.000000 0.978595 0.000000
0.041157 0.976626 0.000000
0.109151 0.974690 0.000000
0.176437 0.972773 0.000000
0.243209 0.970872 0.000000
0.309578 0.968982 0.000000
0.375614 0.967101 0.000000
0.441370 0.965228 0.000000
0.506881 0.963363 0.000000
0.572176 0.961503 0.000000
0.637277 0.959649 0.000000
0.702204 0.957800 0.000000
0.766971 0.955956 0.000000
0.831591 0.954115 0.000000
0.896075 0.952279 0.000000
0.960433 0.950446 0.000000
1.000000 0.948617 0.000000
0.000000 1.000000 0.000000
0.033904 1.000000 0.000000
0.101898 1.000000 0.000000
0.169184 1.000000 0.000000
0.235956 1.000000 0.000000
0.302324 1.000000 0.000000
0.368361 1.000000 0.000000
0.434117 1.000000 0.000000
0.499627 1.000000 0.000000
0.564922 1.000000 0.000000
0.630024 1.000000 0.000000
0.694951 1.000000 0.000000
0.759718 1.000000 0.000000
0.824338 1.000000 0.000000
0.888822 1.000000 0.000000
0.953180 1.000000 0.000000
1.000000 1.000000 0.000000
0.077458 0.035676 0.137693
0.146759 0.033563 0.135581
0.214911 0.031486 0.133503
0.282353 0.029430 0.131448
0.349280 0.027390 0.129408
0.415803 0.025363 0.127380
0.481992 0.023345 0.125362
0.547900 0.021336 0.123354
0.613563 0.019335 0.121352
0.679009 0.017340 0.119357
0.744262 0.015351 0.117368
0.809339 0.013367 0.115385
0.874257 0.011389 0.113406
0.939027 0.009414 0.111432
1.000000 0.007444 0.109462
1.000000 0.005478 0.107495
1.000000 0.003516 0.105533
0.070139 0.101914 0.130373
0.139440 0.099802 0.128261
0.207592 0.097725 0.126184
0.275034 0.095669 0.124128
0.341961 0.093629 0.122088
0.408483 0.091601 0.120060
0.474673 0.089584 0.118043
0.540581 0.087575 0.116034
0.606244 0.085573 0.114033
0.671690 0.083579 0.112038
0.736943 0.081590 0.110049
0.802020 0.079606 0.108065
0.866937 0.077627 0.106086
0.931707 0.075653 0.104112
0.996341 0.073683 0.102142
1.000000 0.071717 0.100176
1.000000 0.069754 0.098213
0.062974 0.166756 0.123208
0.132275 0.164644 0.121096
0.200427 0.162566 0.119019
0.267869 0.160511 0.116963
0.334795 0.158471 0.114923
0.401318 0.156443 0.112895
0.467508 0.154425 0.110878
0.533416 0.152417 0.108869
0.599078 0.150415 0.106867
0.664525 0.148420 0.104873
0.729777 0.146431 0.102884
0.794855 0.144448 0.100900
0.859772 0.142469 0.098921
0.924542 0.140495 0.096947
0.989176 0.138525 0.094977
1.000000 0.136558 0.093011
1.000000 0.134596 0.091048
0.055894 0.230823 0.116129
0.125195 0.228711 0.114016
0.193347 0.226634 0.111939
0.260789 0.224578 0.109883
0.327716 0.222538 0.107843
0.394238 0.220510 0.105816
0.460428 0.218493 0.103798
0.526336 0.216484 0.101789
0.591999 0.214482 0.099788
0.657445 0.212487 0.097793
0.722698 0.210499 0.095804
0.787775 0.208515 0.093821
0.852692 0.206536 0.091842
0.917462 0.204562 0.089868
0.982096 0.202592 0.087898
1.000000 0.200626 0.085931
1.000000 0.198663 0.083969
0.048874 0.294351 0.109109
0.118175 0.292239 0.106997
0.186327 0.290161 0.104919
0.253769 0.288106 0.102864
0.320696 0.286066 0.100824
0.387218 0.284038 0.098796
0.453408 0.282021 0.096778
0.519316 0.280012 0.094769
0.584979 0.278010 0.092768
0.650425 0.276015 0.090773
0.715678 0.274026 0.088784
0.780755 0.272043 0.086801
0.845673 0.270064 0.084822
0.910443 0.268090 0.082848
0.975076 0.266120 0.080878
1.000000 0.264154 0.078911
1.000000 0.262191 0.076949
0.041900 0.357465 0.102135
0.111201 0.355353 0.100022
0.179353 0.353276 0.097945
0.246795 0.351220 0.095889
0.313722 0.349180 0.093849
0.380244 0.347152 0.091822
0.446434 0.345135 0.089804
0.512342 0.343126 0.087795
0.578005 0.341124 0.085794
0.643451 0.339129 0.083799
0.708704 0.337141 0.081810
0.773781 0.335157 0.079826
0.838698 0.333178 0.077848
0.903468 0.331204 0.075873
0.968102 0.329234 0.073903
1.000000 0.327268 0.071937
1.000000 0.325305 0.069975
0.034963 0.420244 0.095198
0.104264 0.418131 0.093085
0.172416 0.416054 0.091008
0.239858 0.413998 0.088952
0.306785 0.411958 0.086912
0.373307 0.409931 0.084885
0.439497 0.407913 0.082867
0.505405 0.405904 0.080858
0.571068 0.403903 0.078857
0.636514 0.401908 0.076862
0.701767 0.399919 0.074873
0.766844 0.397935 0.072889
0.831761 0.395957 0.070911
0.896531 0.393983 0.068936
0.961165 0.392012 0.066966
1.000000 0.390046 0.065000
1.000000 0.388189 0.062920
0.028057 0.482740 0.088292
0.097358 0.480628 0.086179
0.165510 0.478551 0.084102
0.232952 0.476495 0.082046
0.299879 0.474455 0.080006
0.366401 0.472427 0.077979
0.432591 0.470410 0.075961
0.498499 0.468401 0.073952
0.564162 0.466399 0.071951
0.629608 0.464405 0.069956
0.694861 0.462416 0.067967
0.759938 0.460432 0.065983
0.824811 0.458493 0.063960
0.889431 0.456652 0.061836
0.953915 0.454816 0.059717
1.000000 0.452983 0.057601
1.000000 0.451154 0.055490
0.021178 0.544994 0.081412
0.090479 0.542881 0.079300
0.158631 0.540804 0.077223
0.226073 0.538748 0.075167
0.293000 0.536708 0.073127
0.359522 0.534681 0.071099
0.425712 0.532663 0.069082
0.491620 0.530654 0.067073
0.557283 0.528653 0.065072
0.622614 0.526760 0.062962
0.687716 0.524906 0.060822
0.752643 0.523057 0.058688
0.817410 0.521213 0.056559
0.882030 0.519372 0.054435
0.946514 0.517536 0.052315
1.000000 0.515703 0.050200
1.000000 0.513874 0.048088
0.014322 0.607033 0.074557
0.083623 0.604921 0.072445
0.151775 0.602844 0.070367
0.219217 0.600788 0.068312
0.286144 0.598748 0.066272
0.352641 0.596744 0.064218
0.418677 0.594863 0.062047
0.484433 0.592990 0.059886
0.549943 0.591125 0.057733
0.615238 0.589265 0.055586
0.680340 0.587411 0.053446
0.745267 0.585562 0.051312
0.810034 0.583718 0.049183
0.874654 0.581877 0.047059
0.939138 0.580041 0.044939
1.000000 0.578208 0.042824
1.000000 0.576379 0.040712
0.007488 0.668883 0.067722
0.076789 0.666771 0.065610
0.144861 0.664765 0.063453
0.212147 0.662848 0.061241
0.278919 0.660947 0.059046
0.345287 0.659057 0.056865
0.411324 0.657176 0.054694
0.477079 0.655303 0.052533
0.542590 0.653438 0.050379
0.607885 0.651578 0.048233
0.672987 0.649724 0.046093
0.737914 0.647875 0.043959
0.802681 0.646031 0.041830
0.867301 0.644190 0.039706
0.931785 0.642354 0.037586
0.996143 0.640521 0.035471
1.000000 0.638692 0.033359
0.000393 0.730810 0.060628
0.069534 0.728841 0.058355
0.137528 0.726905 0.056120
0.204814 0.724989 0.053908
0.271586 0.723087 0.051713
0.337954 0.721197 0.049532
0.403991 0.719316 0.047361
0.469747 0.717444 0.045200
0.535257 0.715578 0.043046
0.600552 0.713718 0.040900
0.665654 0.711864 0.038760
0.730581 0.710015 0.036626
0.795348 0.708171 0.034497
0.859968 0.706331 0.032373
0.924452 0.704494 0.030253
0.988810 0.702661 0.028138
1.000000 0.700832 0.026026
0.000000 0.792793 0.053313
0.062219 0.790824 0.051041
0.130214 0.788887 0.048806
0.197500 0.786971 0.046594
0.264272 0.785070 0.044399
0.330640 0.783180 0.042218
0.396677 0.781299 0.040047
0.462432 0.779426 0.037886
0.527943 0.777561 0.035732
0.593238 0.775701 0.033586
0.658340 0.773847 0.031446
0.723266 0.771998 0.029312
0.788033 0.770154 0.027183
0.852654 0.768313 0.025059
0.917138 0.766477 0.022939
0.981496 0.764644 0.020824
1.000000 0.762814 0.018712
0.000000 0.854631 0.046016
0.054922 0.852662 0.043744
0.122916 0.850726 0.041508
0.190202 0.848809 0.039297
0.256974 0.846908 0.037102
0.323343 0.845018 0.034920
0.389380 0.843137 0.032750
0.455135 0.841264 0.030588
0.520646 0.839399 0.028435
0.585941 0.837539 0.026289
0.651042 0.835685 0.024149
0.715969 0.833836 0.022015
0.780736 0.831992 0.019886
0.845356 0.830151 0.017761
0.909841 0.828315 0.015642
0.974198 0.826482 0.013526
1.000000 0.824653 0.011415
0.000000 0.916336 0.038735
0.047641 0.914367 0.036462
0.115635 0.912430 0.034227
0.182921 0.910514 0.032015
0.249693 0.908613 0.029820
0.316061 0.906722 0.027639
0.382098 0.904842 0.025468
0.447854 0.902969 0.023307
0.513364 0.901103 0.021153
0.578659 0.899244 0.019007
0.643761 0.897390 0.016867
0.708688 0.895541 0.014733
0.773455 0.893696 0.012604
0.838075 0.891856 0.010480
0.902559 0.890020 0.008360
0.966917 0.888187 0.006245
1.000000 0.886357 0.004133
0.000000 0.977917 0.031468
0.040374 0.975948 0.029195
0.108368 0.974011 0.026960
0.175654 0.972095 0.024748
0.242426 0.970193 0.022554
0.308795 0.968303 0.020372
0.374831 0.966423 0.018201
0.440587 0.964550 0.016040
0.506098 0.962684 0.013887
0.571392 0.960825 0.011740
0.636494 0.958971 0.009600
0.701421 0.957122 0.007466
0.766188 0.955277 0.005337
0.830808 0.953437 0.003213
0.895292 0.951600 0.001094
0.959650 0.949768 0.000000
1.000000 0.947938 0.000000
0.000000 1.000000 0.024215
0.033120 1.000000 0.021942
0.101115 1.000000 0.019707
0.168401 1.000000 0.017495
0.235173 1.000000 0.015300
0.301541 1.000000 0.013119
0.367578 1.000000 0.010948
0.433333 1.000000 0.008787
0.498844 1.000000 0.006633
0.564139 1.000000 0.004487
0.629241 1.000000 0.002347
0.694168 1.000000 0.000213
0.758935 1.000000 0.000000
0.823555 1.000000 0.000000
0.888039 1.000000 0.000000
0.952397 1.000000 0.000000
1.000000 1.000000 0.000000
0.076744 0.034961 0.208090
0.146045 0.032849 0.205977
0.214197 0.030772 0.203900
0.281639 0.028716 0.201844
0.348566 0.026676 0.199804
0.415088 0.024648 0.197777
0.481278 0.022631 0.195759
0.547186 0.020622 0.193750
0.612849 0.018621 0.191749
0.678295 0.016626 0.189754
0.743548 0.014637 0.187765
0.808625 0.012653 0.185781
0.873542 0.010674 0.183803
0.938312 0.008700 0.181828
1.000000 0.006730 0.179858
1.000000 0.004764 0.177892
1.000000 0.002801 0.175929
0.069425 0.101200 0.200770
0.138725 0.099088 0.198658
0.206877 0.097010 0.196580
0.274320 0.094955 0.194525
0.341246 0.092915 0.192485
0.407769 0.090887 0.190457
0.473959 0.088870 0.188440
0.539866 0.086861 0.186431
0.605529 0.084859 0.184429
0.670976 0.082864 0.182434
0.736228 0.080875 0.180445
0.801306 0.078892 0.178462
0.866223 0.076913 0.176483
0.930993 0.074939 0.174509
0.995627 0.072969 0.172539
1.000000 0.071003 0.170573
1.000000 0.069040 0.168610
0.062259 0.166042 0.193605
0.131560 0.163929 0.191493
0.199712 0.161852 0.189415
0.267154 0.159796 0.187360
0.334081 0.157756 0.185320
0.400604 0.155729 0.183292
0.466794 0.153711 0.181275
0.532701 0.151702 0.179266
0.598364 0.149701 0.177264
0.663810 0.147706 0.175269
0.729063 0.145717 0.173280
0.794140 0.143733 0.171297
0.859058 0.141755 0.169318
0.923828 0.139780 0.167344
0.988461 0.137810 0.165374
1.000000 0.135844 0.163408
1.000000 0.133881 0.161445
0.055180 0.230109 0.186525
0.124481 0.227997 0.184413
0.192633 0.225919 0.182336
0.260075 0.223864 0.180280
0.327002 0.221824 0.178240
0.393524 0.219796 0.176213
0.459714 0.217778 0.174195
0.525622 0.215769 0.172186
0.591285 0.213768 0.170185
0.656731 0.211773 0.168190
0.721984 0.209784 0.166201
0.787061 0.207801 0.164217
0.851978 0.205822 0.162239
0.916748 0.203848 0.160264
0.981382 0.201878 0.158294
1.000000 0.199911 0.156328
1.000000 0.197949 0.154365
0.048160 0.293637 0.179506
0.117461 0.291524 0.177393
0.185613 0.289447 0.175316
0.253055 0.287391 0.173260
0.319982 0.285351 0.171220
0.386504 0.283324 0.169193
0.452694 0.281306 0.167175
0.518602 0.279297 0.165166
0.584265 0.277296 0.163165
0.649711 0.275301 0.161170
0.714964 0.273312 0.159181
0.780041 0.271329 0.157197
0.844958 0.269350 0.155219
0.909728 0.267376 0.153244
0.974362 0.265405 0.151274
1.000000 0.263439 0.149308
1.000000 0.261477 0.147345
0.041186 0.356751 0.172531
0.110486 0.354639 0.170419
0.178639 0.352561 0.168342
0.246081 0.350506 0.166286
0.313007 0.348466 0.164246
0.379530 0.346438 0.162218
0.445720 0.344420 0.160201
0.511628 0.342411 0.158192
0.577290 0.340410 0.156190
0.642737 0.338415 0.154196
0.707989 0.336426 0.152207
0.773067 0.334443 0.150223
0.837984 0.332464 0.148244
0.902754 0.330490 0.146270
0.967388 0.328520 0.144300
1.000000 0.326553 0.142334
1.000000 0.324591 0.140371
0.034249 0.419529 0.165594
0.103549 0.417417 0.163482
0.171702 0.415340 0.161405
0.239144 0.413284 0.159349
0.306070 0.411244 0.157309
0.372593 0.409216 0.155281
0.438783 0.407199 0.153264
0.504691 0.405190 0.151255
0.570353 0.403189 0.149253
0.635800 0.401194 0.147258
0.701052 0.399205 0.145270
0.766130 0.397221 0.143286
0.831047 0.395242 0.141307
0.895817 0.393268 0.139333
0.960451 0.391298 0.137363
1.000000 0.389352 0.135374
1.000000 0.387523 0.133262
0.027343 0.482026 0.158688
0.096643 0.479914 0.156576
0.164796 0.477836 0.154499
0.232238 0.475781 0.152443
0.299164 0.473741 0.150403
0.365687 0.471713 0.148375
0.431877 0.469695 0.146358
0.497785 0.467687 0.144349
0.563447 0.465685 0.142347
0.628894 0.463690 0.140353
0.694146 0.461701 0.138364
0.759224 0.459718 0.136380
0.824042 0.457827 0.134303
0.888663 0.455987 0.132179
0.953147 0.454150 0.130059
1.000000 0.452317 0.127944
1.000000 0.450488 0.125832
0.020464 0.544279 0.151809
0.089764 0.542167 0.149697
0.157916 0.540090 0.147619
0.225359 0.538034 0.145564
0.292285 0.535994 0.143524
0.358808 0.533966 0.141496
0.424998 0.531949 0.139479
0.490905 0.529940 0.137470
0.556551 0.527954 0.135451
0.621846 0.526094 0.133305
0.686947 0.524240 0.131165
0.751874 0.522391 0.129031
0.816641 0.520547 0.126902
0.881261 0.518707 0.124777
0.945746 0.516870 0.122658
1.000000 0.515037 0.120542
1.000000 0.513208 0.118431
0.013608 0.606319 0.144954
0.082909 0.604207 0.142841
0.151061 0.602129 0.140764
0.218503 0.600074 0.138708
0.285430 0.598034 0.136668
0.351872 0.596078 0.134560
0.417909 0.594197 0.132390
0.483664 0.592325 0.130228
0.549175 0.590459 0.128075
0.614470 0.588599 0.125929
0.679571 0.586745 0.123789
0.744498 0.584896 0.121655
0.809265 0.583052 0.119526
0.873885 0.581212 0.117402
0.938370 0.579375 0.115282
1.000000 0.577542 0.113166
1.000000 0.575713 0.111055
0.006774 0.668169 0.138119
0.076074 0.666056 0.136007
0.144092 0.664099 0.133795
0.211378 0.662183 0.131584
0.278150 0.660281 0.129389
0.344519 0.658391 0.127207
0.410556 0.656510 0.125037
0.476311 0.654638 0.122875
0.541822 0.652772 0.120722
0.607117 0.650912 0.118575
0.672218 0.649058 0.116436
0.737145 0.647209 0.114301
0.801912 0.645365 0.112172
0.866532 0.643525 0.110048
0.931016 0.641688 0.107929
0.995374 0.639855 0.105813
1.000000 0.638026 0.103702
0.000000 0.730144 0.130970
0.068765 0.728175 0.128697
0.136759 0.726239 0.126462
0.204045 0.724323 0.124251
0.270817 0.722421 0.122056
0.337186 0.720531 0.119874
0.403223 0.718650 0.117704
0.468978 0.716778 0.115542
0.534489 0.714912 0.113389
0.599784 0.713053 0.111243
0.664885 0.711199 0.109103
0.729812 0.709349 0.106968
0.794579 0.707505 0.104840
0.859199 0.705665 0.102715
0.923684 0.703828 0.100596
0.988041 0.701995 0.098480
1.000000 0.700166 0.096369
0.000000 0.792127 0.123656
0.061451 0.790158 0.121383
0.129445 0.788222 0.119148
0.196731 0.786305 0.116936
0.263503 0.784404 0.114742
0.329872 0.782514 0.112560
0.395908 0.780633 0.110389
0.461664 0.778760 0.108228
0.527175 0.776895 0.106075
0.592469 0.775035 0.103928
0.657571 0.773181 0.101788
0.722498 0.771332 0.099654
0.787265 0.769488 0.097525
0.851885 0.767647 0.095401
0.916369 0.765811 0.093282
0.980727 0.763978 0.091166
1.000000 0.762149 0.089054
0.000000 0.853965 0.116359
0.054153 0.851996 0.114086
0.122148 0.850060 0.111851
0.189434 0.848144 0.109639
0.256206 0.846242 0.107444
0.322574 0.844352 0.105263
0.388611 0.842471 0.103092
0.454366 0.840599 0.100931
0.519877 0.838733 0.098777
0.585172 0.836873 0.096631
0.650274 0.835019 0.094491
0.715201 0.833170 0.092357
0.779968 0.831326 0.090228
0.844588 0.829486 0.088104
0.909072 0.827649 0.085984
0.973430 0.825816 0.083869
1.000000 0.823987 0.081757
0.000000 0.915670 0.109077
0.046872 0.913701 0.106804
0.114866 0.911764 0.104569
0.182152 0.909848 0.102358
0.248924 0.907947 0.100163
0.315293 0.906057 0.097981
0.381330 0.904176 0.095811
0.447085 0.902303 0.093649
0.512596 0.900438 0.091496
0.577891 0.898578 0.089350
0.642992 0.896724 0.087210
0.707919 0.894875 0.085075
0.772686 0.893031 0.082947
0.837306 0.891190 0.080822
0.901791 0.889354 0.078703
0.966148 0.887521 0.076587
1.000000 0.885692 0.074476
0.000000 0.977251 0.101810
0.039605 0.975282 0.099538
0.107600 0.973345 0.097303
0.174886 0.971429 0.095091
0.241657 0.969527 0.092896
0.308026 0.967637 0.090714
0.374063 0.965757 0.088544
0.439818 0.963884 0.086382
0.505329 0.962018 0.084229
0.570624 0.960159 0.082083
0.635726 0.958305 0.079943
0.700652 0.956456 0.077809
0.765419 0.954611 0.075680
0.830040 0.952771 0.073556
0.894524 0.950935 0.071436
0.958881 0.949102 0.069320
1.000000 0.947272 0.067209
0.000000 1.000000 0.094557
0.032352 1.000000 0.092284
0.100346 1.000000 0.090049
0.167632 1.000000 0.087838
0.234404 1.000000 0.085643
0.300773 1.000000 0.083461
0.366810 1.000000 0.081291
0.432565 1.000000 0.079129
0.498076 1.000000 0.076976
0.563371 1.000000 0.074830
0.628472 1.000000 0.072690
0.693399 1.000000 0.070555
0.758166 1.000000 0.068427
0.822786 1.000000 0.066302
0.887271 1.000000 0.064183
0.951628 1.000000 0.062067
1.000000 1.000000 0.059956
0.076038 0.034255 0.277702
0.145338 0.032143 0.275590
0.213491 0.030065 0.273513
0.280933 0.028010 0.271457
0.347859 0.025970 0.269417
0.414382 0.023942 0.267389
0.480572 0.021925 0.265372
0.546480 0.019916 0.263363
0.612142 0.017914 0.261362
0.677589 0.015919 0.259367
0.742841 0.013930 0.257378
