assets/luts/generated_genre/bs_drama_kelvin_window_909fcb9621084fea.cube
# V4 spec-generated LUT — bs_drama_kelvin_window
# Genre: drama
# Look: Bittersweet drama — cool shadows, magenta-tinted highlights. Sandgren/La La Land, Lipes/The Bear.
# Spec hash: 909fcb9621084fea
TITLE "V4 Spec LUT — bs_drama_kelvin_window"
LUT_3D_SIZE 9
DOMAIN_MIN 0.0 0.0 0.0
DOMAIN_MAX 1.0 1.0 1.0
0.000000 0.000000 0.016197
0.079822 0.000000 0.018197
0.194430 0.000000 0.020757
0.310418 0.000705 0.023347
0.427272 0.004517 0.025957
0.544762 0.008349 0.028581
0.662755 0.012198 0.031217
0.781166 0.016060 0.033861
0.899934 0.019934 0.036514
0.000516 0.090906 0.023217
0.090075 0.093827 0.025218
0.204683 0.097565 0.027777
0.320671 0.101349 0.030368
0.437525 0.105160 0.032978
0.555015 0.108992 0.035602
0.673008 0.112841 0.038237
0.791419 0.116703 0.040882
0.910187 0.120577 0.043535
0.013037 0.213814 0.031791
0.102596 0.216735 0.033791
0.217204 0.220473 0.036351
0.333192 0.224256 0.038942
0.450046 0.228068 0.041552
0.567536 0.231900 0.044176
0.685529 0.235749 0.046811
0.803940 0.239611 0.049456
0.922708 0.243485 0.052108
0.025705 0.338166 0.040465
0.115264 0.341087 0.042466
0.229873 0.344826 0.045026
0.345861 0.348609 0.047616
0.462714 0.352421 0.050226
0.580204 0.356253 0.052850
0.698197 0.360102 0.055486
0.816608 0.363964 0.058130
0.935376 0.367838 0.060783
0.038467 0.463434 0.049204
0.128026 0.466355 0.051204
0.242634 0.470093 0.053764
0.358622 0.473877 0.056354
0.475476 0.477688 0.058964
0.592966 0.481521 0.061589
0.711005 0.485289 0.064397
0.829863 0.488381 0.068706
0.949079 0.491481 0.073028
0.051297 0.589376 0.057989
0.140856 0.592297 0.059989
0.255465 0.596036 0.062549
0.371654 0.599472 0.065889
0.488948 0.602523 0.070142
0.606881 0.605590 0.074417
0.725320 0.608671 0.078711
0.844177 0.611762 0.083020
0.963393 0.614863 0.087342
0.064665 0.715020 0.068614
0.154562 0.717358 0.071873
0.269603 0.720350 0.076043
0.386029 0.723378 0.080264
0.503323 0.726429 0.084517
0.621256 0.729496 0.088792
0.739695 0.732577 0.093086
0.858552 0.735668 0.097395
0.977768 0.738769 0.101717
0.079091 0.839361 0.083039
0.168988 0.841700 0.086298
0.284029 0.844692 0.090469
0.400454 0.847720 0.094690
0.517749 0.850771 0.098942
0.635682 0.853838 0.103218
0.754120 0.856919 0.107512
0.872978 0.860010 0.111821
0.992194 0.863111 0.116143
0.093560 0.964076 0.097508
0.183457 0.966414 0.100767
0.298498 0.969406 0.104938
0.414923 0.972434 0.109159
0.532218 0.975485 0.113411
0.650151 0.978553 0.117687
0.768589 0.981633 0.121981
0.887447 0.984724 0.126290
1.000000 0.987825 0.130612
0.000000 0.000000 0.122269
0.081027 0.000000 0.124269
0.195635 0.000000 0.126829
0.311623 0.001911 0.129420
0.428477 0.005722 0.132030
0.545967 0.009555 0.134654
0.663960 0.013403 0.137289
0.782371 0.017266 0.139934
0.901139 0.021140 0.142587
0.001721 0.092111 0.129290
0.091280 0.095032 0.131290
0.205888 0.098770 0.133850
0.321876 0.102554 0.136440
0.438730 0.106365 0.139050
0.556220 0.110198 0.141674
0.674213 0.114046 0.144310
0.792624 0.117909 0.146954
0.911392 0.121783 0.149607
0.014242 0.215019 0.137863
0.103801 0.217940 0.139864
0.218410 0.221678 0.142423
0.334398 0.225462 0.145014
0.451251 0.229273 0.147624
0.568741 0.233106 0.150248
0.686734 0.236954 0.152883
0.805145 0.240817 0.155528
0.923913 0.244691 0.158181
0.026910 0.339371 0.146538
0.116469 0.342293 0.148538
0.231078 0.346031 0.151098
0.347066 0.349814 0.153689
0.463920 0.353626 0.156298
0.581409 0.357458 0.158923
0.699403 0.361307 0.161558
0.817813 0.365169 0.164203
0.936581 0.369043 0.166855
0.039672 0.464639 0.155276
0.129231 0.467560 0.157276
0.243839 0.471299 0.159836
0.359827 0.475082 0.162427
0.476681 0.478893 0.165037
0.594171 0.482726 0.167661
0.712350 0.486254 0.170989
0.831208 0.489345 0.175298
0.950423 0.492446 0.179620
0.052502 0.590581 0.164062
0.142061 0.593503 0.166062
0.256670 0.597241 0.168622
0.372998 0.600437 0.172481
0.490293 0.603487 0.176733
0.608226 0.606555 0.181009
0.726664 0.609635 0.185303
0.845522 0.612727 0.189612
0.964738 0.615827 0.193934
0.066010 0.715984 0.175205
0.155907 0.718322 0.178464
0.270948 0.721315 0.182635
0.387373 0.724343 0.186856
0.504668 0.727394 0.191108
0.622601 0.730461 0.195384
0.741039 0.733541 0.199678
0.859897 0.736633 0.203987
0.979113 0.739734 0.208309
0.080435 0.840326 0.189631
0.170332 0.842664 0.192890
0.285373 0.845656 0.197061
0.401799 0.848685 0.201282
0.519093 0.851735 0.205534
0.637026 0.854803 0.209810
0.755465 0.857883 0.214103
0.874322 0.860975 0.218413
0.993538 0.864075 0.222735
0.094904 0.965041 0.204100
0.184801 0.967379 0.207359
0.299842 0.970371 0.211530
0.416268 0.973399 0.215750
0.533562 0.976450 0.220003
0.651495 0.979517 0.224278
0.769934 0.982598 0.228572
0.888791 0.985689 0.232881
1.000000 0.988790 0.237203
0.000000 0.000000 0.231056
0.082263 0.000000 0.233056
0.196872 0.000000 0.235616
0.312859 0.003147 0.238207
0.429713 0.006958 0.240817
0.547203 0.010791 0.243441
0.665196 0.014639 0.246076
0.783607 0.018502 0.248721
0.902375 0.022376 0.251374
0.002957 0.093347 0.238077
0.092516 0.096268 0.240077
0.207124 0.100006 0.242637
0.323112 0.103790 0.245227
0.439966 0.107601 0.247837
0.557456 0.111434 0.250461
0.675449 0.115282 0.253097
0.793860 0.119145 0.255742
0.912628 0.123019 0.258394
0.015478 0.216255 0.246650
0.105037 0.219176 0.248651
0.219646 0.222914 0.251211
0.335634 0.226698 0.253801
0.452487 0.230509 0.256411
0.569977 0.234342 0.259035
0.687970 0.238190 0.261671
0.806381 0.242053 0.264315
0.925149 0.245927 0.266968
0.028146 0.340607 0.255325
0.117705 0.343529 0.257325
0.232314 0.347267 0.259885
0.348302 0.351050 0.262476
0.465156 0.354862 0.265086
0.582645 0.358694 0.267710
0.700639 0.362543 0.270345
0.819049 0.366405 0.272990
0.937817 0.370279 0.275642
0.040908 0.465875 0.264063
0.130467 0.468796 0.266064
0.245075 0.472535 0.268623
0.361063 0.476318 0.271214
0.477917 0.480130 0.273824
0.595407 0.483962 0.276448
0.713729 0.487243 0.280308
0.832587 0.490335 0.284617
0.951802 0.493435 0.288939
0.053738 0.591817 0.272849
0.143297 0.594739 0.274849
0.257952 0.598398 0.277580
0.374377 0.601426 0.281801
0.491672 0.604477 0.286053
0.609605 0.607544 0.290329
0.728043 0.610625 0.294622
0.846901 0.613716 0.298932
0.966117 0.616817 0.303254
0.067389 0.716974 0.284525
0.157286 0.719312 0.287784
0.272327 0.722304 0.291955
0.388752 0.725332 0.296176
0.506047 0.728383 0.300428
0.623980 0.731450 0.304704
0.742418 0.734531 0.308998
0.861276 0.737622 0.313307
0.980492 0.740723 0.317629
0.081814 0.841315 0.298951
0.171711 0.843654 0.302210
0.286752 0.846646 0.306380
0.403178 0.849674 0.310601
0.520472 0.852725 0.314854
0.638405 0.855792 0.319129
0.756844 0.858872 0.323423
0.875701 0.861964 0.327732
0.994917 0.865065 0.332054
0.096283 0.966030 0.313419
0.186180 0.968368 0.316679
0.301221 0.971360 0.320849
0.417647 0.974388 0.325070
0.534941 0.977439 0.329323
0.652874 0.980506 0.333598
0.771313 0.983587 0.337892
0.890170 0.986678 0.342201
1.000000 0.989779 0.346523
0.000000 0.000000 0.340985
0.083512 0.000000 0.342986
0.198120 0.000612 0.345545
0.314108 0.004396 0.348136
0.430962 0.008207 0.350746
0.548452 0.012040 0.353370
0.666445 0.015888 0.356005
0.784856 0.019751 0.358650
0.903624 0.023625 0.361303
0.004206 0.094596 0.348006
0.093765 0.097517 0.350006
0.208373 0.101255 0.352566
0.324361 0.105039 0.355157
0.441215 0.108850 0.357766
0.558705 0.112683 0.360391
0.676698 0.116531 0.363026
0.795109 0.120394 0.365671
0.913877 0.124268 0.368323
0.016727 0.217504 0.356580
0.106286 0.220425 0.358580
0.220895 0.224163 0.361140
0.336883 0.227947 0.363730
0.453736 0.231758 0.366340
0.571226 0.235591 0.368964
0.689219 0.239439 0.371600
0.807630 0.243302 0.374244
0.926398 0.247176 0.376897
0.029395 0.341856 0.365254
0.118954 0.344778 0.367254
0.233563 0.348516 0.369814
0.349551 0.352299 0.372405
0.466405 0.356111 0.375015
0.583894 0.359943 0.377639
0.701888 0.363792 0.380274
0.820298 0.367654 0.382919
0.939066 0.371528 0.385572
0.042157 0.467124 0.373992
0.131716 0.470045 0.375993
0.246324 0.473784 0.378552
0.362312 0.477567 0.381143
0.479166 0.481378 0.383753
0.596684 0.485162 0.386482
0.715122 0.488243 0.390776
0.833980 0.491334 0.395085
0.953196 0.494435 0.399407
0.054987 0.593066 0.382778
0.144546 0.595988 0.384778
0.259345 0.599397 0.388047
0.375771 0.602426 0.392268
0.493065 0.605476 0.396520
0.610998 0.608544 0.400796
0.729436 0.611624 0.405090
0.848294 0.614716 0.409399
0.967510 0.617816 0.413721
0.068782 0.717973 0.394992
0.158679 0.720311 0.398251
0.273720 0.723304 0.402422
0.390146 0.726332 0.406643
0.507440 0.729383 0.410895
0.625373 0.732450 0.415171
0.743812 0.735530 0.419465
0.862669 0.738622 0.423774
0.981885 0.741723 0.428096
0.083208 0.842315 0.409418
0.173105 0.844653 0.412677
0.288146 0.847645 0.416848
0.404571 0.850674 0.421069
0.521866 0.853724 0.425321
0.639799 0.856792 0.429597
0.758237 0.859872 0.433890
0.877095 0.862964 0.438200
0.996311 0.866064 0.442522
0.097677 0.967030 0.423887
0.187574 0.969368 0.427146
0.302615 0.972360 0.431317
0.419040 0.975388 0.435538
0.536335 0.978439 0.439790
0.654268 0.981506 0.444065
0.772706 0.984587 0.448359
0.891564 0.987678 0.452668
1.000000 0.990779 0.456990
0.000000 0.000000 0.451669
0.084769 0.000000 0.453669
0.199378 0.001870 0.456229
0.315366 0.005653 0.458819
0.432220 0.009465 0.461429
0.549709 0.013297 0.464053
0.667703 0.017146 0.466689
0.786114 0.021008 0.469333
0.904882 0.024882 0.471986
0.005463 0.095853 0.458689
0.095022 0.098775 0.460690
0.209631 0.102513 0.463249
0.325619 0.106296 0.465840
0.442473 0.110108 0.468450
0.559962 0.113940 0.471074
0.677956 0.117789 0.473709
0.796367 0.121651 0.476354
0.915134 0.125525 0.479007
0.017984 0.218761 0.467263
0.107544 0.221683 0.469263
0.222152 0.225421 0.471823
0.338140 0.229204 0.474414
0.454994 0.233016 0.477024
0.572483 0.236848 0.479648
0.690477 0.240697 0.482283
0.808888 0.244559 0.484928
0.927656 0.248433 0.487580
0.030653 0.343114 0.475937
0.120212 0.346035 0.477938
0.234820 0.349773 0.480498
0.350808 0.353557 0.483088
0.467662 0.357368 0.485698
0.585152 0.361201 0.488322
0.703145 0.365049 0.490958
0.821556 0.368912 0.493602
0.940361 0.372721 0.496394
0.043414 0.468382 0.484676
0.132973 0.471303 0.486676
0.247582 0.475041 0.489236
0.363570 0.478824 0.491826
0.480424 0.482636 0.494436
0.598087 0.486169 0.497707
0.716525 0.489249 0.502001
0.835383 0.492341 0.506310
0.954599 0.495442 0.510632
0.056245 0.594324 0.493461
0.145804 0.597245 0.495461
0.260748 0.600404 0.499272
0.377174 0.603432 0.503493
0.494468 0.606483 0.507746
0.612401 0.609550 0.512021
0.730839 0.612631 0.516315
0.849697 0.615722 0.520624
0.968913 0.618823 0.524946
0.070185 0.718980 0.506218
0.160082 0.721318 0.509477
0.275123 0.724310 0.513647
0.391549 0.727338 0.517868
0.508843 0.730389 0.522121
0.626776 0.733456 0.526396
0.745215 0.736537 0.530690
0.864072 0.739628 0.534999
0.983288 0.742729 0.539321
0.084611 0.843322 0.520643
0.174508 0.845660 0.523902
0.289549 0.848652 0.528073
0.405974 0.851680 0.532294
0.523269 0.854731 0.536546
0.641202 0.857798 0.540822
0.759640 0.860879 0.545116
0.878498 0.863970 0.549425
0.997714 0.867071 0.553747
0.099080 0.968036 0.535112
0.188977 0.970374 0.538371
0.304018 0.973366 0.542542
0.420443 0.976395 0.546763
0.537738 0.979445 0.551015
0.655671 0.982513 0.555291
0.774109 0.985593 0.559585
0.892967 0.988685 0.563894
1.000000 0.991785 0.568216
0.000000 0.000000 0.562918
0.086033 0.000000 0.564919
0.200642 0.003134 0.567478
0.316630 0.006917 0.570069
0.433484 0.010729 0.572679
0.550973 0.014561 0.575303
0.668967 0.018410 0.577938
0.787378 0.022272 0.580583
0.906146 0.026146 0.583236
0.006727 0.097117 0.569939
0.096286 0.100039 0.571939
0.210895 0.103777 0.574499
0.326883 0.107560 0.577090
0.443737 0.111372 0.579700
0.561226 0.115204 0.582324
0.679220 0.119053 0.584959
0.797631 0.122915 0.587604
0.916398 0.126789 0.590256
0.019248 0.220025 0.578513
0.108808 0.222947 0.580513
0.223416 0.226685 0.583073
0.339404 0.230468 0.585663
0.456258 0.234280 0.588273
0.573747 0.238112 0.590897
0.691741 0.241961 0.593533
0.810152 0.245823 0.596177
0.928920 0.249697 0.598830
0.031917 0.344378 0.587187
0.121476 0.347299 0.589187
0.236084 0.351037 0.591747
0.352072 0.354821 0.594338
0.468926 0.358632 0.596948
0.586416 0.362465 0.599572
0.704409 0.366313 0.602207
0.822820 0.370176 0.604852
0.941772 0.373733 0.608189
0.044678 0.469646 0.595925
0.134237 0.472567 0.597926
0.248846 0.476305 0.600486
0.364834 0.480088 0.603076
0.481688 0.483900 0.605686
0.599497 0.487181 0.609501
0.717935 0.490261 0.613795
0.836793 0.493353 0.618104
0.956009 0.496453 0.622426
0.057509 0.595588 0.604711
0.147117 0.598424 0.606896
0.262158 0.601416 0.611067
0.378584 0.604444 0.615288
0.495878 0.607495 0.619540
0.613811 0.610562 0.623816
0.732250 0.613642 0.628109
0.851107 0.616734 0.632419
0.970323 0.619835 0.636741
0.071595 0.719992 0.618012
0.161492 0.722330 0.621271
0.276533 0.725322 0.625442
0.392959 0.728350 0.629663
0.510253 0.731401 0.633915
0.628186 0.734468 0.638191
0.746625 0.737549 0.642485
0.865482 0.740640 0.646794
0.984698 0.743741 0.651116
0.086021 0.844333 0.632438
0.175918 0.846671 0.635697
0.290959 0.849664 0.639867
0.407384 0.852692 0.644088
0.524679 0.855743 0.648341
0.642612 0.858810 0.652616
0.761050 0.861890 0.656910
0.879908 0.864982 0.661219
0.999124 0.868083 0.665541
0.100490 0.969048 0.646906
0.190387 0.971386 0.650166
0.305428 0.974378 0.654336
0.421853 0.977406 0.658557
0.539148 0.980457 0.662810
0.657081 0.983524 0.667085
0.775519 0.986605 0.671379
0.894377 0.989696 0.675688
1.000000 0.992797 0.680010
0.000000 0.000000 0.674622
0.087303 0.000665 0.676623
0.201911 0.004403 0.679182
0.317899 0.008186 0.681773
0.434753 0.011998 0.684383
0.552243 0.015830 0.687007
0.670236 0.019679 0.689643
0.788647 0.023541 0.692287
0.907415 0.027415 0.694940
0.007996 0.098386 0.681643
0.097556 0.101308 0.683643
0.212164 0.105046 0.686203
0.328152 0.108829 0.688794
0.445006 0.112641 0.691404
0.562495 0.116473 0.694028
0.680489 0.120322 0.696663
0.798900 0.124184 0.699308
0.917668 0.128058 0.701960
0.020518 0.221294 0.690217
0.110077 0.224216 0.692217
0.224685 0.227954 0.694777
0.340673 0.231737 0.697367
0.457527 0.235549 0.699977
0.575017 0.239381 0.702601
0.693010 0.243230 0.705237
0.811421 0.247092 0.707882
0.930189 0.250966 0.710534
0.033186 0.345647 0.698891
0.122745 0.348568 0.700891
0.237354 0.352307 0.703451
0.353342 0.356090 0.706042
0.470195 0.359901 0.708652
0.587685 0.363734 0.711276
0.705678 0.367583 0.713911
0.824089 0.371445 0.716556
0.943187 0.374749 0.720440
0.045947 0.470915 0.707630
0.135507 0.473836 0.709630
0.250115 0.477574 0.712190
0.366103 0.481358 0.714780
0.482980 0.485129 0.717477
0.600913 0.488196 0.721752
0.719351 0.491277 0.726046
0.838209 0.494368 0.730355
0.957425 0.497469 0.734677
0.058778 0.596857 0.716415
0.148533 0.599439 0.719147
0.263574 0.602432 0.723318
0.380000 0.605460 0.727539
0.497294 0.608510 0.731791
0.615227 0.611578 0.736067
0.733666 0.614658 0.740360
0.852523 0.617750 0.744669
0.971739 0.620850 0.748992
0.073011 0.721007 0.730263
0.162908 0.723346 0.733522
0.277949 0.726338 0.737693
0.394375 0.729366 0.741914
0.511669 0.732417 0.746166
0.629602 0.735484 0.750442
0.748041 0.738564 0.754736
0.866898 0.741656 0.759045
0.986114 0.744757 0.763367
0.087437 0.845349 0.744689
0.177334 0.847687 0.747948
0.292375 0.850679 0.752118
0.408800 0.853708 0.756339
0.526095 0.856758 0.760592
0.644028 0.859826 0.764867
0.762466 0.862906 0.769161
0.881324 0.865998 0.773470
1.000000 0.869098 0.777792
0.101906 0.970064 0.759157
0.191803 0.972402 0.762417
0.306844 0.975394 0.766587
0.423269 0.978422 0.770808
0.540564 0.981473 0.775061
0.658497 0.984540 0.779336
0.776935 0.987621 0.783630
0.895793 0.990712 0.787939
1.000000 0.993813 0.792261
0.000000 0.000000 0.786706
0.088576 0.001938 0.788707
0.203185 0.005677 0.791266
0.319173 0.009460 0.793857
0.436026 0.013271 0.796467
0.553516 0.017104 0.799091
0.671509 0.020952 0.801726
0.789920 0.024815 0.804371
0.908688 0.028689 0.807024
0.009270 0.099660 0.793727
0.098829 0.102581 0.795727
0.213438 0.106320 0.798287
0.329426 0.110103 0.800878
0.446279 0.113914 0.803487
0.563769 0.117747 0.806112
0.681762 0.121595 0.808747
0.800173 0.125458 0.811392
0.918941 0.129332 0.814044
0.021791 0.222568 0.802301
0.111350 0.225489 0.804301
0.225959 0.229227 0.806861
0.341947 0.233011 0.809451
0.458800 0.236822 0.812061
0.576290 0.240655 0.814685
0.694283 0.244503 0.817321
0.812694 0.248366 0.819965
0.931462 0.252240 0.822618
0.034459 0.346920 0.810975
0.124018 0.349842 0.812975
0.238627 0.353580 0.815535
0.354615 0.357363 0.818126
0.471469 0.361175 0.820736
0.588958 0.365007 0.823360
0.706952 0.368856 0.825995
0.825392 0.372667 0.828750
0.944608 0.375768 0.833072
0.047221 0.472188 0.819713
0.136780 0.475109 0.821714
0.251389 0.478848 0.824273
0.367377 0.482631 0.826864
0.484401 0.486148 0.830109
0.602334 0.489216 0.834385
0.720772 0.492296 0.838679
0.839630 0.495388 0.842988
0.958846 0.498488 0.847310
0.060057 0.598120 0.828520
0.149954 0.600459 0.831780
0.264995 0.603451 0.835950
0.381420 0.606479 0.840171
0.498715 0.609530 0.844424
0.616648 0.612597 0.848699
0.735086 0.615678 0.852993
0.853944 0.618769 0.857302
0.973160 0.621870 0.861624
0.074432 0.722027 0.842896
0.164329 0.724365 0.846155
0.279370 0.727357 0.850325
0.395796 0.730385 0.854546
0.513090 0.733436 0.858799
0.631023 0.736503 0.863074
0.749461 0.739584 0.867368
0.868319 0.742675 0.871677
0.987535 0.745776 0.875999
0.088858 0.846368 0.857321
0.178755 0.848707 0.860580
0.293796 0.851699 0.864751
0.410221 0.854727 0.868972
0.527516 0.857778 0.873224
0.645449 0.860845 0.877500
0.763887 0.863926 0.881794
0.882745 0.867017 0.886103
1.000000 0.870118 0.890425
0.103327 0.971083 0.871790
0.193224 0.973421 0.875049
0.308264 0.976413 0.879220
0.424690 0.979441 0.883441
0.541985 0.982492 0.887693
0.659917 0.985559 0.891969
0.778356 0.988640 0.896263
0.897214 0.991731 0.900572
1.000000 0.994832 0.904894
0.000294 0.000294 0.899117
0.089853 0.003215 0.901117
0.204462 0.006954 0.903677
0.320450 0.010737 0.906267
0.437304 0.014549 0.908877
0.554793 0.018381 0.911501
0.672786 0.022230 0.914137
0.791197 0.026092 0.916781
0.909965 0.029966 0.919434
0.010547 0.100937 0.906137
0.100106 0.103858 0.908137
0.214715 0.107597 0.910697
0.330703 0.111380 0.913288
0.447556 0.115192 0.915898
0.565046 0.119024 0.918522
0.683039 0.122873 0.921157
0.801450 0.126735 0.923802
0.920218 0.130609 0.926455
0.023068 0.223845 0.914711
0.112627 0.226766 0.916711
0.227236 0.230505 0.919271
0.343224 0.234288 0.921862
0.460078 0.238100 0.924471
0.577567 0.241932 0.927096
0.695561 0.245781 0.929731
0.813971 0.249643 0.932376
0.932739 0.253517 0.935028
0.035736 0.348198 0.923385
0.125296 0.351119 0.925386
0.239904 0.354857 0.927945
0.355892 0.358641 0.930536
0.472746 0.362452 0.933146
0.590236 0.366284 0.935770
0.708229 0.370133 0.938405
0.826817 0.373689 0.941711
0.946033 0.376790 0.946033
0.048498 0.473465 0.932124
0.138057 0.476387 0.934124
0.252666 0.480125 0.936684
0.368654 0.483908 0.939274
0.485826 0.487171 0.943070
0.603759 0.490238 0.947346
0.722197 0.493318 0.951640
0.841055 0.496410 0.955949
0.960271 0.499511 0.960271
0.061482 0.599143 0.941481
0.151379 0.601481 0.944740
0.266420 0.604473 0.948911
0.382845 0.607501 0.953132
0.500140 0.610552 0.957384
0.618073 0.613619 0.961660
0.736511 0.616700 0.965954
0.855369 0.619791 0.970263
0.974585 0.622892 0.974585
0.075857 0.723049 0.955856
0.165754 0.725387 0.959115
0.280795 0.728379 0.963286
0.397220 0.731407 0.967507
0.514515 0.734458 0.971759
0.632448 0.737525 0.976035
0.750886 0.740606 0.980329
0.869744 0.743697 0.984638
0.988960 0.746798 0.988960
0.090283 0.847391 0.970282
0.180180 0.849729 0.973541
0.295221 0.852721 0.977712
0.411646 0.855749 0.981933
0.528941 0.858800 0.986185
0.646873 0.861867 0.990461
0.765312 0.864948 0.994754
0.884170 0.868039 0.999063
1.000000 0.871140 1.000000
0.104751 0.972105 0.984751
0.194648 0.974443 0.988010
0.309689 0.977435 0.992181
0.426115 0.980464 0.996401
0.543410 0.983514 1.000000
0.661342 0.986582 1.000000
0.779781 0.989662 1.000000
0.898638 0.992754 1.000000
1.000000 0.995854 1.000000
