assets/luts/generated_genre/bs_drama_kelvin_window_909fcb9621084fea.cube
# V4 spec-generated LUT — bs_drama_kelvin_window
# Genre: drama
# Look: Bittersweet drama — cool shadows, magenta-tinted highlights. Sandgren/La La Land, Lipes/The Bear.
# Spec hash: 909fcb9621084fea
TITLE "V4 Spec LUT — bs_drama_kelvin_window"
LUT_3D_SIZE 17
DOMAIN_MIN 0.0 0.0 0.0
DOMAIN_MAX 1.0 1.0 1.0
0.000000 0.000000 0.016197
0.023521 0.000000 0.016939
0.079822 0.000000 0.018197
0.136896 0.000000 0.019472
0.194430 0.000000 0.020757
0.252295 0.000000 0.022049
0.310418 0.000705 0.023347
0.368755 0.002608 0.024650
0.427272 0.004517 0.025957
0.485947 0.006431 0.027268
0.544762 0.008349 0.028581
0.603701 0.010272 0.029898
0.662755 0.012198 0.031217
0.721912 0.014128 0.032538
0.781166 0.016060 0.033861
0.840508 0.017996 0.035187
0.899934 0.019934 0.036514
0.000000 0.030477 0.019002
0.027617 0.031562 0.019745
0.083919 0.033398 0.021002
0.140993 0.035260 0.022277
0.198527 0.037136 0.023562
0.256392 0.039024 0.024854
0.314515 0.040920 0.026153
0.372851 0.042823 0.027456
0.431369 0.044731 0.028763
0.490044 0.046645 0.030073
0.548858 0.048564 0.031387
0.607798 0.050486 0.032703
0.666852 0.052412 0.034022
0.726009 0.054342 0.035343
0.785263 0.056275 0.036667
0.844605 0.058210 0.037992
0.904031 0.060149 0.039319
0.000516 0.090906 0.023217
0.033774 0.091990 0.023960
0.090075 0.093827 0.025218
0.147149 0.095689 0.026492
0.204683 0.097565 0.027777
0.262548 0.099453 0.029070
0.320671 0.101349 0.030368
0.379008 0.103251 0.031671
0.437525 0.105160 0.032978
0.496200 0.107074 0.034288
0.555015 0.108992 0.035602
0.613954 0.110915 0.036918
0.673008 0.112841 0.038237
0.732165 0.114771 0.039559
0.791419 0.116703 0.040882
0.850761 0.118639 0.042207
0.910187 0.120577 0.043535
0.006752 0.152120 0.027487
0.040010 0.153205 0.028230
0.096311 0.155042 0.029488
0.153385 0.156903 0.030762
0.210919 0.158780 0.032048
0.268784 0.160668 0.033340
0.326907 0.162563 0.034638
0.385244 0.164466 0.035941
0.443761 0.166375 0.037248
0.502436 0.168289 0.038559
0.561251 0.170207 0.039872
0.620191 0.172130 0.041189
0.679244 0.174056 0.042508
0.738402 0.175986 0.043829
0.797655 0.177918 0.045152
0.856997 0.179854 0.046478
0.916423 0.181792 0.047805
0.013037 0.213814 0.031791
0.046295 0.214898 0.032534
0.102596 0.216735 0.033791
0.159670 0.218596 0.035066
0.217204 0.220473 0.036351
0.275069 0.222361 0.037643
0.333192 0.224256 0.038942
0.391529 0.226159 0.040245
0.450046 0.228068 0.041552
0.508721 0.229982 0.042862
0.567536 0.231900 0.044176
0.626476 0.233823 0.045492
0.685529 0.235749 0.046811
0.744687 0.237679 0.048132
0.803940 0.239611 0.049456
0.863282 0.241547 0.050781
0.922708 0.243485 0.052108
0.019357 0.275853 0.036119
0.052615 0.276938 0.036862
0.108916 0.278775 0.038119
0.165991 0.280636 0.039394
0.223525 0.282513 0.040679
0.281389 0.284400 0.041971
0.339513 0.286296 0.043269
0.397849 0.288199 0.044572
0.456366 0.290108 0.045879
0.515041 0.292022 0.047190
0.573856 0.293940 0.048503
0.632796 0.295863 0.049820
0.691849 0.297789 0.051139
0.751007 0.299719 0.052460
0.810260 0.301651 0.053784
0.869603 0.303587 0.055109
0.929028 0.305525 0.056436
0.025705 0.338166 0.040465
0.058963 0.339251 0.041208
0.115264 0.341087 0.042466
0.172339 0.342949 0.043741
0.229873 0.344826 0.045026
0.287737 0.346713 0.046318
0.345861 0.348609 0.047616
0.404197 0.350512 0.048919
0.462714 0.352421 0.050226
0.521389 0.354334 0.051537
0.580204 0.356253 0.052850
0.639144 0.358175 0.054167
0.698197 0.360102 0.055486
0.757355 0.362031 0.056807
0.816608 0.363964 0.058130
0.875951 0.365900 0.059456
0.935376 0.367838 0.060783
0.032076 0.400704 0.044828
0.065334 0.401789 0.045571
0.121635 0.403625 0.046828
0.178710 0.405487 0.048103
0.236244 0.407364 0.049388
0.294108 0.409251 0.050680
0.352232 0.411147 0.051979
0.410568 0.413050 0.053282
0.469085 0.414959 0.054589
0.527760 0.416872 0.055899
0.586575 0.418791 0.057213
0.645515 0.420713 0.058529
0.704568 0.422640 0.059848
0.763726 0.424569 0.061169
0.822979 0.426502 0.062493
0.882322 0.428438 0.063818
0.941949 0.430027 0.065898
0.038467 0.463434 0.049204
0.071725 0.464519 0.049947
0.128026 0.466355 0.051204
0.185100 0.468217 0.052479
0.242634 0.470093 0.053764
0.300499 0.471981 0.055056
0.358622 0.473877 0.056354
0.416959 0.475780 0.057657
0.475476 0.477688 0.058964
0.534151 0.479602 0.060275
0.592966 0.481521 0.061589
0.651905 0.483443 0.062905
0.711005 0.485289 0.064397
0.770386 0.486834 0.066550
0.829863 0.488381 0.068706
0.889429 0.489930 0.070865
0.949079 0.491481 0.073028
0.044874 0.526331 0.053591
0.078132 0.527416 0.054334
0.134433 0.529252 0.055592
0.191508 0.531114 0.056866
0.249042 0.532990 0.058151
0.306906 0.534878 0.059444
0.365030 0.536774 0.060742
0.423366 0.538677 0.062045
0.481884 0.540585 0.063352
0.540679 0.542291 0.065111
0.599716 0.543827 0.067252
0.658878 0.545366 0.069397
0.718154 0.546907 0.071546
0.777535 0.548452 0.073698
0.837012 0.549999 0.075855
0.896578 0.551548 0.078014
0.956228 0.553099 0.080177
0.051297 0.589376 0.057989
0.084555 0.590461 0.058732
0.140856 0.592297 0.059989
0.197930 0.594159 0.061264
0.255465 0.596036 0.062549
0.313329 0.597923 0.063842
0.371654 0.599472 0.065889
0.430210 0.600995 0.068012
0.488948 0.602523 0.070142
0.547845 0.604055 0.072277
0.606881 0.605590 0.074417
0.666043 0.607129 0.076562
0.725320 0.608671 0.078711
0.784700 0.610215 0.080864
0.844177 0.611762 0.083020
0.903743 0.613311 0.085180
0.963393 0.614863 0.087342
0.057733 0.652555 0.062396
0.090991 0.653640 0.063139
0.147368 0.655346 0.064678
0.204658 0.656836 0.066755
0.262409 0.658338 0.068849
0.320492 0.659848 0.070955
0.378834 0.661366 0.073070
0.437391 0.662889 0.075193
0.496129 0.664417 0.077322
0.555025 0.665948 0.079458
0.614062 0.667484 0.081598
0.673224 0.669023 0.083743
0.732500 0.670564 0.085892
0.791881 0.672109 0.088045
0.851358 0.673656 0.090201
0.910924 0.675205 0.092360
0.970574 0.676757 0.094523
0.064665 0.715020 0.068614
0.098049 0.715888 0.069824
0.154562 0.717358 0.071873
0.211852 0.718848 0.073950
0.269603 0.720350 0.076043
0.327686 0.721861 0.078149
0.386029 0.723378 0.080264
0.444585 0.724901 0.082387
0.503323 0.726429 0.084517
0.562220 0.727961 0.086652
0.621256 0.729496 0.088792
0.680418 0.731035 0.090937
0.739695 0.732577 0.093086
0.799075 0.734121 0.095239
0.858552 0.735668 0.097395
0.918119 0.737217 0.099555
0.977768 0.738769 0.101717
0.071872 0.777141 0.075821
0.105256 0.778009 0.077031
0.161769 0.779479 0.079080
0.219059 0.780969 0.081157
0.276810 0.782471 0.083250
0.334893 0.783982 0.085356
0.393236 0.785499 0.087471
0.451792 0.787022 0.089594
0.510530 0.788550 0.091724
0.569427 0.790082 0.093859
0.628463 0.791617 0.095999
0.687625 0.793156 0.098144
0.746902 0.794698 0.100293
0.806282 0.796242 0.102446
0.865759 0.797789 0.104602
0.925326 0.799338 0.106762
0.984975 0.800890 0.108924
0.079091 0.839361 0.083039
0.112474 0.840230 0.084249
0.168988 0.841700 0.086298
0.226278 0.843190 0.088375
0.284029 0.844692 0.090469
0.342112 0.846202 0.092575
0.400454 0.847720 0.094690
0.459011 0.849243 0.096813
0.517749 0.850771 0.098942
0.576645 0.852303 0.101078
0.635682 0.853838 0.103218
0.694844 0.855377 0.105363
0.754120 0.856919 0.107512
0.813501 0.858463 0.109665
0.872978 0.860010 0.111821
0.932544 0.861559 0.113980
0.992194 0.863111 0.116143
0.086320 0.901675 0.090269
0.119704 0.902544 0.091479
0.176217 0.904014 0.093528
0.233507 0.905504 0.095605
0.291258 0.907006 0.097698
0.349341 0.908516 0.099804
0.407684 0.910034 0.101919
0.466240 0.911557 0.104042
0.524978 0.913085 0.106172
0.583875 0.914616 0.108307
0.642911 0.916152 0.110447
0.702073 0.917691 0.112592
0.761350 0.919232 0.114741
0.820730 0.920777 0.116894
0.880207 0.922324 0.119050
0.939774 0.923873 0.121210
0.999423 0.925425 0.123372
0.093560 0.964076 0.097508
0.126943 0.964944 0.098718
0.183457 0.966414 0.100767
0.240746 0.967904 0.102844
0.298498 0.969406 0.104938
0.356581 0.970917 0.107044
0.414923 0.972434 0.109159
0.473480 0.973957 0.111282
0.532218 0.975485 0.113411
0.591114 0.977017 0.115546
0.650151 0.978553 0.117687
0.709313 0.980091 0.119832
0.768589 0.981633 0.121981
0.827970 0.983178 0.124133
0.887447 0.984724 0.126290
0.947013 0.986274 0.128449
1.000000 0.987825 0.130612
0.000000 0.000000 0.068610
0.024116 0.000000 0.069353
0.080417 0.000000 0.070611
0.137492 0.000000 0.071885
0.195026 0.000000 0.073170
0.252890 0.000000 0.074463
0.311014 0.001301 0.075761
0.369350 0.003204 0.077064
0.427868 0.005113 0.078371
0.486543 0.007026 0.079681
0.545357 0.008945 0.080995
0.604297 0.010867 0.082311
0.663350 0.012794 0.083630
0.722508 0.014723 0.084952
0.781761 0.016656 0.086275
0.841104 0.018592 0.087601
0.900529 0.020530 0.088928
0.000000 0.031072 0.071416
0.028213 0.032157 0.072158
0.084514 0.033994 0.073416
0.141589 0.035855 0.074691
0.199123 0.037732 0.075976
0.256987 0.039619 0.077268
0.315111 0.041515 0.078566
0.373447 0.043418 0.079869
0.431964 0.045327 0.081176
0.490639 0.047241 0.082487
0.549454 0.049159 0.083800
0.608394 0.051082 0.085117
0.667447 0.053008 0.086436
0.726605 0.054938 0.087757
0.785858 0.056870 0.089080
0.845201 0.058806 0.090406
0.904626 0.060744 0.091733
0.001111 0.091501 0.075631
0.034369 0.092586 0.076374
0.090670 0.094422 0.077631
0.147745 0.096284 0.078906
0.205279 0.098161 0.080191
0.263143 0.100048 0.081483
0.321267 0.101944 0.082782
0.379603 0.103847 0.084085
0.438120 0.105756 0.085391
0.496796 0.107669 0.086702
0.555610 0.109588 0.088016
0.614550 0.111510 0.089332
0.673603 0.113437 0.090651
0.732761 0.115366 0.091972
0.792014 0.117299 0.093296
0.851357 0.119235 0.094621
0.910782 0.121173 0.095948
0.007347 0.152716 0.079901
0.040605 0.153801 0.080644
0.096906 0.155637 0.081901
0.153981 0.157499 0.083176
0.211515 0.159376 0.084461
0.269380 0.161263 0.085754
0.327503 0.163159 0.087052
0.385839 0.165062 0.088355
0.444357 0.166970 0.089662
0.503032 0.168884 0.090972
0.561846 0.170803 0.092286
0.620786 0.172725 0.093602
0.679840 0.174652 0.094921
0.738997 0.176581 0.096242
0.798251 0.178514 0.097566
0.857593 0.180450 0.098891
0.917018 0.182388 0.100219
0.013632 0.214409 0.084205
0.046890 0.215494 0.084947
0.103191 0.217330 0.086205
0.160266 0.219192 0.087480
0.217800 0.221069 0.088765
0.275665 0.222956 0.090057
0.333788 0.224852 0.091355
0.392124 0.226755 0.092658
0.450642 0.228664 0.093965
0.509317 0.230577 0.095276
0.568131 0.232496 0.096589
0.627071 0.234418 0.097906
0.686125 0.236345 0.099225
0.745282 0.238274 0.100546
0.804536 0.240207 0.101869
0.863878 0.242143 0.103195
0.923303 0.244081 0.104522
0.019952 0.276449 0.088532
0.053210 0.277534 0.089275
0.109512 0.279370 0.090533
0.166586 0.281232 0.091807
0.224120 0.283109 0.093092
0.281985 0.284996 0.094385
0.340108 0.286892 0.095683
0.398444 0.288795 0.096986
0.456962 0.290703 0.098293
0.515637 0.292617 0.099603
0.574451 0.294536 0.100917
0.633391 0.296458 0.102233
0.692445 0.298384 0.103552
0.751602 0.300314 0.104874
0.810856 0.302247 0.106197
0.870198 0.304182 0.107523
0.929624 0.306121 0.108850
0.026300 0.338762 0.092879
0.059558 0.339846 0.093622
0.115860 0.341683 0.094879
0.172934 0.343545 0.096154
0.230468 0.345421 0.097439
0.288333 0.347309 0.098732
0.346456 0.349205 0.100030
0.404793 0.351107 0.101333
0.463310 0.353016 0.102640
0.521985 0.354930 0.103950
0.580800 0.356848 0.105264
0.639739 0.358771 0.106580
0.698793 0.360697 0.107899
0.757950 0.362627 0.109220
0.817204 0.364560 0.110544
0.876546 0.366495 0.111869
0.935972 0.368434 0.113197
0.032671 0.401300 0.097242
0.065929 0.402384 0.097984
0.122231 0.404221 0.099242
0.179305 0.406082 0.100517
0.236839 0.407959 0.101802
0.294704 0.409847 0.103094
0.352827 0.411742 0.104392
0.411164 0.413645 0.105695
0.469681 0.415554 0.107002
0.528356 0.417468 0.108313
0.587171 0.419386 0.109626
0.646110 0.421309 0.110943
0.705164 0.423235 0.112262
0.764321 0.425165 0.113583
0.823575 0.427097 0.114906
0.882964 0.428952 0.116406
0.942614 0.430504 0.118569
0.039062 0.464029 0.101617
0.072320 0.465114 0.102360
0.128621 0.466951 0.103618
0.185696 0.468812 0.104892
0.243230 0.470689 0.106178
0.301094 0.472576 0.107470
0.359218 0.474472 0.108768
0.417554 0.476375 0.110071
0.476072 0.478284 0.111378
0.534747 0.480198 0.112689
0.593561 0.482116 0.114002
0.652501 0.484039 0.115319
0.711670 0.485766 0.117067
0.771050 0.487310 0.119220
0.830527 0.488857 0.121376
0.890094 0.490407 0.123536
0.949743 0.491958 0.125698
0.045470 0.526926 0.106005
0.078728 0.528011 0.106748
0.135029 0.529848 0.108005
0.192103 0.531709 0.109280
0.249637 0.533586 0.110565
0.307502 0.535473 0.111857
0.365625 0.537369 0.113156
0.423962 0.539272 0.114459
0.482479 0.541181 0.115766
0.541343 0.542768 0.117782
0.600380 0.544303 0.119922
0.659542 0.545842 0.122067
0.718818 0.547384 0.124216
0.778199 0.548928 0.126369
0.837676 0.550475 0.128525
0.897242 0.552025 0.130684
0.956892 0.553576 0.132847
0.051892 0.589972 0.110403
0.085150 0.591057 0.111146
0.141451 0.592893 0.112403
0.198526 0.594755 0.113678
0.256060 0.596631 0.114963
0.313975 0.598431 0.116444
0.372318 0.599949 0.118559
0.430874 0.601472 0.120682
0.489613 0.602999 0.122812
0.548509 0.604531 0.124947
0.607545 0.606067 0.127087
0.666708 0.607606 0.129232
0.725984 0.609147 0.131381
0.785365 0.610692 0.133534
0.844842 0.612239 0.135690
0.904408 0.613788 0.137850
0.964058 0.615339 0.140012
0.058329 0.653150 0.114810
0.091587 0.654235 0.115553
0.148032 0.655822 0.117349
0.205322 0.657312 0.119426
0.263073 0.658814 0.121519
0.321156 0.660325 0.123625
0.379499 0.661842 0.125740
0.438055 0.663366 0.127863
0.496793 0.664893 0.129993
0.555690 0.666425 0.132128
0.614726 0.667961 0.134268
0.673888 0.669499 0.136413
0.733165 0.671041 0.138562
0.792545 0.672586 0.140715
0.852022 0.674133 0.142871
0.911589 0.675682 0.145031
0.971238 0.677233 0.147193
0.065330 0.715496 0.121284
0.098713 0.716365 0.122494
0.155227 0.717834 0.124543
0.212516 0.719325 0.126620
0.270268 0.720827 0.128714
0.328350 0.722337 0.130819
0.386693 0.723855 0.132935
0.445250 0.725378 0.135057
0.503988 0.726906 0.137187
0.562884 0.728437 0.139322
0.621921 0.729973 0.141463
0.681083 0.731512 0.143607
0.740359 0.733053 0.145756
0.799740 0.734598 0.147909
0.859217 0.736145 0.150065
0.918783 0.737694 0.152225
0.978433 0.739246 0.154388
0.072537 0.777617 0.128491
0.105920 0.778485 0.129701
0.162434 0.779955 0.131750
0.219723 0.781445 0.133827
0.277475 0.782947 0.135921
0.335557 0.784458 0.138026
0.393900 0.785976 0.140142
0.452457 0.787499 0.142264
0.511195 0.789026 0.144394
0.570091 0.790558 0.146529
0.629128 0.792094 0.148670
0.688290 0.793633 0.150814
0.747566 0.795174 0.152963
0.806947 0.796719 0.155116
0.866424 0.798266 0.157272
0.925990 0.799815 0.159432
0.985640 0.801366 0.161595
0.079755 0.839838 0.135709
0.113139 0.840706 0.136920
0.169652 0.842176 0.138969
0.226942 0.843666 0.141046
0.284693 0.845168 0.143139
0.342776 0.846679 0.145245
0.401119 0.848197 0.147360
0.459675 0.849720 0.149483
0.518413 0.851247 0.151613
0.577310 0.852779 0.153748
0.636346 0.854315 0.155888
0.695508 0.855853 0.158033
0.754785 0.857395 0.160182
0.814165 0.858940 0.162335
0.873642 0.860487 0.164491
0.933209 0.862036 0.166651
0.992858 0.863587 0.168813
0.086985 0.902152 0.142939
0.120368 0.903020 0.144149
0.176882 0.904490 0.146198
0.234171 0.905980 0.148275
0.291923 0.907482 0.150369
0.350005 0.908993 0.152474
0.408348 0.910510 0.154590
0.466905 0.912033 0.156712
0.525643 0.913561 0.158842
0.584539 0.915093 0.160977
0.643576 0.916629 0.163118
0.702738 0.918167 0.165262
0.762014 0.919709 0.167411
0.821395 0.921254 0.169564
0.880872 0.922801 0.171720
0.940438 0.924350 0.173880
1.000000 0.925901 0.176043
0.094224 0.964553 0.150178
0.127608 0.965421 0.151389
0.184121 0.966891 0.153437
0.241411 0.968381 0.155514
0.299162 0.969883 0.157608
0.357245 0.971394 0.159714
0.415588 0.972911 0.161829
0.474144 0.974434 0.163952
0.532882 0.975962 0.166081
0.591779 0.977494 0.168217
0.650815 0.979029 0.170357
0.709977 0.980568 0.172502
0.769253 0.982110 0.174651
0.828634 0.983654 0.176804
0.888111 0.985201 0.178960
0.947677 0.986750 0.181119
1.000000 0.988302 0.183282
0.000000 0.000000 0.122269
0.024726 0.000000 0.123012
0.081027 0.000000 0.124269
0.138101 0.000000 0.125544
0.195635 0.000000 0.126829
0.253500 0.000015 0.128122
0.311623 0.001911 0.129420
0.369960 0.003813 0.130723
0.428477 0.005722 0.132030
0.487152 0.007636 0.133340
0.545967 0.009555 0.134654
0.604907 0.011477 0.135970
0.663960 0.013403 0.137289
0.723118 0.015333 0.138610
0.782371 0.017266 0.139934
0.841714 0.019201 0.141259
0.901139 0.021140 0.142587
0.000000 0.031682 0.125074
0.028823 0.032767 0.125817
0.085124 0.034603 0.127075
0.142198 0.036465 0.128349
0.199732 0.038342 0.129634
0.257597 0.040229 0.130927
0.315720 0.042125 0.132225
0.374057 0.044028 0.133528
0.432574 0.045937 0.134835
0.491249 0.047850 0.136145
0.550064 0.049769 0.137459
0.609003 0.051691 0.138775
0.668057 0.053618 0.140094
0.727214 0.055547 0.141416
0.786468 0.057480 0.142739
0.845810 0.059416 0.144065
0.905236 0.061354 0.145392
0.001721 0.092111 0.129290
0.034979 0.093196 0.130032
0.091280 0.095032 0.131290
0.148354 0.096894 0.132565
0.205888 0.098770 0.133850
0.263753 0.100658 0.135142
0.321876 0.102554 0.136440
0.380213 0.104456 0.137743
0.438730 0.106365 0.139050
0.497405 0.108279 0.140361
0.556220 0.110198 0.141674
0.615160 0.112120 0.142991
0.674213 0.114046 0.144310
0.733371 0.115976 0.145631
0.792624 0.117909 0.146954
0.851966 0.119844 0.148280
0.911392 0.121783 0.149607
0.007957 0.153326 0.133560
0.041215 0.154410 0.134303
0.097516 0.156247 0.135560
0.154591 0.158109 0.136835
0.212125 0.159985 0.138120
0.269989 0.161873 0.139412
0.328113 0.163769 0.140710
0.386449 0.165671 0.142013
0.444966 0.167580 0.143320
0.503641 0.169494 0.144631
0.562456 0.171412 0.145945
0.621396 0.173335 0.147261
0.680449 0.175261 0.148580
0.739607 0.177191 0.149901
0.798860 0.179124 0.151225
0.858203 0.181059 0.152550
0.917628 0.182998 0.153877
0.014242 0.215019 0.137863
0.047500 0.216104 0.138606
0.103801 0.217940 0.139864
0.160875 0.219802 0.141138
0.218410 0.221678 0.142423
0.276274 0.223566 0.143716
0.334398 0.225462 0.145014
0.392734 0.227364 0.146317
0.451251 0.229273 0.147624
0.509926 0.231187 0.148934
0.568741 0.233106 0.150248
0.627681 0.235028 0.151564
0.686734 0.236954 0.152883
0.745892 0.238884 0.154205
0.805145 0.240817 0.155528
0.864488 0.242752 0.156854
0.923913 0.244691 0.158181
0.020562 0.277059 0.142191
0.053820 0.278143 0.142934
0.110121 0.279980 0.144191
0.167196 0.281842 0.145466
0.224730 0.283718 0.146751
0.282594 0.285606 0.148044
0.340718 0.287502 0.149342
0.399054 0.289404 0.150645
0.457572 0.291313 0.151952
0.516247 0.293227 0.153262
0.575061 0.295145 0.154576
0.634001 0.297068 0.155892
0.693054 0.298994 0.157211
0.752212 0.300924 0.158532
0.811465 0.302856 0.159856
0.870808 0.304792 0.161181
0.930233 0.306730 0.162509
0.026910 0.339371 0.146538
0.060168 0.340456 0.147281
0.116469 0.342293 0.148538
0.173544 0.344154 0.149813
0.231078 0.346031 0.151098
0.288942 0.347918 0.152390
0.347066 0.349814 0.153689
0.405402 0.351717 0.154991
0.463920 0.353626 0.156298
0.522595 0.355540 0.157609
0.581409 0.357458 0.158923
0.640349 0.359381 0.160239
0.699403 0.361307 0.161558
0.758560 0.363236 0.162879
0.817813 0.365169 0.164203
0.877156 0.367105 0.165528
0.936581 0.369043 0.166855
0.033281 0.401909 0.150900
0.066539 0.402994 0.151643
0.122840 0.404830 0.152901
0.179915 0.406692 0.154175
0.237449 0.408569 0.155460
0.295313 0.410456 0.156753
0.353437 0.412352 0.158051
0.411773 0.414255 0.159354
0.470291 0.416164 0.160661
0.528966 0.418078 0.161971
0.587780 0.419996 0.163285
0.646720 0.421919 0.164601
0.705774 0.423845 0.165920
0.764931 0.425774 0.167242
0.824184 0.427707 0.168565
0.883644 0.429440 0.170327
0.943294 0.430992 0.172490
0.039672 0.464639 0.155276
0.072930 0.465724 0.156019
0.129231 0.467560 0.157276
0.186305 0.469422 0.158551
0.243839 0.471299 0.159836
0.301704 0.473186 0.161129
0.359827 0.475082 0.162427
0.418164 0.476985 0.163730
0.476681 0.478893 0.165037
0.535356 0.480807 0.166347
0.594171 0.482726 0.167661
0.653111 0.484648 0.168977
0.712350 0.486254 0.170989
0.771731 0.487798 0.173141
0.831208 0.489345 0.175298
0.890774 0.490895 0.177457
0.950423 0.492446 0.179620
0.046079 0.527536 0.159664
0.079337 0.528621 0.160406
0.135638 0.530457 0.161664
0.192713 0.532319 0.162939
0.250247 0.534196 0.164224
0.308112 0.536083 0.165516
0.366235 0.537979 0.166814
0.424571 0.539882 0.168117
0.483127 0.541724 0.169568
0.542024 0.543256 0.171703
0.601060 0.544791 0.173843
0.660222 0.546330 0.175988
0.719499 0.547872 0.178137
0.778879 0.549416 0.180290
0.838356 0.550963 0.182446
0.897923 0.552513 0.184606
0.957572 0.554064 0.186768
0.052502 0.590581 0.164062
0.085760 0.591666 0.164804
0.142061 0.593503 0.166062
0.199136 0.595364 0.167337
0.256670 0.597241 0.168622
0.314656 0.598919 0.170366
0.372998 0.600437 0.172481
0.431555 0.601960 0.174604
0.490293 0.603487 0.176733
0.549189 0.605019 0.178869
0.608226 0.606555 0.181009
0.667388 0.608094 0.183154
0.726664 0.609635 0.185303
0.786045 0.611180 0.187456
0.845522 0.612727 0.189612
0.905088 0.614276 0.191771
0.964738 0.615827 0.193934
0.058938 0.653760 0.168469
0.092199 0.654840 0.169221
0.148712 0.656310 0.171270
0.206002 0.657800 0.173347
0.263753 0.659302 0.175441
0.321836 0.660813 0.177546
0.380179 0.662330 0.179662
0.438735 0.663853 0.181785
0.497473 0.665381 0.183914
0.556370 0.666913 0.186049
0.615406 0.668449 0.188190
0.674568 0.669987 0.190334
0.733845 0.671529 0.192483
0.793225 0.673074 0.194636
0.852702 0.674621 0.196792
0.912269 0.676170 0.198952
0.971918 0.677721 0.201115
0.066010 0.715984 0.175205
0.099393 0.716853 0.176416
0.155907 0.718322 0.178464
0.213197 0.719813 0.180541
0.270948 0.721315 0.182635
0.329031 0.722825 0.184741
0.387373 0.724343 0.186856
0.445930 0.725866 0.188979
0.504668 0.727394 0.191108
0.563564 0.728925 0.193244
0.622601 0.730461 0.195384
0.681763 0.732000 0.197529
0.741039 0.733541 0.199678
0.800420 0.735086 0.201831
0.859897 0.736633 0.203987
0.919463 0.738182 0.206146
0.979113 0.739734 0.208309
0.073217 0.778105 0.182412
0.106600 0.778973 0.183623
0.163114 0.780443 0.185671
0.220404 0.781933 0.187748
0.278155 0.783435 0.189842
0.336238 0.784946 0.191948
0.394580 0.786464 0.194063
0.453137 0.787987 0.196186
0.511875 0.789514 0.198315
0.570771 0.791046 0.200451
0.629808 0.792582 0.202591
0.688970 0.794121 0.204736
0.748246 0.795662 0.206885
0.807627 0.797207 0.209038
0.867104 0.798754 0.211194
0.926670 0.800303 0.213353
0.986320 0.801854 0.215516
0.080435 0.840326 0.189631
0.113819 0.841194 0.190841
0.170332 0.842664 0.192890
0.227622 0.844154 0.194967
0.285373 0.845656 0.197061
0.343456 0.847167 0.199166
0.401799 0.848685 0.201282
0.460355 0.850208 0.203405
0.519093 0.851735 0.205534
0.577990 0.853267 0.207669
0.637026 0.854803 0.209810
0.696189 0.856341 0.211954
0.755465 0.857883 0.214103
0.814845 0.859428 0.216256
0.874322 0.860975 0.218413
0.933889 0.862524 0.220572
0.993538 0.864075 0.222735
0.087665 0.902640 0.196860
0.121048 0.903508 0.198071
0.177562 0.904978 0.200119
0.234852 0.906468 0.202196
0.292603 0.907970 0.204290
0.350686 0.909481 0.206396
0.409028 0.910998 0.208511
0.467585 0.912521 0.210634
0.526323 0.914049 0.212763
0.585219 0.915581 0.214899
0.644256 0.917117 0.217039
0.703418 0.918655 0.219184
0.762694 0.920197 0.221333
0.822075 0.921742 0.223486
0.881552 0.923288 0.225642
0.941118 0.924838 0.227801
1.000000 0.926389 0.229964
0.094904 0.965041 0.204100
0.128288 0.965909 0.205310
0.184801 0.967379 0.207359
0.242091 0.968869 0.209436
0.299842 0.970371 0.211530
0.357925 0.971882 0.213635
0.416268 0.973399 0.215750
0.474824 0.974922 0.217873
0.533562 0.976450 0.220003
0.592459 0.977982 0.222138
0.651495 0.979517 0.224278
0.710657 0.981056 0.226423
0.769934 0.982598 0.228572
0.829314 0.984142 0.230725
0.888791 0.985689 0.232881
0.948358 0.987238 0.235041
1.000000 0.988790 0.237203
0.000000 0.000000 0.176479
0.025342 0.000000 0.177222
0.081643 0.000000 0.178479
0.138717 0.000000 0.179754
0.196251 0.000000 0.181039
0.254116 0.000631 0.182332
0.312239 0.002527 0.183630
0.370576 0.004429 0.184933
0.429093 0.006338 0.186240
0.487768 0.008252 0.187550
