assets/luts/generated_genre/bs_drama_phantom_thread_ed4ffc55fe4bf002.cube
# V4 spec-generated LUT — bs_drama_phantom_thread
# Genre: drama
# Look: Painterly prestige drama — amber-warm with mild blue shadow chord. PTA/Phantom Thread, Young/Selma.
# Spec hash: ed4ffc55fe4bf002
TITLE "V4 Spec LUT — bs_drama_phantom_thread"
LUT_3D_SIZE 9
DOMAIN_MIN 0.0 0.0 0.0
DOMAIN_MAX 1.0 1.0 1.0
0.040422 0.031421 0.021209
0.143943 0.035676 0.024414
0.245831 0.039865 0.027569
0.346857 0.044018 0.030696
0.447288 0.048146 0.033805
0.547266 0.052256 0.036900
0.646879 0.056351 0.039984
0.746184 0.060433 0.043058
0.845225 0.064504 0.046124
0.056452 0.146747 0.032197
0.159973 0.151003 0.035402
0.261862 0.155191 0.038556
0.362887 0.159344 0.041683
0.463319 0.163473 0.044793
0.563297 0.167582 0.047888
0.662909 0.171677 0.050971
0.762214 0.175759 0.054046
0.861255 0.179831 0.057112
0.072195 0.260002 0.042987
0.175716 0.264258 0.046192
0.277605 0.268446 0.049346
0.378630 0.272599 0.052473
0.479061 0.276727 0.055583
0.579040 0.280837 0.058678
0.678652 0.284932 0.061761
0.777957 0.289014 0.064836
0.876998 0.293086 0.067902
0.087796 0.372237 0.053680
0.191317 0.376493 0.056885
0.293206 0.380681 0.060039
0.394231 0.384834 0.063166
0.494662 0.388963 0.066275
0.594641 0.393073 0.069371
0.694253 0.397167 0.072454
0.793558 0.401250 0.075529
0.892599 0.405321 0.078595
0.103302 0.483786 0.064307
0.206822 0.488042 0.067512
0.308711 0.492230 0.070666
0.409736 0.496383 0.073794
0.510168 0.500511 0.076903
0.610146 0.504621 0.079998
0.709785 0.508870 0.083747
0.809131 0.513195 0.087871
0.908213 0.517509 0.091983
0.118735 0.594816 0.074885
0.222256 0.599071 0.078090
0.324146 0.603269 0.081283
0.425213 0.607669 0.085478
0.525687 0.612043 0.089648
0.625707 0.616397 0.093799
0.725360 0.620736 0.097936
0.824707 0.625061 0.102059
0.923789 0.629375 0.106172
0.134168 0.705768 0.086889
0.237732 0.710277 0.091187
0.339664 0.714715 0.095418
0.440731 0.719115 0.099613
0.541204 0.723489 0.103783
0.641224 0.727843 0.107935
0.740877 0.732182 0.112071
0.840224 0.736507 0.116194
0.939306 0.740821 0.120307
0.149637 0.816864 0.100979
0.253201 0.821372 0.105278
0.355132 0.825810 0.109509
0.456199 0.830210 0.113703
0.556672 0.834584 0.117874
0.656692 0.838939 0.122025
0.756346 0.843277 0.126162
0.855692 0.847602 0.130285
0.954774 0.851916 0.134398
0.165063 0.927658 0.115032
0.268627 0.932166 0.119330
0.370558 0.936604 0.123561
0.471625 0.941004 0.127756
0.572099 0.945378 0.131926
0.672118 0.949733 0.136078
0.771772 0.954071 0.140214
0.871119 0.958396 0.144338
0.970201 0.962710 0.148450
0.042096 0.032945 0.126563
0.145617 0.037200 0.129768
0.247506 0.041388 0.132922
0.348531 0.045541 0.136050
0.448962 0.049670 0.139159
0.548940 0.053780 0.142254
0.648553 0.057875 0.145338
0.747858 0.061957 0.148412
0.846899 0.066028 0.151478
0.058126 0.148271 0.137551
0.161647 0.152526 0.140755
0.263536 0.156715 0.143910
0.364561 0.160868 0.147037
0.464993 0.164996 0.150146
0.564971 0.169106 0.153241
0.664583 0.173201 0.156325
0.763888 0.177283 0.159399
0.862929 0.181354 0.162466
0.073869 0.261526 0.148341
0.177390 0.265781 0.151545
0.279279 0.269970 0.154700
0.380304 0.274122 0.157827
0.480735 0.278251 0.160936
0.580714 0.282361 0.164031
0.680326 0.286456 0.167115
0.779631 0.290538 0.170189
0.878672 0.294609 0.173256
0.089470 0.373761 0.159034
0.192991 0.378017 0.162238
0.294880 0.382205 0.165393
0.395905 0.386358 0.168520
0.496336 0.390486 0.171629
0.596315 0.394596 0.174724
0.695927 0.398691 0.177808
0.795232 0.402773 0.180882
0.894273 0.406845 0.183948
0.104976 0.485310 0.169661
0.208496 0.489565 0.172866
0.310385 0.493754 0.176020
0.411411 0.497906 0.179148
0.511842 0.502035 0.182257
0.611820 0.506146 0.185357
0.711474 0.510484 0.189493
0.810821 0.514809 0.193616
0.909903 0.519123 0.197729
0.120409 0.596340 0.180239
0.223930 0.600595 0.183444
0.325836 0.604883 0.187028
0.426903 0.609283 0.191223
0.527376 0.613657 0.195393
0.627396 0.618012 0.199545
0.727050 0.622350 0.203681
0.826396 0.626675 0.207805
0.925478 0.630989 0.211917
0.135858 0.707383 0.192634
0.239422 0.711891 0.196932
0.341353 0.716329 0.201163
0.442420 0.720729 0.205358
0.542893 0.725103 0.209529
0.642913 0.729458 0.213680
0.742567 0.733796 0.217816
0.841913 0.738121 0.221940
0.940996 0.742435 0.226052
0.151326 0.818478 0.206725
0.254890 0.822987 0.211023
0.356821 0.827424 0.215254
0.457888 0.831824 0.219449
0.558362 0.836198 0.223619
0.658382 0.840553 0.227771
0.758035 0.844891 0.231907
0.857382 0.849216 0.236030
0.956464 0.853530 0.240143
0.166753 0.929272 0.220777
0.270316 0.933781 0.225076
0.372248 0.938218 0.229306
0.473315 0.942618 0.233501
0.573788 0.946992 0.237672
0.673808 0.951347 0.241823
0.773462 0.955685 0.245959
0.872808 0.960010 0.250083
0.971890 0.964324 0.254195
0.043729 0.034431 0.229369
0.147250 0.038687 0.232574
0.249139 0.042875 0.235728
0.350164 0.047028 0.238855
0.450595 0.051157 0.241965
0.550574 0.055266 0.245060
0.650186 0.059361 0.248143
0.749491 0.063443 0.251218
0.848532 0.067515 0.254284
0.059760 0.149758 0.240356
0.163281 0.154013 0.243561
0.265170 0.158201 0.246715
0.366195 0.162354 0.249843
0.466626 0.166483 0.252952
0.566605 0.170593 0.256047
0.666217 0.174688 0.259131
0.765522 0.178770 0.262205
0.864563 0.182841 0.265271
0.075503 0.263012 0.251146
0.179024 0.267268 0.254351
0.280912 0.271456 0.257505
0.381938 0.275609 0.260633
0.482369 0.279738 0.263742
0.582347 0.283847 0.266837
0.681960 0.287942 0.269921
0.781265 0.292025 0.272995
0.880306 0.296096 0.276061
0.091104 0.375248 0.261839
0.194625 0.379503 0.265044
0.296513 0.383692 0.268198
0.397539 0.387845 0.271326
0.497970 0.391973 0.274435
0.597948 0.396083 0.277530
0.697561 0.400178 0.280614
0.796866 0.404260 0.283688
0.895907 0.408331 0.286754
0.106609 0.486796 0.272467
0.210130 0.491052 0.275671
0.312019 0.495240 0.278826
0.413044 0.499393 0.281953
0.513475 0.503522 0.285062
0.613469 0.507721 0.288544
0.713123 0.512060 0.292681
0.812469 0.516385 0.296804
0.911551 0.520698 0.300917
0.122043 0.597826 0.283045
0.225563 0.602082 0.286249
0.327484 0.606458 0.290216
0.428552 0.610858 0.294411
0.529025 0.615232 0.298581
0.629045 0.619587 0.302733
0.728698 0.623925 0.306869
0.828045 0.628250 0.310992
0.927127 0.632564 0.315105
0.137506 0.708958 0.295822
0.241070 0.713467 0.300120
0.343002 0.717904 0.304351
0.444069 0.722304 0.308546
0.544542 0.726678 0.312716
0.644562 0.731033 0.316868
0.744216 0.735371 0.321004
0.843562 0.739696 0.325128
0.942644 0.744010 0.329240
0.152975 0.820053 0.309912
0.256539 0.824562 0.314211
0.358470 0.828999 0.318442
0.459537 0.833399 0.322637
0.560010 0.837774 0.326807
0.660030 0.842128 0.330958
0.759684 0.846466 0.335095
0.859030 0.850792 0.339218
0.958112 0.855105 0.343331
0.168401 0.930847 0.323965
0.271965 0.935356 0.328263
0.373896 0.939793 0.332494
0.474963 0.944193 0.336689
0.575437 0.948568 0.340859
0.675457 0.952922 0.345011
0.775110 0.957260 0.349147
0.874457 0.961586 0.353271
0.973539 0.965899 0.357383
0.045347 0.035903 0.331147
0.148867 0.040159 0.334352
0.250756 0.044347 0.337506
0.351781 0.048500 0.340634
0.452213 0.052628 0.343743
0.552191 0.056738 0.346838
0.651803 0.060833 0.349922
0.751109 0.064915 0.352996
0.850149 0.068987 0.356062
0.061377 0.151229 0.342135
0.164898 0.155485 0.345339
0.266787 0.159673 0.348494
0.367812 0.163826 0.351621
0.468243 0.167955 0.354730
0.568222 0.172065 0.357825
0.667834 0.176159 0.360909
0.767139 0.180242 0.363983
0.866180 0.184313 0.367049
0.077120 0.264484 0.352925
0.180641 0.268740 0.356129
0.282530 0.272928 0.359284
0.383555 0.277081 0.362411
0.483986 0.281209 0.365520
0.583964 0.285319 0.368615
0.683577 0.289414 0.371699
0.782882 0.293496 0.374773
0.881923 0.297568 0.377839
0.092721 0.376720 0.363617
0.196242 0.380975 0.366822
0.298131 0.385164 0.369977
0.399156 0.389316 0.373104
0.499587 0.393445 0.376213
0.599565 0.397555 0.379308
0.699178 0.401650 0.382392
0.798483 0.405732 0.385466
0.897535 0.409869 0.388819
0.108226 0.488268 0.374245
0.211747 0.492524 0.377450
0.313636 0.496712 0.380604
0.414661 0.500865 0.383731
0.515093 0.504993 0.386841
0.615101 0.509281 0.390701
0.714755 0.513619 0.394837
0.814101 0.517944 0.398961
0.913183 0.522258 0.403073
0.123660 0.599298 0.384823
0.227185 0.603580 0.388142
0.329117 0.608018 0.392373
0.430184 0.612418 0.396568
0.530657 0.616792 0.400738
0.630677 0.621146 0.404889
0.730331 0.625485 0.409026
0.829677 0.629810 0.413149
0.928759 0.634123 0.417262
0.139138 0.710517 0.397978
0.242702 0.715026 0.402277
0.344634 0.719464 0.406508
0.445701 0.723864 0.410703
0.546174 0.728238 0.414873
0.646194 0.732592 0.419024
0.745848 0.736931 0.423161
0.845194 0.741256 0.427284
0.944276 0.745569 0.431397
0.154607 0.821612 0.412069
0.258171 0.826121 0.416368
0.360102 0.830559 0.420598
0.461169 0.834959 0.424793
0.561642 0.839333 0.428964
0.661662 0.843687 0.433115
0.761316 0.848026 0.437251
0.860663 0.852351 0.441375
0.959745 0.856665 0.445487
0.170033 0.932406 0.426121
0.273597 0.936915 0.430420
0.375528 0.941353 0.434651
0.476596 0.945753 0.438846
0.577069 0.950127 0.443016
0.677089 0.954481 0.447167
0.776742 0.958820 0.451304
0.876089 0.963145 0.455427
0.975171 0.967459 0.459540
0.046953 0.037365 0.432259
0.150474 0.041621 0.435464
0.252363 0.045809 0.438618
0.353388 0.049962 0.441745
0.453819 0.054091 0.444854
0.553798 0.058201 0.447950
0.653410 0.062295 0.451033
0.752715 0.066378 0.454108
0.851756 0.070449 0.457174
0.062984 0.152692 0.443246
0.166505 0.156947 0.446451
0.268394 0.161136 0.449605
0.369419 0.165288 0.452733
0.469850 0.169417 0.455842
0.569828 0.173527 0.458937
0.669441 0.177622 0.462021
0.768746 0.181704 0.465095
0.867787 0.185775 0.468161
0.078727 0.265946 0.454036
0.182247 0.270202 0.457241
0.284136 0.274390 0.460395
0.385161 0.278543 0.463523
0.485593 0.282672 0.466632
0.585571 0.286782 0.469727
0.685183 0.290876 0.472811
0.784489 0.294959 0.475885
0.883529 0.299030 0.478951
0.094328 0.378182 0.464729
0.197848 0.382437 0.467934
0.299737 0.386626 0.471088
0.400762 0.390779 0.474216
0.501194 0.394907 0.477325
0.601172 0.399017 0.480420
0.700784 0.403112 0.483504
0.800090 0.407194 0.486578
0.899156 0.411419 0.490306
0.109833 0.489730 0.475357
0.213354 0.493986 0.478561
0.315243 0.498174 0.481716
0.416268 0.502327 0.484843
0.516703 0.506475 0.488037
0.616723 0.510830 0.492188
0.716376 0.515168 0.496325
0.815723 0.519493 0.500448
0.914805 0.523807 0.504561
0.125267 0.600760 0.485935
0.228807 0.605129 0.489629
0.330738 0.609567 0.493860
0.431805 0.613967 0.498055
0.532278 0.618341 0.502225
0.632298 0.622695 0.506377
0.731952 0.627034 0.510513
0.831299 0.631359 0.514637
0.930381 0.635673 0.518749
0.140760 0.712066 0.499466
0.244324 0.716575 0.503764
0.346255 0.721013 0.507995
0.447322 0.725413 0.512190
0.547795 0.729787 0.516360
0.647815 0.734141 0.520512
0.747469 0.738480 0.524648
0.846816 0.742805 0.528772
0.945898 0.747119 0.532884
0.156228 0.823162 0.513556
0.259792 0.827670 0.517855
0.361724 0.832108 0.522086
0.462791 0.836508 0.526281
0.563264 0.840882 0.530451
0.663284 0.845237 0.534602
0.762937 0.849575 0.538739
0.862284 0.853900 0.542862
0.961366 0.858214 0.546975
0.171655 0.933956 0.527609
0.275219 0.938464 0.531907
0.377150 0.942902 0.536138
0.478217 0.947302 0.540333
0.578690 0.951676 0.544503
0.678710 0.956031 0.548655
0.778364 0.960369 0.552791
0.877710 0.964694 0.556915
0.976792 0.969008 0.561027
0.048552 0.038820 0.532876
0.152073 0.043076 0.536080
0.253962 0.047264 0.539235
0.354987 0.051417 0.542362
0.455418 0.055546 0.545471
0.555397 0.059656 0.548566
0.655009 0.063750 0.551650
0.754314 0.067833 0.554725
0.853355 0.071904 0.557791
0.064583 0.154147 0.543863
0.168103 0.158402 0.547068
0.269992 0.162591 0.550222
0.371018 0.166744 0.553350
0.471449 0.170872 0.556459
0.571427 0.174982 0.559554
0.671039 0.179077 0.562638
0.770345 0.183159 0.565712
0.869385 0.187230 0.568778
0.080325 0.267401 0.554653
0.183846 0.271657 0.557858
0.285735 0.275845 0.561012
0.386760 0.279998 0.564140
0.487192 0.284127 0.567249
0.587170 0.288237 0.570344
0.686782 0.292331 0.573428
0.786087 0.296414 0.576502
0.885128 0.300485 0.579568
0.095926 0.379637 0.565346
0.199447 0.383892 0.568551
0.301336 0.388081 0.571705
0.402361 0.392234 0.574833
0.502793 0.396362 0.577942
0.602771 0.400472 0.581037
0.702383 0.404567 0.584121
0.801688 0.408649 0.587195
0.900770 0.412960 0.591297
0.111432 0.491185 0.575973
0.214953 0.495441 0.579178
0.316842 0.499629 0.582332
0.417867 0.503782 0.585460
0.518316 0.508017 0.589028
0.618336 0.512371 0.593179
0.717990 0.516710 0.597316
0.817336 0.521035 0.601439
0.916418 0.525349 0.605552
0.126865 0.602215 0.586552
0.230420 0.606671 0.590620
0.332352 0.611109 0.594851
0.433419 0.615509 0.599046
0.533892 0.619883 0.603216
0.633912 0.624237 0.607368
0.733565 0.628576 0.611504
0.832912 0.632901 0.615627
0.931994 0.637214 0.619740
0.142373 0.713608 0.600457
0.245937 0.718117 0.604755
0.347869 0.722554 0.608986
0.448936 0.726955 0.613181
0.549409 0.731329 0.617351
0.649429 0.735683 0.621503
0.749083 0.740022 0.625639
0.848429 0.744347 0.629763
0.947511 0.748660 0.633875
0.157842 0.824703 0.614547
0.261406 0.829212 0.618846
0.363337 0.833650 0.623077
0.464404 0.838050 0.627272
0.564877 0.842424 0.631442
0.664897 0.846778 0.635593
0.764551 0.851117 0.639730
0.863898 0.855442 0.643853
0.962980 0.859755 0.647966
0.173268 0.935497 0.628600
0.276832 0.940006 0.632898
0.378763 0.944444 0.637129
0.479831 0.948844 0.641324
0.580304 0.953218 0.645494
0.680324 0.957572 0.649646
0.779977 0.961911 0.653782
0.879324 0.966236 0.657906
0.978406 0.970550 0.662018
0.050145 0.040270 0.633099
0.153665 0.044525 0.636304
0.255554 0.048714 0.639458
0.356579 0.052867 0.642586
0.457011 0.056995 0.645695
0.556989 0.061105 0.648790
0.656601 0.065200 0.651874
0.755907 0.069282 0.654948
0.854947 0.073353 0.658014
0.066175 0.155596 0.644087
0.169696 0.159852 0.647291
0.271585 0.164040 0.650446
0.372610 0.168193 0.653573
0.473041 0.172321 0.656682
0.573020 0.176431 0.659777
0.672632 0.180526 0.662861
0.771937 0.184608 0.665936
0.870978 0.188680 0.669002
0.081918 0.268851 0.654877
0.185439 0.273106 0.658081
0.287328 0.277295 0.661236
0.388353 0.281448 0.664363
0.488784 0.285576 0.667472
0.588762 0.289686 0.670567
0.688375 0.293781 0.673651
0.787680 0.297863 0.676726
0.886721 0.301934 0.679792
0.097519 0.381086 0.665570
0.201040 0.385342 0.668774
0.302929 0.389530 0.671929
0.403954 0.393683 0.675056
0.504385 0.397812 0.678165
0.604363 0.401921 0.681260
0.703976 0.406016 0.684344
0.803295 0.410182 0.687781
0.902377 0.414496 0.691893
0.113024 0.492635 0.676197
0.216545 0.496890 0.679402
0.318434 0.501079 0.682556
0.419459 0.505232 0.685684
0.519923 0.509553 0.689624
0.619943 0.513907 0.693775
0.719597 0.518246 0.697912
0.818944 0.522571 0.702035
0.918026 0.526884 0.706148
0.128463 0.603698 0.686918
0.232027 0.608207 0.691216
0.333959 0.612644 0.695447
0.435026 0.617044 0.699642
0.535499 0.621418 0.703812
0.635519 0.625773 0.707964
0.735173 0.630111 0.712100
0.834519 0.634436 0.716224
0.933601 0.638750 0.720336
0.143981 0.715144 0.701053
0.247545 0.719652 0.705351
0.349476 0.724090 0.709582
0.450543 0.728490 0.713777
0.551016 0.732864 0.717947
0.651036 0.737219 0.722099
0.750690 0.741557 0.726235
0.850036 0.745882 0.730359
0.949118 0.750196 0.734471
0.159449 0.826239 0.715143
0.263013 0.830748 0.719442
0.364944 0.835185 0.723673
0.466011 0.839585 0.727868
0.566484 0.843959 0.732038
0.666504 0.848314 0.736190
0.766158 0.852652 0.740326
0.865505 0.856978 0.744449
0.964587 0.861291 0.748562
0.174875 0.937033 0.729196
0.278439 0.941542 0.733494
0.380371 0.945979 0.737725
0.481438 0.950379 0.741920
0.581911 0.954754 0.746091
0.681931 0.959108 0.750242
0.781585 0.963446 0.754378
0.880931 0.967772 0.758502
0.980013 0.972085 0.762614
0.051732 0.041714 0.732997
0.155253 0.045970 0.736201
0.257142 0.050158 0.739356
0.358167 0.054311 0.742483
0.458598 0.058440 0.745592
0.558576 0.062550 0.748687
0.658189 0.066644 0.751771
0.757494 0.070727 0.754845
0.856535 0.074798 0.757911
0.067763 0.157041 0.743984
0.171283 0.161296 0.747189
0.273172 0.165485 0.750343
0.374197 0.169638 0.753471
0.474629 0.173766 0.756580
0.574607 0.177876 0.759675
0.674219 0.181971 0.762759
0.773525 0.186053 0.765833
0.872565 0.190124 0.768899
0.083505 0.270296 0.754774
0.187026 0.274551 0.757979
0.288915 0.278739 0.761133
0.389940 0.282892 0.764261
0.490371 0.287021 0.767370
0.590350 0.291131 0.770465
0.689962 0.295226 0.773549
0.789267 0.299308 0.776623
0.888308 0.303379 0.779689
0.099106 0.382531 0.765467
0.202627 0.386786 0.768672
0.304516 0.390975 0.771826
0.405541 0.395128 0.774953
0.505972 0.399256 0.778063
0.605951 0.403366 0.781158
0.705563 0.407461 0.784241
0.804897 0.411713 0.788049
0.903979 0.416027 0.792162
0.114612 0.494080 0.776094
0.218133 0.498335 0.779299
0.320022 0.502523 0.782453
0.421052 0.506709 0.785722
0.521525 0.511083 0.789893
0.621545 0.515438 0.794044
0.721199 0.519776 0.798180
0.820546 0.524101 0.802304
0.919628 0.528415 0.806416
0.130065 0.605228 0.787186
0.233629 0.609737 0.791485
0.335561 0.614175 0.795716
0.436628 0.618575 0.799911
0.537101 0.622949 0.804081
0.637121 0.627303 0.808232
0.736775 0.631642 0.812369
0.836121 0.635967 0.816492
0.935203 0.640281 0.820605
0.145583 0.716674 0.801321
0.249147 0.721183 0.805620
0.351078 0.725621 0.809851
0.452145 0.730021 0.814046
0.552618 0.734395 0.818216
0.652638 0.738749 0.822367
0.752292 0.743088 0.826504
0.851638 0.747413 0.830627
0.950720 0.751727 0.834740
0.161051 0.827770 0.815412
0.264615 0.832278 0.819711
0.366546 0.836716 0.823941
0.467613 0.841116 0.828136
0.568086 0.845490 0.832307
0.668106 0.849845 0.836458
0.767760 0.854183 0.840594
0.867107 0.858508 0.844718
0.966189 0.862822 0.848830
0.176477 0.938564 0.829464
0.280041 0.943072 0.833763
0.381973 0.947510 0.837994
0.483040 0.951910 0.842189
0.583513 0.956284 0.846359
0.683533 0.960639 0.850511
0.783187 0.964977 0.854647
0.882533 0.969302 0.858770
0.981615 0.973616 0.862883
0.053315 0.043155 0.832615
0.156836 0.047411 0.835820
0.258725 0.051599 0.838974
0.359750 0.055752 0.842102
0.460181 0.059880 0.845211
0.560159 0.063990 0.848306
0.659772 0.068085 0.851390
0.759077 0.072167 0.854464
0.858118 0.076239 0.857530
0.069345 0.158481 0.843602
0.172866 0.162737 0.846807
0.274755 0.166925 0.849961
0.375780 0.171078 0.853089
0.476212 0.175207 0.856198
0.576190 0.179317 0.859293
0.675802 0.183411 0.862377
0.775107 0.187494 0.865451
0.874148 0.191565 0.868517
0.085088 0.271736 0.854392
0.188609 0.275992 0.857597
0.290498 0.280180 0.860751
0.391523 0.284333 0.863879
0.491954 0.288461 0.866988
0.591933 0.292571 0.870083
0.691545 0.296666 0.873167
0.790850 0.300748 0.876241
0.889891 0.304820 0.879307
0.100689 0.383972 0.865085
0.204210 0.388227 0.868290
0.306099 0.392415 0.871444
0.407124 0.396568 0.874572
0.507555 0.400697 0.877681
0.607534 0.404807 0.880776
0.707148 0.408914 0.883914
0.806495 0.413239 0.888038
0.905577 0.417553 0.892150
0.116195 0.495520 0.875713
0.219715 0.499776 0.878918
0.321604 0.503964 0.882072
0.422650 0.508235 0.885711
0.523123 0.512610 0.889881
0.623143 0.516964 0.894033
0.722797 0.521303 0.898169
0.822143 0.525628 0.902293
0.921225 0.529941 0.906405
0.131663 0.606755 0.887175
0.235227 0.611264 0.891474
0.337158 0.615701 0.895704
0.438225 0.620101 0.899899
0.538698 0.624475 0.904070
0.638718 0.628830 0.908221
0.738372 0.633168 0.912357
0.837719 0.637493 0.916481
0.936801 0.641807 0.920593
0.147180 0.718201 0.901310
0.250744 0.722709 0.905609
0.352675 0.727147 0.909840
0.453742 0.731547 0.914035
0.554216 0.735921 0.918205
0.654236 0.740276 0.922356
0.753889 0.744614 0.926493
0.853236 0.748939 0.930616
0.952318 0.753253 0.934729
0.162648 0.829296 0.915401
0.266212 0.833805 0.919699
0.368144 0.838242 0.923930
0.469211 0.842642 0.928125
0.569684 0.847016 0.932295
0.669704 0.851371 0.936447
0.769358 0.855709 0.940583
0.868704 0.860035 0.944707
0.967786 0.864348 0.948819
0.178075 0.940090 0.929453
0.281639 0.944599 0.933752
0.383570 0.949036 0.937983
0.484637 0.953436 0.942178
0.585110 0.957811 0.946348
0.685130 0.962165 0.950499
0.784784 0.966503 0.954636
0.884131 0.970829 0.958759
0.983213 0.975142 0.962872
