assets/luts/generated_genre/bs_drama_kelvin_window_909fcb9621084fea.cube
# V4 spec-generated LUT — bs_drama_kelvin_window
# Genre: drama
# Look: Bittersweet drama — cool shadows, magenta-tinted highlights. Sandgren/La La Land, Lipes/The Bear.
# Spec hash: 909fcb9621084fea
TITLE "V4 Spec LUT — bs_drama_kelvin_window"
LUT_3D_SIZE 5
DOMAIN_MIN 0.0 0.0 0.0
DOMAIN_MAX 1.0 1.0 1.0
0.000000 0.000000 0.016197
0.194430 0.000000 0.020757
0.427272 0.004517 0.025957
0.662755 0.012198 0.031217
0.899934 0.019934 0.036514
0.013037 0.213814 0.031791
0.217204 0.220473 0.036351
0.450046 0.228068 0.041552
0.685529 0.235749 0.046811
0.922708 0.243485 0.052108
0.038467 0.463434 0.049204
0.242634 0.470093 0.053764
0.475476 0.477688 0.058964
0.711005 0.485289 0.064397
0.949079 0.491481 0.073028
0.064665 0.715020 0.068614
0.269603 0.720350 0.076043
0.503323 0.726429 0.084517
0.739695 0.732577 0.093086
0.977768 0.738769 0.101717
0.093560 0.964076 0.097508
0.298498 0.969406 0.104938
0.532218 0.975485 0.113411
0.768589 0.981633 0.121981
1.000000 0.987825 0.130612
0.000000 0.000000 0.231056
0.196872 0.000000 0.235616
0.429713 0.006958 0.240817
0.665196 0.014639 0.246076
0.902375 0.022376 0.251374
0.015478 0.216255 0.246650
0.219646 0.222914 0.251211
0.452487 0.230509 0.256411
0.687970 0.238190 0.261671
0.925149 0.245927 0.266968
0.040908 0.465875 0.264063
0.245075 0.472535 0.268623
0.477917 0.480130 0.273824
0.713729 0.487243 0.280308
0.951802 0.493435 0.288939
0.067389 0.716974 0.284525
0.272327 0.722304 0.291955
0.506047 0.728383 0.300428
0.742418 0.734531 0.308998
0.980492 0.740723 0.317629
0.096283 0.966030 0.313419
0.301221 0.971360 0.320849
0.534941 0.977439 0.329323
0.771313 0.983587 0.337892
1.000000 0.989779 0.346523
0.000000 0.000000 0.451669
0.199378 0.001870 0.456229
0.432220 0.009465 0.461429
0.667703 0.017146 0.466689
0.904882 0.024882 0.471986
0.017984 0.218761 0.467263
0.222152 0.225421 0.471823
0.454994 0.233016 0.477024
0.690477 0.240697 0.482283
0.927656 0.248433 0.487580
0.043414 0.468382 0.484676
0.247582 0.475041 0.489236
0.480424 0.482636 0.494436
0.716525 0.489249 0.502001
0.954599 0.495442 0.510632
0.070185 0.718980 0.506218
0.275123 0.724310 0.513647
0.508843 0.730389 0.522121
0.745215 0.736537 0.530690
0.983288 0.742729 0.539321
0.099080 0.968036 0.535112
0.304018 0.973366 0.542542
0.537738 0.979445 0.551015
0.774109 0.985593 0.559585
1.000000 0.991785 0.568216
0.000000 0.000000 0.674622
0.201911 0.004403 0.679182
0.434753 0.011998 0.684383
0.670236 0.019679 0.689643
0.907415 0.027415 0.694940
0.020518 0.221294 0.690217
0.224685 0.227954 0.694777
0.457527 0.235549 0.699977
0.693010 0.243230 0.705237
0.930189 0.250966 0.710534
0.045947 0.470915 0.707630
0.250115 0.477574 0.712190
0.482980 0.485129 0.717477
0.719351 0.491277 0.726046
0.957425 0.497469 0.734677
0.073011 0.721007 0.730263
0.277949 0.726338 0.737693
0.511669 0.732417 0.746166
0.748041 0.738564 0.754736
0.986114 0.744757 0.763367
0.101906 0.970064 0.759157
0.306844 0.975394 0.766587
0.540564 0.981473 0.775061
0.776935 0.987621 0.783630
1.000000 0.993813 0.792261
0.000294 0.000294 0.899117
0.204462 0.006954 0.903677
0.437304 0.014549 0.908877
0.672786 0.022230 0.914137
0.909965 0.029966 0.919434
0.023068 0.223845 0.914711
0.227236 0.230505 0.919271
0.460078 0.238100 0.924471
0.695561 0.245781 0.929731
0.932739 0.253517 0.935028
0.048498 0.473465 0.932124
0.252666 0.480125 0.936684
0.485826 0.487171 0.943070
0.722197 0.493318 0.951640
0.960271 0.499511 0.960271
0.075857 0.723049 0.955856
0.280795 0.728379 0.963286
0.514515 0.734458 0.971759
0.750886 0.740606 0.980329
0.988960 0.746798 0.988960
0.104751 0.972105 0.984751
0.309689 0.977435 0.992181
0.543410 0.983514 1.000000
0.779781 0.989662 1.000000
1.000000 0.995854 1.000000
