assets/luts/generated_genre/bs_drama_phantom_thread_ed4ffc55fe4bf002.cube
# V4 spec-generated LUT — bs_drama_phantom_thread
# Genre: drama
# Look: Painterly prestige drama — amber-warm with mild blue shadow chord. PTA/Phantom Thread, Young/Selma.
# Spec hash: ed4ffc55fe4bf002
TITLE "V4 Spec LUT — bs_drama_phantom_thread"
LUT_3D_SIZE 17
DOMAIN_MIN 0.0 0.0 0.0
DOMAIN_MAX 1.0 1.0 1.0
0.040422 0.031421 0.021209
0.092490 0.033561 0.022821
0.143943 0.035676 0.024414
0.195022 0.037776 0.025996
0.245831 0.039865 0.027569
0.296431 0.041945 0.029135
0.346857 0.044018 0.030696
0.397136 0.046085 0.032253
0.447288 0.048146 0.033805
0.497327 0.050203 0.035354
0.547266 0.052256 0.036900
0.597114 0.054305 0.038443
0.646879 0.056351 0.039984
0.696567 0.058393 0.041522
0.746184 0.060433 0.043058
0.795735 0.062470 0.044592
0.845225 0.064504 0.046124
0.048495 0.089498 0.026743
0.100563 0.091638 0.028354
0.152015 0.093753 0.029947
0.203095 0.095853 0.031529
0.253904 0.097942 0.033102
0.304503 0.100022 0.034668
0.354929 0.102094 0.036229
0.405209 0.104161 0.037786
0.455361 0.106223 0.039338
0.505400 0.108280 0.040887
0.555339 0.110333 0.042433
0.605187 0.112382 0.043977
0.654951 0.114428 0.045517
0.704639 0.116470 0.047055
0.754257 0.118510 0.048591
0.803808 0.120547 0.050125
0.853297 0.122581 0.051657
0.056452 0.146747 0.032197
0.108520 0.148888 0.033809
0.159973 0.151003 0.035402
0.211052 0.153102 0.036983
0.261862 0.155191 0.038556
0.312461 0.157271 0.040122
0.362887 0.159344 0.041683
0.413167 0.161411 0.043240
0.463319 0.163473 0.044793
0.513358 0.165530 0.046342
0.563297 0.167582 0.047888
0.613145 0.169632 0.049431
0.662909 0.171677 0.050971
0.712597 0.173720 0.052510
0.762214 0.175759 0.054046
0.811766 0.177796 0.055580
0.861255 0.179831 0.057112
0.064346 0.203536 0.037607
0.116414 0.205676 0.039219
0.167867 0.207791 0.040812
0.218946 0.209891 0.042393
0.269756 0.211980 0.043966
0.320355 0.214060 0.045533
0.370781 0.216133 0.047094
0.421060 0.218199 0.048650
0.471212 0.220261 0.050203
0.521252 0.222318 0.051752
0.571191 0.224371 0.053298
0.621038 0.226420 0.054841
0.670803 0.228466 0.056382
0.720491 0.230508 0.057920
0.770108 0.232548 0.059456
0.819659 0.234585 0.060990
0.869149 0.236619 0.062522
0.072195 0.260002 0.042987
0.124263 0.262142 0.044599
0.175716 0.264258 0.046192
0.226795 0.266357 0.047773
0.277605 0.268446 0.049346
0.328204 0.270526 0.050912
0.378630 0.272599 0.052473
0.428909 0.274666 0.054030
0.479061 0.276727 0.055583
0.529101 0.278784 0.057132
0.579040 0.280837 0.058678
0.628887 0.282886 0.060221
0.678652 0.284932 0.061761
0.728340 0.286975 0.063300
0.777957 0.289014 0.064836
0.827508 0.291051 0.066370
0.876998 0.293086 0.067902
0.080010 0.316220 0.048343
0.132078 0.318361 0.049955
0.183530 0.320476 0.051548
0.234610 0.322576 0.053129
0.285419 0.324664 0.054702
0.336018 0.326744 0.056268
0.386444 0.328817 0.057829
0.436724 0.330884 0.059386
0.486876 0.332946 0.060939
0.536915 0.335003 0.062488
0.586854 0.337056 0.064034
0.636702 0.339105 0.065577
0.686466 0.341150 0.067117
0.736154 0.343193 0.068656
0.785772 0.345233 0.070192
0.835323 0.347270 0.071726
0.884812 0.349304 0.073258
0.087796 0.372237 0.053680
0.139864 0.374378 0.055292
0.191317 0.376493 0.056885
0.242396 0.378593 0.058466
0.293206 0.380681 0.060039
0.343805 0.382761 0.061605
0.394231 0.384834 0.063166
0.444510 0.386901 0.064723
0.494662 0.388963 0.066275
0.544702 0.391020 0.067825
0.594641 0.393073 0.069371
0.644488 0.395122 0.070914
0.694253 0.397167 0.072454
0.743941 0.399210 0.073993
0.793558 0.401250 0.075529
0.843109 0.403287 0.077063
0.892599 0.405321 0.078595
0.095559 0.428085 0.059000
0.147627 0.430225 0.060612
0.199080 0.432340 0.062205
0.250159 0.434440 0.063787
0.300969 0.436529 0.065359
0.351568 0.438609 0.066926
0.401994 0.440682 0.068487
0.452273 0.442749 0.070044
0.502425 0.444810 0.071596
0.552465 0.446867 0.073145
0.602404 0.448920 0.074691
0.652251 0.450969 0.076234
0.702016 0.453015 0.077775
0.751704 0.455057 0.079313
0.801321 0.457097 0.080849
0.850889 0.459233 0.082810
0.900399 0.461388 0.084865
0.103302 0.483786 0.064307
0.155370 0.485926 0.065919
0.206822 0.488042 0.067512
0.257902 0.490141 0.069093
0.308711 0.492230 0.070666
0.359310 0.494310 0.072233
0.409736 0.496383 0.073794
0.460016 0.498450 0.075350
0.510168 0.500511 0.076903
0.560207 0.502568 0.078452
0.610146 0.504621 0.079998
0.659999 0.506703 0.081681
0.709785 0.508870 0.083747
0.759493 0.511034 0.085811
0.809131 0.513195 0.087871
0.858703 0.515353 0.089928
0.908213 0.517509 0.091983
0.111026 0.539358 0.069602
0.163094 0.541499 0.071214
0.214547 0.543614 0.072806
0.265626 0.545714 0.074388
0.316436 0.547802 0.075961
0.367035 0.549882 0.077527
0.417461 0.551955 0.079088
0.467741 0.554022 0.080645
0.517907 0.556168 0.082561
0.567967 0.558347 0.084639
0.617927 0.560522 0.086713
0.667795 0.562693 0.088782
0.717581 0.564861 0.090849
0.767289 0.567025 0.092912
0.816927 0.569186 0.094972
0.866499 0.571344 0.097030
0.916009 0.573500 0.099085
0.118735 0.594816 0.074885
0.170803 0.596956 0.076497
0.222256 0.599071 0.078090
0.273335 0.601171 0.079671
0.324146 0.603269 0.081283
0.374766 0.605473 0.083384
0.425213 0.607669 0.085478
0.475514 0.609859 0.087566
0.525687 0.612043 0.089648
0.575747 0.614222 0.091726
0.625707 0.616397 0.093799
0.675575 0.618568 0.095869
0.725360 0.620736 0.097936
0.775069 0.622900 0.099999
0.824707 0.625061 0.102059
0.874279 0.627219 0.104117
0.923789 0.629375 0.106172
0.126429 0.650170 0.080159
0.178506 0.652361 0.081989
0.229980 0.654602 0.084126
0.281081 0.656826 0.086247
0.331912 0.659039 0.088356
0.382532 0.661243 0.090457
0.432979 0.663439 0.092551
0.483279 0.665629 0.094639
0.533452 0.667814 0.096722
0.583512 0.669993 0.098799
0.633472 0.672168 0.100873
0.683340 0.674339 0.102943
0.733126 0.676506 0.105009
0.782834 0.678671 0.107073
0.832472 0.680832 0.109133
0.882044 0.682990 0.111190
0.931554 0.685145 0.113245
0.134168 0.705768 0.086889
0.186258 0.708036 0.089051
0.237732 0.710277 0.091187
0.288833 0.712502 0.093308
0.339664 0.714715 0.095418
0.390284 0.716919 0.097519
0.440731 0.719115 0.099613
0.491031 0.721305 0.101701
0.541204 0.723489 0.103783
0.591264 0.725668 0.105861
0.641224 0.727843 0.107935
0.691092 0.730014 0.110004
0.740877 0.732182 0.112071
0.790586 0.734346 0.114134
0.840224 0.736507 0.116194
0.889796 0.738665 0.118252
0.939306 0.740821 0.120307
0.141908 0.761356 0.093939
0.193998 0.763624 0.096101
0.245472 0.765865 0.098238
0.296572 0.768090 0.100359
0.347403 0.770303 0.102468
0.398023 0.772506 0.104569
0.448470 0.774703 0.106663
0.498771 0.776893 0.108751
0.548944 0.779077 0.110834
0.599004 0.781256 0.112911
0.648964 0.783431 0.114985
0.698832 0.785602 0.117055
0.748617 0.787770 0.119121
0.798326 0.789934 0.121185
0.847964 0.792095 0.123245
0.897536 0.794253 0.125302
0.947046 0.796409 0.127357
0.149637 0.816864 0.100979
0.201726 0.819131 0.103141
0.253201 0.821372 0.105278
0.304301 0.823597 0.107399
0.355132 0.825810 0.109509
0.405752 0.828014 0.111610
0.456199 0.830210 0.113703
0.506499 0.832400 0.115791
0.556672 0.834584 0.117874
0.606732 0.836764 0.119952
0.656692 0.838939 0.122025
0.706561 0.841110 0.124095
0.756346 0.843277 0.126162
0.806055 0.845441 0.128225
0.855692 0.847602 0.130285
0.905264 0.849760 0.132343
0.954774 0.851916 0.134398
0.157355 0.872296 0.108010
0.209444 0.874563 0.110172
0.260919 0.876804 0.112308
0.312019 0.879029 0.114429
0.362850 0.881242 0.116539
0.413470 0.883446 0.118640
0.463917 0.885642 0.120734
0.514217 0.887832 0.122822
0.564390 0.890016 0.124904
0.614451 0.892196 0.126982
0.664410 0.894371 0.129056
0.714279 0.896542 0.131126
0.764064 0.898709 0.133192
0.813773 0.900873 0.135255
0.863410 0.903034 0.137316
0.912982 0.905192 0.139373
0.962492 0.907348 0.141428
0.165063 0.927658 0.115032
0.217153 0.929925 0.117194
0.268627 0.932166 0.119330
0.319727 0.934391 0.121451
0.370558 0.936604 0.123561
0.421178 0.938808 0.125662
0.471625 0.941004 0.127756
0.521926 0.943194 0.129844
0.572099 0.945378 0.131926
0.622159 0.947558 0.134004
0.672118 0.949733 0.136078
0.721987 0.951904 0.138148
0.771772 0.954071 0.140214
0.821481 0.956235 0.142277
0.871119 0.958396 0.144338
0.920691 0.960554 0.146395
0.970201 0.962710 0.148450
0.041268 0.032191 0.074484
0.093336 0.034332 0.076096
0.144789 0.036447 0.077689
0.195868 0.038547 0.079270
0.246678 0.040635 0.080843
0.297277 0.042715 0.082410
0.347703 0.044788 0.083971
0.397982 0.046855 0.085527
0.448134 0.048917 0.087080
0.498174 0.050974 0.088629
0.548113 0.053027 0.090175
0.597961 0.055076 0.091718
0.647725 0.057121 0.093259
0.697413 0.059164 0.094797
0.747030 0.061204 0.096333
0.796582 0.063241 0.097867
0.846071 0.065275 0.099399
0.049341 0.090268 0.080017
0.101409 0.092408 0.081629
0.152862 0.094524 0.083222
0.203941 0.096623 0.084804
0.254751 0.098712 0.086376
0.305350 0.100792 0.087943
0.355776 0.102865 0.089504
0.406055 0.104932 0.091061
0.456207 0.106993 0.092613
0.506247 0.109050 0.094162
0.556186 0.111103 0.095708
0.606033 0.113152 0.097251
0.655798 0.115198 0.098792
0.705486 0.117241 0.100330
0.755103 0.119280 0.101866
0.804654 0.121317 0.103400
0.854144 0.123352 0.104932
0.057299 0.147518 0.085472
0.109367 0.149658 0.087084
0.160820 0.151773 0.088677
0.211899 0.153873 0.090258
0.262709 0.155962 0.091831
0.313308 0.158042 0.093397
0.363734 0.160114 0.094958
0.414013 0.162181 0.096515
0.464165 0.164243 0.098067
0.514205 0.166300 0.099617
0.564143 0.168353 0.101163
0.613991 0.170402 0.102706
0.663756 0.172448 0.104246
0.713444 0.174490 0.105785
0.763061 0.176530 0.107321
0.812612 0.178567 0.108855
0.862102 0.180601 0.110387
0.065193 0.204306 0.090882
0.117261 0.206447 0.092494
0.168713 0.208562 0.094087
0.219793 0.210661 0.095668
0.270602 0.212750 0.097241
0.321201 0.214830 0.098808
0.371628 0.216903 0.100369
0.421907 0.218970 0.101925
0.472059 0.221031 0.103478
0.522098 0.223088 0.105027
0.572037 0.225141 0.106573
0.621885 0.227190 0.108116
0.671649 0.229236 0.109657
0.721338 0.231279 0.111195
0.770955 0.233318 0.112731
0.820506 0.235355 0.114265
0.869995 0.237390 0.115797
0.073042 0.260772 0.096262
0.125110 0.262913 0.097874
0.176562 0.265028 0.099467
0.227642 0.267128 0.101048
0.278451 0.269216 0.102621
0.329050 0.271296 0.104187
0.379476 0.273369 0.105748
0.429756 0.275436 0.107305
0.479908 0.277498 0.108857
0.529947 0.279555 0.110407
0.579886 0.281608 0.111953
0.629734 0.283657 0.113496
0.679498 0.285702 0.115036
0.729186 0.287745 0.116575
0.778804 0.289785 0.118111
0.828355 0.291822 0.119645
0.877844 0.293856 0.121177
0.080856 0.316991 0.101618
0.132924 0.319131 0.103230
0.184377 0.321246 0.104823
0.235456 0.323346 0.106404
0.286266 0.325435 0.107977
0.336865 0.327515 0.109543
0.387291 0.329588 0.111104
0.437570 0.331655 0.112661
0.487722 0.333716 0.114213
0.537762 0.335773 0.115763
0.587701 0.337826 0.117309
0.637548 0.339875 0.118852
0.687313 0.341921 0.120392
0.737001 0.343963 0.121931
0.786618 0.346003 0.123467
0.836169 0.348040 0.125001
0.885659 0.350074 0.126533
0.088643 0.373008 0.106955
0.140711 0.375148 0.108567
0.192163 0.377263 0.110159
0.243243 0.379363 0.111741
0.294052 0.381452 0.113314
0.344651 0.383532 0.114880
0.395077 0.385605 0.116441
0.445357 0.387672 0.117998
0.495509 0.389733 0.119550
0.545548 0.391790 0.121099
0.595487 0.393843 0.122645
0.645335 0.395892 0.124189
0.695099 0.397938 0.125729
0.744787 0.399980 0.127267
0.794405 0.402020 0.128803
0.843956 0.404057 0.130337
0.893445 0.406091 0.131870
0.096406 0.428855 0.112275
0.148474 0.430996 0.113887
0.199926 0.433111 0.115480
0.251006 0.435211 0.117061
0.301815 0.437299 0.118634
0.352414 0.439379 0.120201
0.402840 0.441452 0.121762
0.453120 0.443519 0.123318
0.503272 0.445581 0.124871
0.553311 0.447638 0.126420
0.603250 0.449691 0.127966
0.653098 0.451740 0.129509
0.702862 0.453785 0.131050
0.752550 0.455828 0.132588
0.802172 0.457891 0.134226
0.851743 0.460049 0.136283
0.901254 0.462205 0.138338
0.104148 0.484556 0.117582
0.156216 0.486697 0.119194
0.207669 0.488812 0.120787
0.258748 0.490912 0.122368
0.309558 0.493000 0.123941
0.360157 0.495080 0.125508
0.410583 0.497153 0.127069
0.460862 0.499220 0.128625
0.511014 0.501282 0.130178
0.561054 0.503339 0.131727
0.610993 0.505392 0.133273
0.660854 0.507519 0.135154
0.710639 0.509686 0.137220
0.760348 0.511851 0.139284
0.809986 0.514012 0.141344
0.859557 0.516170 0.143401
0.909068 0.518325 0.145456
0.111873 0.540129 0.122877
0.163941 0.542269 0.124489
0.215394 0.544384 0.126081
0.266473 0.546484 0.127663
0.317283 0.548573 0.129236
0.367882 0.550653 0.130802
0.418308 0.552726 0.132363
0.468588 0.554800 0.133952
0.518761 0.556984 0.136034
0.568821 0.559164 0.138112
0.618781 0.561339 0.140186
0.668650 0.563510 0.142255
0.718435 0.565677 0.144322
0.768144 0.567841 0.146385
0.817781 0.570002 0.148445
0.867353 0.572160 0.150503
0.916863 0.574316 0.152558
0.119582 0.595586 0.128160
0.171650 0.597727 0.129772
0.223102 0.599842 0.131365
0.274182 0.601942 0.132946
0.325001 0.604085 0.134756
0.375621 0.606289 0.136857
0.426068 0.608485 0.138951
0.476368 0.610675 0.141038
0.526541 0.612859 0.143121
0.576601 0.615039 0.145199
0.626561 0.617214 0.147272
0.676429 0.619385 0.149342
0.726215 0.621552 0.151409
0.775923 0.623716 0.153472
0.825561 0.625877 0.155532
0.875133 0.628035 0.157590
0.924643 0.630191 0.159645
0.127276 0.650940 0.133434
0.179360 0.653177 0.135462
0.230835 0.655418 0.137598
0.281935 0.657643 0.139719
0.332766 0.659856 0.141829
0.383386 0.662059 0.143930
0.433833 0.664256 0.146024
0.484133 0.666445 0.148112
0.534306 0.668630 0.150195
0.584366 0.670809 0.152272
0.634326 0.672984 0.154346
0.684195 0.675155 0.156416
0.733980 0.677323 0.158482
0.783689 0.679487 0.160546
0.833326 0.681648 0.162606
0.882898 0.683806 0.164663
0.932408 0.685961 0.166718
0.135023 0.706585 0.140361
0.187112 0.708852 0.142524
0.238587 0.711093 0.144660
0.289687 0.713318 0.146781
0.340518 0.715531 0.148891
0.391138 0.717735 0.150992
0.441585 0.719931 0.153086
0.491885 0.722121 0.155174
0.542058 0.724305 0.157256
0.592118 0.726485 0.159334
0.642078 0.728660 0.161408
0.691947 0.730831 0.163477
0.741732 0.732998 0.165544
0.791441 0.735162 0.167607
0.841078 0.737323 0.169667
0.890650 0.739481 0.171725
0.940160 0.741637 0.173780
0.142762 0.762173 0.147412
0.194852 0.764440 0.149574
0.246326 0.766681 0.151710
0.297427 0.768906 0.153831
0.348258 0.771119 0.155941
0.398878 0.773323 0.158042
0.449325 0.775519 0.160136
0.499625 0.777709 0.162224
0.549798 0.779893 0.164306
0.599858 0.782073 0.166384
0.649818 0.784248 0.168458
0.699686 0.786419 0.170528
0.749472 0.788586 0.172594
0.799180 0.790750 0.174657
0.848818 0.792911 0.176718
0.898390 0.795069 0.178775
0.947900 0.797225 0.180830
0.150491 0.817680 0.154452
0.202581 0.819948 0.156614
0.254055 0.822189 0.158751
0.305155 0.824413 0.160872
0.355986 0.826626 0.162981
0.406606 0.828830 0.165083
0.457053 0.831026 0.167176
0.507354 0.833216 0.169264
0.557526 0.835400 0.171347
0.607587 0.837580 0.173425
0.657546 0.839755 0.175498
0.707415 0.841926 0.177568
0.757200 0.844093 0.179634
0.806909 0.846257 0.181698
0.856547 0.848418 0.183758
0.906119 0.850577 0.185816
0.955629 0.852732 0.187871
0.158209 0.873112 0.161483
0.210299 0.875380 0.163645
0.261773 0.877621 0.165781
0.312873 0.879845 0.167902
0.363704 0.882058 0.170012
0.414324 0.884262 0.172113
0.464771 0.886458 0.174207
0.515072 0.888648 0.176295
0.565245 0.890832 0.178377
0.615305 0.893012 0.180455
0.665264 0.895187 0.182529
0.715133 0.897358 0.184599
0.764918 0.899525 0.186665
0.814627 0.901689 0.188728
0.864265 0.903851 0.190789
0.913837 0.906009 0.192846
0.963347 0.908164 0.194901
0.165917 0.928474 0.168505
0.218007 0.930742 0.170667
0.269481 0.932983 0.172803
0.320582 0.935207 0.174924
0.371413 0.937420 0.177034
0.422033 0.939624 0.179135
0.472480 0.941820 0.181229
0.522780 0.944010 0.183317
0.572953 0.946194 0.185399
0.623013 0.948374 0.187477
0.672973 0.950549 0.189551
0.722841 0.952720 0.191620
0.772627 0.954887 0.193687
0.822335 0.957051 0.195750
0.871973 0.959212 0.197810
0.921545 0.961371 0.199868
0.971055 0.963526 0.201923
0.042096 0.032945 0.126563
0.094164 0.035085 0.128175
0.145617 0.037200 0.129768
0.196696 0.039300 0.131349
0.247506 0.041388 0.132922
0.298105 0.043468 0.134489
0.348531 0.045541 0.136050
0.398810 0.047608 0.137606
0.448962 0.049670 0.139159
0.499001 0.051727 0.140708
0.548940 0.053780 0.142254
0.598788 0.055829 0.143797
0.648553 0.057875 0.145338
0.698241 0.059917 0.146876
0.747858 0.061957 0.148412
0.797409 0.063994 0.149946
0.846899 0.066028 0.151478
0.050169 0.091021 0.132096
0.102237 0.093162 0.133708
0.153689 0.095277 0.135301
0.204769 0.097376 0.136882
0.255578 0.099465 0.138455
0.306177 0.101545 0.140022
0.356603 0.103618 0.141583
0.406883 0.105685 0.143139
0.457035 0.107747 0.144692
0.507074 0.109804 0.146241
0.557013 0.111856 0.147787
0.606861 0.113906 0.149330
0.656625 0.115951 0.150871
0.706313 0.117994 0.152409
0.755931 0.120033 0.153945
0.805482 0.122070 0.155479
0.854971 0.124105 0.157011
0.058126 0.148271 0.137551
0.110195 0.150411 0.139163
0.161647 0.152526 0.140755
0.212726 0.154626 0.142337
0.263536 0.156715 0.143910
0.314135 0.158795 0.145476
0.364561 0.160868 0.147037
0.414841 0.162934 0.148594
0.464993 0.164996 0.150146
0.515032 0.167053 0.151695
0.564971 0.169106 0.153241
0.614819 0.171155 0.154785
0.664583 0.173201 0.156325
0.714271 0.175243 0.157863
0.763888 0.177283 0.159399
0.813440 0.179320 0.160933
0.862929 0.181354 0.162466
0.066020 0.205059 0.142961
0.118088 0.207200 0.144573
0.169541 0.209315 0.146166
0.220620 0.211415 0.147747
0.271430 0.213503 0.149320
0.322029 0.215583 0.150886
0.372455 0.217656 0.152448
0.422734 0.219723 0.154004
0.472886 0.221785 0.155557
0.522926 0.223842 0.157106
0.572865 0.225895 0.158652
0.622712 0.227944 0.160195
0.672477 0.229989 0.161736
0.722165 0.232032 0.163274
0.771782 0.234072 0.164810
0.821333 0.236108 0.166344
0.870823 0.238143 0.167876
0.073869 0.261526 0.148341
0.125937 0.263666 0.149953
0.177390 0.265781 0.151545
0.228469 0.267881 0.153127
0.279279 0.269970 0.154700
0.329878 0.272050 0.156266
0.380304 0.274122 0.157827
0.430583 0.276189 0.159384
0.480735 0.278251 0.160936
0.530775 0.280308 0.162485
0.580714 0.282361 0.164031
0.630561 0.284410 0.165575
0.680326 0.286456 0.167115
0.730014 0.288498 0.168653
0.779631 0.290538 0.170189
0.829182 0.292575 0.171723
0.878672 0.294609 0.173256
0.081684 0.317744 0.153697
0.133752 0.319884 0.155309
0.185204 0.321999 0.156901
0.236284 0.324099 0.158483
0.287093 0.326188 0.160056
0.337692 0.328268 0.161622
0.388118 0.330341 0.163183
0.438398 0.332408 0.164740
0.488550 0.334469 0.166292
0.538589 0.336526 0.167841
0.588528 0.338579 0.169387
0.638376 0.340628 0.170931
0.688140 0.342674 0.172471
0.737829 0.344717 0.174009
0.787446 0.346756 0.175546
0.836997 0.348793 0.177080
0.886486 0.350828 0.178612
0.089470 0.373761 0.159034
0.141538 0.375901 0.160645
0.192991 0.378017 0.162238
0.244070 0.380116 0.163820
0.294880 0.382205 0.165393
0.345479 0.384285 0.166959
0.395905 0.386358 0.168520
0.446184 0.388425 0.170077
0.496336 0.390486 0.171629
0.546376 0.392543 0.173178
0.596315 0.394596 0.174724
0.646162 0.396645 0.176268
0.695927 0.398691 0.177808
0.745615 0.400734 0.179346
0.795232 0.402773 0.180882
0.844783 0.404810 0.182416
0.894273 0.406845 0.183948
0.097233 0.429608 0.164354
0.149301 0.431749 0.165966
0.200754 0.433864 0.167559
0.251833 0.435964 0.169140
0.302643 0.438052 0.170713
0.353242 0.440132 0.172280
0.403668 0.442205 0.173841
0.453947 0.444272 0.175397
0.504099 0.446334 0.176950
0.554139 0.448391 0.178499
0.604078 0.450444 0.180045
0.653925 0.452493 0.181588
0.703690 0.454538 0.183129
0.753378 0.456581 0.184667
0.803007 0.458689 0.186498
0.852579 0.460847 0.188556
0.902089 0.463003 0.190611
0.104976 0.485310 0.169661
0.157044 0.487450 0.171273
0.208496 0.489565 0.172866
0.259576 0.491665 0.174447
0.310385 0.493754 0.176020
0.360984 0.495834 0.177586
0.411411 0.497906 0.179148
0.461690 0.499973 0.180704
0.511842 0.502035 0.182257
0.561881 0.504092 0.183806
0.611820 0.506146 0.185357
0.661689 0.508317 0.187426
0.711474 0.510484 0.189493
0.761183 0.512648 0.191556
0.810821 0.514809 0.193616
0.860393 0.516968 0.195674
0.909903 0.519123 0.197729
0.112700 0.540882 0.174956
0.164768 0.543022 0.176567
0.216221 0.545137 0.178160
0.267300 0.547237 0.179742
0.318110 0.549326 0.181315
0.368709 0.551406 0.182881
0.419135 0.553479 0.184442
0.469423 0.555598 0.186224
0.519596 0.557782 0.188307
0.569657 0.559962 0.190384
0.619616 0.562137 0.192458
0.669485 0.564308 0.194528
0.719270 0.566475 0.196594
0.768979 0.568639 0.198658
0.818617 0.570800 0.200718
0.868188 0.572958 0.202775
0.917699 0.575114 0.204830
0.120409 0.596340 0.180239
0.172477 0.598480 0.181851
0.223930 0.600595 0.183444
0.275009 0.602695 0.185025
0.325836 0.604883 0.187028
0.376456 0.607087 0.189129
0.426903 0.609283 0.191223
0.477203 0.611473 0.193311
0.527376 0.613657 0.195393
0.577436 0.615837 0.197471
0.627396 0.618012 0.199545
0.677265 0.620183 0.201615
0.727050 0.622350 0.203681
0.776758 0.624514 0.205744
0.826396 0.626675 0.207805
0.875968 0.628833 0.209862
0.925478 0.630989 0.211917
0.128106 0.651707 0.185572
0.180196 0.653975 0.187734
0.231670 0.656216 0.189871
0.282770 0.658441 0.191992
0.333601 0.660654 0.194102
0.384221 0.662857 0.196203
0.434668 0.665054 0.198297
0.484968 0.667243 0.200385
0.535141 0.669428 0.202467
0.585202 0.671607 0.204545
0.635161 0.673782 0.206618
0.685030 0.675953 0.208688
0.734815 0.678121 0.210755
0.784524 0.680285 0.212818
0.834162 0.682446 0.214878
0.883733 0.684604 0.216936
0.933244 0.686759 0.218991
0.135858 0.707383 0.192634
0.187948 0.709650 0.194796
0.239422 0.711891 0.196932
0.290522 0.714116 0.199053
0.341353 0.716329 0.201163
0.391973 0.718533 0.203264
0.442420 0.720729 0.205358
0.492720 0.722919 0.207446
0.542893 0.725103 0.209529
0.592954 0.727283 0.211606
0.642913 0.729458 0.213680
0.692782 0.731629 0.215750
0.742567 0.733796 0.217816
0.792276 0.735960 0.219880
0.841913 0.738121 0.221940
0.891485 0.740279 0.223997
0.940996 0.742435 0.226052
0.143598 0.762971 0.199684
0.195687 0.765238 0.201846
0.247161 0.767479 0.203983
0.298262 0.769704 0.206104
0.349093 0.771917 0.208214
0.399713 0.774121 0.210315
0.450160 0.776317 0.212409
0.500460 0.778507 0.214496
0.550633 0.780691 0.216579
0.600693 0.782871 0.218657
0.650653 0.785046 0.220730
0.700521 0.787217 0.222800
0.750307 0.789384 0.224867
0.800015 0.791548 0.226930
0.849653 0.793709 0.228990
0.899225 0.795867 0.231048
0.948735 0.798023 0.233103
0.151326 0.818478 0.206725
0.203416 0.820746 0.208887
0.254890 0.822987 0.211023
0.305990 0.825211 0.213144
0.356821 0.827424 0.215254
0.407441 0.829628 0.217355
0.457888 0.831824 0.219449
0.508189 0.834014 0.221537
0.558362 0.836198 0.223619
0.608422 0.838378 0.225697
0.658382 0.840553 0.227771
0.708250 0.842724 0.229841
0.758035 0.844891 0.231907
0.807744 0.847055 0.233970
0.857382 0.849216 0.236030
0.906954 0.851374 0.238088
0.956464 0.853530 0.240143
0.159044 0.873910 0.213755
0.211134 0.876178 0.215917
0.262608 0.878419 0.218054
0.313708 0.880643 0.220175
0.364539 0.882856 0.222285
0.415160 0.885060 0.224386
0.465607 0.887256 0.226480
0.515907 0.889446 0.228567
0.566080 0.891630 0.230650
0.616140 0.893810 0.232728
0.666100 0.895985 0.234801
0.715968 0.898156 0.236871
0.765753 0.900323 0.238938
0.815462 0.902487 0.241001
0.865100 0.904648 0.243061
0.914672 0.906807 0.245119
0.964182 0.908962 0.247174
0.166753 0.929272 0.220777
0.218842 0.931540 0.222939
0.270316 0.933781 0.225076
0.321417 0.936005 0.227197
0.372248 0.938218 0.229306
0.422868 0.940422 0.231407
0.473315 0.942618 0.233501
0.523615 0.944808 0.235589
0.573788 0.946992 0.237672
0.623848 0.949172 0.239749
0.673808 0.951347 0.241823
0.723676 0.953518 0.243893
0.773462 0.955685 0.245959
0.823170 0.957849 0.248023
0.872808 0.960010 0.250083
0.922380 0.962169 0.252140
0.971890 0.964324 0.254195
0.042915 0.033690 0.178133
0.094983 0.035831 0.179745
0.146436 0.037946 0.181337
0.197515 0.040046 0.182919
0.248325 0.042134 0.184492
0.298924 0.044214 0.186058
0.349350 0.046287 0.187619
0.399629 0.048354 0.189176
0.449781 0.050416 0.190728
0.499821 0.052473 0.192277
