assets/luts/generated_genre/bs_drama_motivated_natural_cf8b747e404bc14a.cube
# V4 spec-generated LUT — bs_drama_motivated_natural
# Genre: drama
# Look: Motivated natural drama — Deakins/1917, Lachman/Carol. Faces and lighting motivation come first; bra
# Spec hash: cf8b747e404bc14a
TITLE "V4 Spec LUT — bs_drama_motivated_natural"
LUT_3D_SIZE 17
DOMAIN_MIN 0.0 0.0 0.0
DOMAIN_MAX 1.0 1.0 1.0
0.028663 0.024201 0.010859
0.083924 0.025082 0.011855
0.139185 0.025962 0.012851
0.194446 0.026843 0.013847
0.249707 0.027723 0.014843
0.304968 0.028603 0.015839
0.360230 0.029484 0.016835
0.415491 0.030364 0.017831
0.470752 0.031245 0.018827
0.526013 0.032125 0.019823
0.581274 0.033005 0.020819
0.636535 0.033886 0.021815
0.691796 0.034766 0.022811
0.747057 0.035647 0.023807
0.802318 0.036527 0.024803
0.857579 0.037407 0.025799
0.912840 0.038288 0.026795
0.031640 0.081838 0.014227
0.086901 0.082718 0.015223
0.142162 0.083599 0.016219
0.197423 0.084479 0.017215
0.252684 0.085359 0.018211
0.307945 0.086240 0.019207
0.363206 0.087120 0.020203
0.418467 0.088001 0.021199
0.473728 0.088881 0.022195
0.528989 0.089761 0.023191
0.584250 0.090642 0.024187
0.639511 0.091522 0.025183
0.694772 0.092402 0.026179
0.750034 0.093283 0.027175
0.805295 0.094163 0.028171
0.860556 0.095044 0.029167
0.915817 0.095924 0.030163
0.034617 0.139474 0.017595
0.089878 0.140355 0.018591
0.145139 0.141235 0.019587
0.200400 0.142115 0.020583
0.255661 0.142996 0.021579
0.310922 0.143876 0.022575
0.366183 0.144757 0.023571
0.421444 0.145637 0.024567
0.476705 0.146517 0.025563
0.531966 0.147398 0.026559
0.587227 0.148278 0.027555
0.642488 0.149158 0.028551
0.697749 0.150039 0.029547
0.753010 0.150919 0.030543
0.808271 0.151800 0.031539
0.863532 0.152680 0.032535
0.918793 0.153560 0.033531
0.037594 0.197111 0.020962
0.092855 0.197991 0.021958
0.148116 0.198871 0.022954
0.203377 0.199752 0.023950
0.258638 0.200632 0.024946
0.313899 0.201513 0.025942
0.369160 0.202393 0.026938
0.424421 0.203273 0.027934
0.479682 0.204154 0.028930
0.534943 0.205034 0.029926
0.590204 0.205914 0.030922
0.645465 0.206795 0.031918
0.700726 0.207675 0.032914
0.755987 0.208556 0.033910
0.811248 0.209436 0.034906
0.866509 0.210316 0.035902
0.921770 0.211197 0.036898
0.040571 0.254747 0.024330
0.095832 0.255627 0.025326
0.151093 0.256508 0.026322
0.206354 0.257388 0.027318
0.261615 0.258269 0.028314
0.316876 0.259149 0.029310
0.372137 0.260029 0.030306
0.427398 0.260910 0.031302
0.482659 0.261790 0.032298
0.537920 0.262670 0.033294
0.593181 0.263551 0.034290
0.648442 0.264431 0.035286
0.703703 0.265312 0.036282
0.758964 0.266192 0.037278
0.814225 0.267072 0.038274
0.869486 0.267953 0.039270
0.924747 0.268833 0.040266
0.043548 0.312383 0.027698
0.098809 0.313264 0.028694
0.154070 0.314144 0.029690
0.209331 0.315024 0.030686
0.264592 0.315905 0.031682
0.319853 0.316785 0.032678
0.375114 0.317666 0.033674
0.430375 0.318546 0.034670
0.485636 0.319426 0.035666
0.540897 0.320307 0.036662
0.596158 0.321187 0.037658
0.651419 0.322068 0.038654
0.706680 0.322948 0.039650
0.761941 0.323828 0.040646
0.817202 0.324709 0.041642
0.872463 0.325589 0.042638
0.927724 0.326470 0.043634
0.046525 0.370020 0.031066
0.101786 0.370900 0.032062
0.157047 0.371780 0.033058
0.212308 0.372661 0.034054
0.267569 0.373541 0.035050
0.322830 0.374422 0.036046
0.378091 0.375302 0.037042
0.433352 0.376182 0.038038
0.488613 0.377063 0.039034
0.543874 0.377943 0.040030
0.599135 0.378824 0.041026
0.654396 0.379704 0.042022
0.709657 0.380584 0.043018
0.764918 0.381465 0.044014
0.820179 0.382345 0.045010
0.875440 0.383226 0.046006
0.930701 0.384106 0.047002
0.049502 0.427656 0.034434
0.104763 0.428536 0.035430
0.160024 0.429417 0.036426
0.215285 0.430297 0.037422
0.270546 0.431178 0.038418
0.325807 0.432058 0.039414
0.381068 0.432938 0.040410
0.436329 0.433819 0.041406
0.491590 0.434699 0.042402
0.546851 0.435580 0.043398
0.602112 0.436460 0.044394
0.657373 0.437340 0.045390
0.712634 0.438221 0.046386
0.767895 0.439101 0.047382
0.823156 0.439982 0.048378
0.878526 0.440919 0.049326
0.934029 0.441926 0.050217
0.052478 0.485292 0.037801
0.107739 0.486173 0.038797
0.163001 0.487053 0.039793
0.218262 0.487934 0.040789
0.273523 0.488814 0.041785
0.328784 0.489694 0.042781
0.384045 0.490575 0.043777
0.439306 0.491455 0.044773
0.494567 0.492336 0.045769
0.549828 0.493216 0.046765
0.605089 0.494096 0.047761
0.660350 0.494977 0.048757
0.715812 0.495962 0.049666
0.771315 0.496969 0.050557
0.826818 0.497976 0.051448
0.882321 0.498983 0.052340
0.937824 0.499989 0.053231
0.055455 0.542929 0.041169
0.110716 0.543809 0.042165
0.165977 0.544690 0.043161
0.221238 0.545570 0.044157
0.276499 0.546450 0.045153
0.331760 0.547331 0.046149
0.387021 0.548211 0.047145
0.442282 0.549092 0.048141
0.497595 0.549999 0.049115
0.553098 0.551006 0.050006
0.608601 0.552013 0.050897
0.664104 0.553019 0.051788
0.719607 0.554026 0.052679
0.775110 0.555033 0.053570
0.830613 0.556039 0.054462
0.886116 0.557046 0.055353
0.941619 0.558053 0.056244
0.058432 0.600565 0.044537
0.113693 0.601446 0.045533
0.168954 0.602326 0.046529
0.224215 0.603206 0.047525
0.279476 0.604087 0.048521
0.334881 0.605042 0.049455
0.390384 0.606049 0.050346
0.445887 0.607056 0.051237
0.501390 0.608063 0.052128
0.556893 0.609069 0.053019
0.612396 0.610076 0.053910
0.667899 0.611083 0.054801
0.723402 0.612090 0.055692
0.778905 0.613096 0.056584
0.834408 0.614103 0.057475
0.889911 0.615110 0.058366
0.945414 0.616117 0.059257
0.061409 0.658202 0.047905
0.116670 0.659082 0.048901
0.172167 0.660086 0.049794
0.227670 0.661093 0.050686
0.283173 0.662099 0.051577
0.338676 0.663106 0.052468
0.394179 0.664113 0.053359
0.449682 0.665120 0.054250
0.505185 0.666126 0.055141
0.560688 0.667133 0.056032
0.616191 0.668140 0.056923
0.671694 0.669146 0.057815
0.727197 0.670153 0.058706
0.782700 0.671160 0.059597
0.838203 0.672167 0.060488
0.893706 0.673173 0.061379
0.949209 0.674180 0.062270
0.064957 0.716136 0.051025
0.120460 0.717143 0.051916
0.175963 0.718149 0.052808
0.231466 0.719156 0.053699
0.286968 0.720163 0.054590
0.342471 0.721170 0.055481
0.397974 0.722176 0.056372
0.453477 0.723183 0.057263
0.508980 0.724190 0.058154
0.564483 0.725197 0.059045
0.619986 0.726203 0.059937
0.675489 0.727210 0.060828
0.730992 0.728217 0.061719
0.786495 0.729224 0.062610
0.841998 0.730230 0.063501
0.897501 0.731237 0.064392
0.953004 0.732244 0.065283
0.068752 0.774200 0.054039
0.124255 0.775206 0.054930
0.179758 0.776213 0.055821
0.235261 0.777220 0.056712
0.290764 0.778227 0.057603
0.346267 0.779233 0.058494
0.401769 0.780240 0.059385
0.457272 0.781247 0.060276
0.512775 0.782254 0.061168
0.568278 0.783260 0.062059
0.623781 0.784267 0.062950
0.679284 0.785274 0.063841
0.734787 0.786280 0.064732
0.790290 0.787287 0.065623
0.845793 0.788294 0.066514
0.901296 0.789301 0.067405
0.956799 0.790307 0.068297
0.072547 0.832263 0.057052
0.128050 0.833270 0.057943
0.183553 0.834277 0.058834
0.239056 0.835283 0.059725
0.294559 0.836290 0.060616
0.350062 0.837297 0.061507
0.405565 0.838304 0.062398
0.461068 0.839310 0.063290
0.516570 0.840317 0.064181
0.572073 0.841324 0.065072
0.627576 0.842331 0.065963
0.683079 0.843337 0.066854
0.738582 0.844344 0.067745
0.794085 0.845351 0.068636
0.849588 0.846358 0.069528
0.905091 0.847364 0.070419
0.960594 0.848371 0.071310
0.076342 0.890327 0.060065
0.131845 0.891334 0.060956
0.187348 0.892340 0.061847
0.242851 0.893347 0.062738
0.298354 0.894354 0.063629
0.353857 0.895361 0.064521
0.409360 0.896367 0.065412
0.464863 0.897374 0.066303
0.520366 0.898381 0.067194
0.575869 0.899387 0.068085
0.631372 0.900394 0.068976
0.686874 0.901401 0.069867
0.742377 0.902408 0.070758
0.797880 0.903414 0.071650
0.853383 0.904421 0.072541
0.908886 0.905428 0.073432
0.964389 0.906435 0.074323
0.080137 0.948390 0.063078
0.135640 0.949397 0.063969
0.191143 0.950404 0.064860
0.246646 0.951411 0.065751
0.302149 0.952417 0.066643
0.357652 0.953424 0.067534
0.413155 0.954431 0.068425
0.468658 0.955438 0.069316
0.524161 0.956444 0.070207
0.579664 0.957451 0.071098
0.635167 0.958458 0.071989
0.690670 0.959465 0.072881
0.746173 0.960471 0.073772
0.801675 0.961478 0.074663
0.857178 0.962485 0.075554
0.912681 0.963492 0.076445
0.968184 0.964498 0.077336
0.028967 0.024505 0.066420
0.084228 0.025385 0.067416
0.139489 0.026266 0.068412
0.194750 0.027146 0.069408
0.250011 0.028027 0.070404
0.305272 0.028907 0.071400
0.360533 0.029787 0.072396
0.415794 0.030668 0.073392
0.471055 0.031548 0.074388
0.526316 0.032429 0.075384
0.581577 0.033309 0.076380
0.636838 0.034189 0.077376
0.692099 0.035070 0.078372
0.747360 0.035950 0.079368
0.802621 0.036830 0.080364
0.857882 0.037711 0.081360
0.913143 0.038591 0.082356
0.031944 0.082141 0.069787
0.087205 0.083022 0.070783
0.142466 0.083902 0.071779
0.197727 0.084783 0.072775
0.252988 0.085663 0.073771
0.308249 0.086543 0.074767
0.363510 0.087424 0.075763
0.418771 0.088304 0.076759
0.474032 0.089185 0.077755
0.529293 0.090065 0.078751
0.584554 0.090945 0.079747
0.639815 0.091826 0.080743
0.695076 0.092706 0.081740
0.750337 0.093586 0.082736
0.805598 0.094467 0.083732
0.860859 0.095347 0.084728
0.916120 0.096228 0.085724
0.034921 0.139778 0.073155
0.090182 0.140658 0.074151
0.145443 0.141539 0.075147
0.200704 0.142419 0.076143
0.255965 0.143299 0.077139
0.311226 0.144180 0.078135
0.366487 0.145060 0.079131
0.421748 0.145941 0.080127
0.477009 0.146821 0.081123
0.532270 0.147701 0.082119
0.587531 0.148582 0.083115
0.642792 0.149462 0.084111
0.698053 0.150342 0.085107
0.753314 0.151223 0.086103
0.808575 0.152103 0.087099
0.863836 0.152984 0.088095
0.919097 0.153864 0.089091
0.037898 0.197414 0.076523
0.093159 0.198295 0.077519
0.148420 0.199175 0.078515
0.203681 0.200055 0.079511
0.258942 0.200936 0.080507
0.314203 0.201816 0.081503
0.369464 0.202696 0.082499
0.424725 0.203577 0.083495
0.479986 0.204457 0.084491
0.535247 0.205338 0.085487
0.590508 0.206218 0.086483
0.645769 0.207098 0.087479
0.701030 0.207979 0.088475
0.756291 0.208859 0.089471
0.811552 0.209740 0.090467
0.866813 0.210620 0.091463
0.922074 0.211500 0.092459
0.040875 0.255051 0.079891
0.096136 0.255931 0.080887
0.151397 0.256811 0.081883
0.206658 0.257692 0.082879
0.261919 0.258572 0.083875
0.317180 0.259452 0.084871
0.372441 0.260333 0.085867
0.427702 0.261213 0.086863
0.482963 0.262094 0.087859
0.538224 0.262974 0.088855
0.593485 0.263854 0.089851
0.648746 0.264735 0.090847
0.704007 0.265615 0.091843
0.759268 0.266496 0.092839
0.814529 0.267376 0.093835
0.869790 0.268256 0.094831
0.925051 0.269137 0.095827
0.043851 0.312687 0.083259
0.099112 0.313567 0.084255
0.154373 0.314448 0.085251
0.209634 0.315328 0.086247
0.264895 0.316208 0.087243
0.320156 0.317089 0.088239
0.375418 0.317969 0.089235
0.430679 0.318850 0.090231
0.485940 0.319730 0.091227
0.541201 0.320610 0.092223
0.596462 0.321491 0.093219
0.651723 0.322371 0.094215
0.706984 0.323252 0.095211
0.762245 0.324132 0.096207
0.817506 0.325012 0.097203
0.872767 0.325893 0.098199
0.928028 0.326773 0.099195
0.046828 0.370323 0.086626
0.102089 0.371204 0.087622
0.157350 0.372084 0.088618
0.212611 0.372964 0.089614
0.267872 0.373845 0.090610
0.323133 0.374725 0.091607
0.378394 0.375606 0.092603
0.433655 0.376486 0.093599
0.488916 0.377366 0.094595
0.544177 0.378247 0.095591
0.599438 0.379127 0.096587
0.654699 0.380008 0.097583
0.709960 0.380888 0.098579
0.765222 0.381768 0.099575
0.820483 0.382649 0.100571
0.875744 0.383529 0.101567
0.931005 0.384410 0.102563
0.049805 0.427960 0.089994
0.105066 0.428840 0.090990
0.160327 0.429720 0.091986
0.215588 0.430601 0.092982
0.270849 0.431481 0.093978
0.326110 0.432362 0.094974
0.381371 0.433242 0.095970
0.436632 0.434122 0.096966
0.491893 0.435003 0.097962
0.547154 0.435883 0.098958
0.602415 0.436764 0.099954
0.657676 0.437644 0.100950
0.712937 0.438524 0.101946
0.768198 0.439405 0.102942
0.823459 0.440285 0.103938
0.878913 0.441266 0.104851
0.934416 0.442273 0.105742
0.052782 0.485596 0.093362
0.108043 0.486476 0.094358
0.163304 0.487357 0.095354
0.218565 0.488237 0.096350
0.273826 0.489118 0.097346
0.329087 0.489998 0.098342
0.384348 0.490878 0.099338
0.439609 0.491759 0.100334
0.494870 0.492639 0.101330
0.550131 0.493520 0.102326
0.605392 0.494400 0.103322
0.660696 0.495303 0.104300
0.716199 0.496310 0.105191
0.771702 0.497316 0.106082
0.827205 0.498323 0.106973
0.882708 0.499330 0.107864
0.938211 0.500337 0.108755
0.055759 0.543232 0.096730
0.111020 0.544113 0.097726
0.166281 0.544993 0.098722
0.221542 0.545874 0.099718
0.276803 0.546754 0.100714
0.332064 0.547634 0.101710
0.387325 0.548515 0.102706
0.442586 0.549395 0.103702
0.497982 0.550346 0.104639
0.553485 0.551353 0.105530
0.608988 0.552360 0.106422
0.664491 0.553366 0.107313
0.719994 0.554373 0.108204
0.775497 0.555380 0.109095
0.831000 0.556387 0.109986
0.886503 0.557393 0.110877
0.942006 0.558400 0.111768
0.058736 0.600869 0.100098
0.113997 0.601749 0.101094
0.169258 0.602630 0.102090
0.224519 0.603510 0.103086
0.279780 0.604390 0.104082
0.335268 0.605390 0.104979
0.390771 0.606396 0.105870
0.446274 0.607403 0.106761
0.501777 0.608410 0.107653
0.557280 0.609417 0.108544
0.612783 0.610423 0.109435
0.668286 0.611430 0.110326
0.723789 0.612437 0.111217
0.779292 0.613444 0.112108
0.834795 0.614450 0.112999
0.890298 0.615457 0.113890
0.945801 0.616464 0.114782
0.061713 0.658505 0.103466
0.117052 0.659426 0.104428
0.172554 0.660433 0.105319
0.228057 0.661440 0.106210
0.283560 0.662446 0.107101
0.339063 0.663453 0.107992
0.394566 0.664460 0.108883
0.450069 0.665467 0.109775
0.505572 0.666473 0.110666
0.561075 0.667480 0.111557
0.616578 0.668487 0.112448
0.672081 0.669494 0.113339
0.727584 0.670500 0.114230
0.783087 0.671507 0.115121
0.838590 0.672514 0.116012
0.894093 0.673521 0.116904
0.949596 0.674527 0.117795
0.065344 0.716483 0.106550
0.120847 0.717490 0.107441
0.176350 0.718497 0.108332
0.231853 0.719503 0.109223
0.287356 0.720510 0.110114
0.342858 0.721517 0.111006
0.398361 0.722524 0.111897
0.453864 0.723530 0.112788
0.509367 0.724537 0.113679
0.564870 0.725544 0.114570
0.620373 0.726551 0.115461
0.675876 0.727557 0.116352
0.731379 0.728564 0.117243
0.786882 0.729571 0.118135
0.842385 0.730578 0.119026
0.897888 0.731584 0.119917
0.953391 0.732591 0.120808
0.069139 0.774547 0.109563
0.124642 0.775553 0.110454
0.180145 0.776560 0.111345
0.235648 0.777567 0.112236
0.291151 0.778574 0.113128
0.346654 0.779580 0.114019
0.402157 0.780587 0.114910
0.457659 0.781594 0.115801
0.513162 0.782601 0.116692
0.568665 0.783607 0.117583
0.624168 0.784614 0.118474
0.679671 0.785621 0.119365
0.735174 0.786628 0.120257
0.790677 0.787634 0.121148
0.846180 0.788641 0.122039
0.901683 0.789648 0.122930
0.957186 0.790655 0.123821
0.072934 0.832610 0.112576
0.128437 0.833617 0.113467
0.183940 0.834624 0.114359
0.239443 0.835631 0.115250
0.294946 0.836637 0.116141
0.350449 0.837644 0.117032
0.405952 0.838651 0.117923
0.461455 0.839658 0.118814
0.516958 0.840664 0.119705
0.572461 0.841671 0.120596
0.627963 0.842678 0.121488
0.683466 0.843685 0.122379
0.738969 0.844691 0.123270
0.794472 0.845698 0.124161
0.849975 0.846705 0.125052
0.905478 0.847711 0.125943
0.960981 0.848718 0.126834
0.076729 0.890674 0.115589
0.132232 0.891681 0.116481
0.187735 0.892687 0.117372
0.243238 0.893694 0.118263
0.298741 0.894701 0.119154
0.354244 0.895708 0.120045
0.409747 0.896714 0.120936
0.465250 0.897721 0.121827
0.520753 0.898728 0.122718
0.576256 0.899735 0.123610
0.631759 0.900741 0.124501
0.687262 0.901748 0.125392
0.742764 0.902755 0.126283
0.798267 0.903762 0.127174
0.853770 0.904768 0.128065
0.909273 0.905775 0.128956
0.964776 0.906782 0.129848
0.080524 0.948738 0.118603
0.136027 0.949744 0.119494
0.191530 0.950751 0.120385
0.247033 0.951758 0.121276
0.302536 0.952765 0.122167
0.358039 0.953771 0.123058
0.413542 0.954778 0.123949
0.469045 0.955785 0.124841
0.524548 0.956792 0.125732
0.580051 0.957798 0.126623
0.635554 0.958805 0.127514
0.691057 0.959812 0.128405
0.746560 0.960818 0.129296
0.802063 0.961825 0.130187
0.857565 0.962832 0.131078
0.913068 0.963839 0.131970
0.968571 0.964845 0.132861
0.029271 0.024809 0.121980
0.084532 0.025689 0.122976
0.139793 0.026569 0.123972
0.195054 0.027450 0.124968
0.250315 0.028330 0.125964
0.305576 0.029211 0.126960
0.360837 0.030091 0.127956
0.416098 0.030971 0.128952
0.471359 0.031852 0.129948
0.526620 0.032732 0.130944
0.581881 0.033612 0.131940
0.637142 0.034493 0.132936
0.692403 0.035373 0.133932
0.747664 0.036254 0.134928
0.802925 0.037134 0.135924
0.858186 0.038014 0.136920
0.913447 0.038895 0.137916
0.032247 0.082445 0.125348
0.087508 0.083325 0.126344
0.142769 0.084206 0.127340
0.198031 0.085086 0.128336
0.253292 0.085967 0.129332
0.308553 0.086847 0.130328
0.363814 0.087727 0.131324
0.419075 0.088608 0.132320
0.474336 0.089488 0.133316
0.529597 0.090368 0.134312
0.584858 0.091249 0.135308
0.640119 0.092129 0.136304
0.695380 0.093010 0.137300
0.750641 0.093890 0.138296
0.805902 0.094770 0.139292
0.861163 0.095651 0.140288
0.916424 0.096531 0.141284
0.035224 0.140081 0.128716
0.090485 0.140962 0.129712
0.145746 0.141842 0.130708
0.201007 0.142723 0.131704
0.256268 0.143603 0.132700
0.311529 0.144483 0.133696
0.366790 0.145364 0.134692
0.422051 0.146244 0.135688
0.477312 0.147124 0.136684
0.532573 0.148005 0.137680
0.587835 0.148885 0.138676
0.643096 0.149766 0.139672
0.698357 0.150646 0.140668
0.753618 0.151526 0.141664
0.808879 0.152407 0.142660
0.864140 0.153287 0.143656
0.919401 0.154168 0.144652
0.038201 0.197718 0.132084
0.093462 0.198598 0.133080
0.148723 0.199479 0.134076
0.203984 0.200359 0.135072
0.259245 0.201239 0.136068
0.314506 0.202120 0.137064
0.369767 0.203000 0.138060
0.425028 0.203880 0.139056
0.480289 0.204761 0.140052
0.535550 0.205641 0.141048
0.590811 0.206522 0.142044
0.646072 0.207402 0.143040
0.701333 0.208282 0.144036
0.756594 0.209163 0.145032
0.811855 0.210043 0.146028
0.867116 0.210924 0.147024
0.922377 0.211804 0.148020
0.041178 0.255354 0.135452
0.096439 0.256235 0.136448
0.151700 0.257115 0.137444
0.206961 0.257995 0.138440
0.262222 0.258876 0.139436
0.317483 0.259756 0.140432
0.372744 0.260636 0.141428
0.428005 0.261517 0.142424
0.483266 0.262397 0.143420
0.538527 0.263278 0.144416
0.593788 0.264158 0.145412
0.649049 0.265038 0.146408
0.704310 0.265919 0.147404
0.759571 0.266799 0.148400
0.814832 0.267680 0.149396
0.870093 0.268560 0.150392
0.925354 0.269440 0.151388
0.044155 0.312990 0.138819
0.099416 0.313871 0.139815
0.154677 0.314751 0.140811
0.209938 0.315632 0.141807
0.265199 0.316512 0.142803
0.320460 0.317392 0.143799
0.375721 0.318273 0.144795
0.430982 0.319153 0.145791
0.486243 0.320034 0.146787
0.541504 0.320914 0.147783
0.596765 0.321794 0.148779
0.652026 0.322675 0.149775
0.707287 0.323555 0.150771
0.762548 0.324436 0.151767
0.817809 0.325316 0.152763
0.873070 0.326196 0.153759
0.928331 0.327077 0.154755
0.047132 0.370627 0.142187
0.102393 0.371507 0.143183
0.157654 0.372388 0.144179
0.212915 0.373268 0.145175
0.268176 0.374148 0.146171
0.323437 0.375029 0.147167
0.378698 0.375909 0.148163
0.433959 0.376790 0.149159
0.489220 0.377670 0.150155
0.544481 0.378550 0.151151
0.599742 0.379431 0.152147
0.655003 0.380311 0.153143
0.710264 0.381192 0.154139
0.765525 0.382072 0.155135
0.820786 0.382952 0.156131
0.876047 0.383833 0.157127
0.931308 0.384713 0.158123
0.050109 0.428263 0.145555
0.105370 0.429144 0.146551
0.160631 0.430024 0.147547
0.215892 0.430904 0.148543
0.271153 0.431785 0.149539
0.326414 0.432665 0.150535
0.381675 0.433546 0.151531
0.436936 0.434426 0.152527
0.492197 0.435306 0.153523
0.547458 0.436187 0.154519
0.602719 0.437067 0.155515
0.657980 0.437948 0.156511
0.713241 0.438828 0.157507
0.768502 0.439708 0.158503
0.823797 0.440607 0.159484
0.879300 0.441613 0.160375
0.934803 0.442620 0.161267
0.053086 0.485900 0.148923
0.108347 0.486780 0.149919
0.163608 0.487660 0.150915
0.218869 0.488541 0.151911
0.274130 0.489421 0.152907
0.329391 0.490302 0.153903
0.384652 0.491182 0.154899
0.439913 0.492062 0.155895
0.495174 0.492943 0.156891
0.550435 0.493823 0.157887
0.605696 0.494704 0.158883
0.661083 0.495650 0.159824
0.716586 0.496657 0.160715
0.772089 0.497663 0.161606
0.827592 0.498670 0.162497
0.883095 0.499677 0.163389
0.938598 0.500684 0.164280
0.056063 0.543536 0.152291
0.111324 0.544416 0.153287
0.166585 0.545297 0.154283
0.221846 0.546177 0.155279
0.277107 0.547058 0.156275
0.332368 0.547938 0.157271
0.387629 0.548818 0.158267
0.442890 0.549699 0.159263
0.498369 0.550693 0.160164
0.553872 0.551700 0.161055
0.609375 0.552707 0.161946
0.664878 0.553714 0.162837
0.720381 0.554720 0.163728
0.775884 0.555727 0.164620
0.831387 0.556734 0.165511
0.886890 0.557741 0.166402
0.942393 0.558747 0.167293
0.059039 0.601172 0.155658
0.114300 0.602053 0.156654
0.169561 0.602933 0.157650
0.224822 0.603814 0.158646
0.280152 0.604730 0.159613
0.335655 0.605737 0.160504
0.391158 0.606743 0.161395
0.446661 0.607750 0.162286
0.502164 0.608757 0.163177
0.557667 0.609764 0.164068
0.613170 0.610770 0.164959
0.668673 0.611777 0.165850
0.724176 0.612784 0.166742
0.779679 0.613791 0.167633
0.835182 0.614797 0.168524
0.890685 0.615804 0.169415
0.946188 0.616811 0.170306
0.062016 0.658809 0.159026
0.117439 0.659773 0.159952
0.172942 0.660780 0.160843
0.228445 0.661787 0.161735
0.283947 0.662794 0.162626
0.339450 0.663800 0.163517
0.394953 0.664807 0.164408
0.450456 0.665814 0.165299
0.505959 0.666821 0.166190
0.561462 0.667827 0.167081
0.616965 0.668834 0.167973
0.672468 0.669841 0.168864
0.727971 0.670848 0.169755
0.783474 0.671854 0.170646
0.838977 0.672861 0.171537
0.894480 0.673868 0.172428
0.949983 0.674875 0.173319
0.065731 0.716830 0.162074
0.121234 0.717837 0.162966
0.176737 0.718844 0.163857
0.232240 0.719850 0.164748
0.287743 0.720857 0.165639
0.343246 0.721864 0.166530
0.398748 0.722871 0.167421
0.454251 0.723877 0.168312
0.509754 0.724884 0.169203
0.565257 0.725891 0.170095
0.620760 0.726898 0.170986
0.676263 0.727904 0.171877
0.731766 0.728911 0.172768
0.787269 0.729918 0.173659
0.842772 0.730925 0.174550
0.898275 0.731931 0.175441
0.953778 0.732938 0.176332
0.069526 0.774894 0.165088
0.125029 0.775901 0.165979
0.180532 0.776907 0.166870
0.236035 0.777914 0.167761
0.291538 0.778921 0.168652
0.347041 0.779928 0.169543
0.402544 0.780934 0.170434
0.458047 0.781941 0.171326
0.513549 0.782948 0.172217
0.569052 0.783955 0.173108
0.624555 0.784961 0.173999
0.680058 0.785968 0.174890
0.735561 0.786975 0.175781
0.791064 0.787982 0.176672
0.846567 0.788988 0.177563
0.902070 0.789995 0.178455
0.957573 0.791002 0.179346
0.073321 0.832957 0.168101
0.128824 0.833964 0.168992
0.184327 0.834971 0.169883
0.239830 0.835978 0.170774
0.295333 0.836984 0.171665
0.350836 0.837991 0.172556
0.406339 0.838998 0.173448
0.461842 0.840005 0.174339
0.517345 0.841011 0.175230
0.572848 0.842018 0.176121
0.628351 0.843025 0.177012
0.683853 0.844032 0.177903
0.739356 0.845038 0.178794
0.794859 0.846045 0.179685
0.850362 0.847052 0.180577
0.905865 0.848059 0.181468
0.961368 0.849065 0.182359
0.077116 0.891021 0.171114
0.132619 0.892028 0.172005
0.188122 0.893035 0.172896
0.243625 0.894041 0.173787
0.299128 0.895048 0.174678
0.354631 0.896055 0.175570
0.410134 0.897062 0.176461
0.465637 0.898068 0.177352
0.521140 0.899075 0.178243
0.576643 0.900082 0.179134
0.632146 0.901089 0.180025
0.687649 0.902095 0.180916
0.743152 0.903102 0.181808
0.798654 0.904109 0.182699
0.854157 0.905116 0.183590
0.909660 0.906122 0.184481
0.965163 0.907129 0.185372
0.080911 0.949085 0.174127
0.136414 0.950091 0.175018
0.191917 0.951098 0.175909
0.247420 0.952105 0.176801
0.302923 0.953112 0.177692
0.358426 0.954118 0.178583
0.413929 0.955125 0.179474
0.469432 0.956132 0.180365
0.524935 0.957139 0.181256
0.580438 0.958145 0.182147
0.635941 0.959152 0.183038
0.691444 0.960159 0.183930
0.746947 0.961166 0.184821
0.802450 0.962172 0.185712
0.857953 0.963179 0.186603
0.913456 0.964186 0.187494
0.968958 0.965193 0.188385
0.029574 0.025112 0.177541
0.084835 0.025993 0.178537
0.140096 0.026873 0.179533
0.195357 0.027753 0.180529
0.250618 0.028634 0.181525
0.305879 0.029514 0.182521
0.361140 0.030395 0.183517
0.416401 0.031275 0.184513
0.471662 0.032155 0.185509
0.526923 0.033036 0.186505
