assets/luts/generated_genre/bs_drama_motivated_natural_cf8b747e404bc14a.cube
# V4 spec-generated LUT — bs_drama_motivated_natural
# Genre: drama
# Look: Motivated natural drama — Deakins/1917, Lachman/Carol. Faces and lighting motivation come first; bra
# Spec hash: cf8b747e404bc14a
TITLE "V4 Spec LUT — bs_drama_motivated_natural"
LUT_3D_SIZE 5
DOMAIN_MIN 0.0 0.0 0.0
DOMAIN_MAX 1.0 1.0 1.0
0.028663 0.024201 0.010859
0.249707 0.027723 0.014843
0.470752 0.031245 0.018827
0.691796 0.034766 0.022811
0.912840 0.038288 0.026795
0.040571 0.254747 0.024330
0.261615 0.258269 0.028314
0.482659 0.261790 0.032298
0.703703 0.265312 0.036282
0.924747 0.268833 0.040266
0.052478 0.485292 0.037801
0.273523 0.488814 0.041785
0.494567 0.492336 0.045769
0.715812 0.495962 0.049666
0.937824 0.499989 0.053231
0.064957 0.716136 0.051025
0.286968 0.720163 0.054590
0.508980 0.724190 0.058154
0.730992 0.728217 0.061719
0.953004 0.732244 0.065283
0.080137 0.948390 0.063078
0.302149 0.952417 0.066643
0.524161 0.956444 0.070207
0.746173 0.960471 0.073772
0.968184 0.964498 0.077336
0.029878 0.025416 0.233102
0.250922 0.028937 0.237086
0.471966 0.032459 0.241070
0.693010 0.035980 0.245054
0.914054 0.039502 0.249038
0.041785 0.255961 0.246573
0.262829 0.259483 0.250557
0.483873 0.263004 0.254541
0.704917 0.266526 0.258525
0.925962 0.270048 0.262509
0.053693 0.486507 0.260044
0.274737 0.490028 0.264028
0.495781 0.493550 0.268012
0.717360 0.497351 0.271764
0.939372 0.501378 0.275329
0.066505 0.717525 0.273123
0.288517 0.721552 0.276688
0.510529 0.725579 0.280253
0.732540 0.729605 0.283817
0.954552 0.733632 0.287382
0.081685 0.949779 0.285176
0.303697 0.953806 0.288741
0.525709 0.957833 0.292305
0.747721 0.961860 0.295870
0.969733 0.965887 0.299434
0.031092 0.026630 0.455345
0.252136 0.030152 0.459329
0.473180 0.033673 0.463313
0.694224 0.037195 0.467297
0.915268 0.040716 0.471281
0.043000 0.257176 0.468816
0.264044 0.260697 0.472800
0.485088 0.264219 0.476784
0.706132 0.267740 0.480768
0.927176 0.271262 0.484752
0.054907 0.487721 0.482287
0.275951 0.491243 0.486271
0.496995 0.494764 0.490255
0.718908 0.498740 0.493862
0.940920 0.502767 0.497427
0.068053 0.718913 0.495222
0.290065 0.722940 0.498786
0.512077 0.726967 0.502351
0.734089 0.730994 0.505915
0.956100 0.735021 0.509480
0.083233 0.951168 0.507274
0.305245 0.955195 0.510839
0.527257 0.959222 0.514403
0.749269 0.963249 0.517968
0.971281 0.967276 0.521532
0.032306 0.027844 0.677587
0.253351 0.031366 0.681571
0.474395 0.034888 0.685555
0.695439 0.038409 0.689539
0.916483 0.041931 0.693523
0.044214 0.258390 0.691059
0.265258 0.261912 0.695043
0.486302 0.265433 0.699027
0.707346 0.268955 0.703011
0.928390 0.272476 0.706995
0.056121 0.488935 0.704530
0.277166 0.492457 0.708514
0.498445 0.496101 0.712396
0.720456 0.500128 0.715961
0.942468 0.504155 0.719525
0.069601 0.720302 0.717320
0.291613 0.724329 0.720884
0.513625 0.728356 0.724449
0.735637 0.732383 0.728013
0.957649 0.736410 0.731578
0.084781 0.952556 0.729373
0.306793 0.956583 0.732937
0.528805 0.960610 0.736502
0.750817 0.964637 0.740066
0.972829 0.968664 0.743631
0.033521 0.029059 0.899830
0.254565 0.032580 0.903814
0.475609 0.036102 0.907798
0.696653 0.039623 0.911782
0.917697 0.043145 0.915766
0.045428 0.259604 0.913301
0.266472 0.263126 0.917285
0.487516 0.266647 0.921269
0.708561 0.270169 0.925253
0.929605 0.273691 0.929237
0.057336 0.490150 0.926773
0.278380 0.493671 0.930757
0.499993 0.497490 0.934494
0.722005 0.501517 0.938059
0.944016 0.505544 0.941623
0.071149 0.721690 0.939418
0.293161 0.725717 0.942982
0.515173 0.729744 0.946547
0.737185 0.733771 0.950111
0.959197 0.737798 0.953676
0.086329 0.953945 0.951471
0.308341 0.957972 0.955035
0.530353 0.961999 0.958600
0.752365 0.966026 0.962164
0.974377 0.970053 0.965729
