assets/luts/generated_genre/bs_drama_phantom_thread_ed4ffc55fe4bf002.cube
# V4 spec-generated LUT — bs_drama_phantom_thread
# Genre: drama
# Look: Painterly prestige drama — amber-warm with mild blue shadow chord. PTA/Phantom Thread, Young/Selma.
# Spec hash: ed4ffc55fe4bf002
TITLE "V4 Spec LUT — bs_drama_phantom_thread"
LUT_3D_SIZE 5
DOMAIN_MIN 0.0 0.0 0.0
DOMAIN_MAX 1.0 1.0 1.0
0.040422 0.031421 0.021209
0.245831 0.039865 0.027569
0.447288 0.048146 0.033805
0.646879 0.056351 0.039984
0.845225 0.064504 0.046124
0.072195 0.260002 0.042987
0.277605 0.268446 0.049346
0.479061 0.276727 0.055583
0.678652 0.284932 0.061761
0.876998 0.293086 0.067902
0.103302 0.483786 0.064307
0.308711 0.492230 0.070666
0.510168 0.500511 0.076903
0.709785 0.508870 0.083747
0.908213 0.517509 0.091983
0.134168 0.705768 0.086889
0.339664 0.714715 0.095418
0.541204 0.723489 0.103783
0.740877 0.732182 0.112071
0.939306 0.740821 0.120307
0.165063 0.927658 0.115032
0.370558 0.936604 0.123561
0.572099 0.945378 0.131926
0.771772 0.954071 0.140214
0.970201 0.962710 0.148450
0.043729 0.034431 0.229369
0.249139 0.042875 0.235728
0.450595 0.051157 0.241965
0.650186 0.059361 0.248143
0.848532 0.067515 0.254284
0.075503 0.263012 0.251146
0.280912 0.271456 0.257505
0.482369 0.279738 0.263742
0.681960 0.287942 0.269921
0.880306 0.296096 0.276061
0.106609 0.486796 0.272467
0.312019 0.495240 0.278826
0.513475 0.503522 0.285062
0.713123 0.512060 0.292681
0.911551 0.520698 0.300917
0.137506 0.708958 0.295822
0.343002 0.717904 0.304351
0.544542 0.726678 0.312716
0.744216 0.735371 0.321004
0.942644 0.744010 0.329240
0.168401 0.930847 0.323965
0.373896 0.939793 0.332494
0.575437 0.948568 0.340859
0.775110 0.957260 0.349147
0.973539 0.965899 0.357383
0.046953 0.037365 0.432259
0.252363 0.045809 0.438618
0.453819 0.054091 0.444854
0.653410 0.062295 0.451033
0.851756 0.070449 0.457174
0.078727 0.265946 0.454036
0.284136 0.274390 0.460395
0.485593 0.282672 0.466632
0.685183 0.290876 0.472811
0.883529 0.299030 0.478951
0.109833 0.489730 0.475357
0.315243 0.498174 0.481716
0.516703 0.506475 0.488037
0.716376 0.515168 0.496325
0.914805 0.523807 0.504561
0.140760 0.712066 0.499466
0.346255 0.721013 0.507995
0.547795 0.729787 0.516360
0.747469 0.738480 0.524648
0.945898 0.747119 0.532884
0.171655 0.933956 0.527609
0.377150 0.942902 0.536138
0.578690 0.951676 0.544503
0.778364 0.960369 0.552791
0.976792 0.969008 0.561027
0.050145 0.040270 0.633099
0.255554 0.048714 0.639458
0.457011 0.056995 0.645695
0.656601 0.065200 0.651874
0.854947 0.073353 0.658014
0.081918 0.268851 0.654877
0.287328 0.277295 0.661236
0.488784 0.285576 0.667472
0.688375 0.293781 0.673651
0.886721 0.301934 0.679792
0.113024 0.492635 0.676197
0.318434 0.501079 0.682556
0.519923 0.509553 0.689624
0.719597 0.518246 0.697912
0.918026 0.526884 0.706148
0.143981 0.715144 0.701053
0.349476 0.724090 0.709582
0.551016 0.732864 0.717947
0.750690 0.741557 0.726235
0.949118 0.750196 0.734471
0.174875 0.937033 0.729196
0.380371 0.945979 0.737725
0.581911 0.954754 0.746091
0.781585 0.963446 0.754378
0.980013 0.972085 0.762614
0.053315 0.043155 0.832615
0.258725 0.051599 0.838974
0.460181 0.059880 0.845211
0.659772 0.068085 0.851390
0.858118 0.076239 0.857530
0.085088 0.271736 0.854392
0.290498 0.280180 0.860751
0.491954 0.288461 0.866988
0.691545 0.296666 0.873167
0.889891 0.304820 0.879307
0.116195 0.495520 0.875713
0.321604 0.503964 0.882072
0.523123 0.512610 0.889881
0.722797 0.521303 0.898169
0.921225 0.529941 0.906405
0.147180 0.718201 0.901310
0.352675 0.727147 0.909840
0.554216 0.735921 0.918205
0.753889 0.744614 0.926493
0.952318 0.753253 0.934729
0.178075 0.940090 0.929453
0.383570 0.949036 0.937983
0.585110 0.957811 0.946348
0.784784 0.966503 0.954636
0.983213 0.975142 0.962872
