assets/luts/generated_genre/bs_drama_motivated_natural_cf8b747e404bc14a.cube
# V4 spec-generated LUT — bs_drama_motivated_natural
# Genre: drama
# Look: Motivated natural drama — Deakins/1917, Lachman/Carol. Faces and lighting motivation come first; bra
# Spec hash: cf8b747e404bc14a
TITLE "V4 Spec LUT — bs_drama_motivated_natural"
LUT_3D_SIZE 9
DOMAIN_MIN 0.0 0.0 0.0
DOMAIN_MAX 1.0 1.0 1.0
0.028663 0.024201 0.010859
0.139185 0.025962 0.012851
0.249707 0.027723 0.014843
0.360230 0.029484 0.016835
0.470752 0.031245 0.018827
0.581274 0.033005 0.020819
0.691796 0.034766 0.022811
0.802318 0.036527 0.024803
0.912840 0.038288 0.026795
0.034617 0.139474 0.017595
0.145139 0.141235 0.019587
0.255661 0.142996 0.021579
0.366183 0.144757 0.023571
0.476705 0.146517 0.025563
0.587227 0.148278 0.027555
0.697749 0.150039 0.029547
0.808271 0.151800 0.031539
0.918793 0.153560 0.033531
0.040571 0.254747 0.024330
0.151093 0.256508 0.026322
0.261615 0.258269 0.028314
0.372137 0.260029 0.030306
0.482659 0.261790 0.032298
0.593181 0.263551 0.034290
0.703703 0.265312 0.036282
0.814225 0.267072 0.038274
0.924747 0.268833 0.040266
0.046525 0.370020 0.031066
0.157047 0.371780 0.033058
0.267569 0.373541 0.035050
0.378091 0.375302 0.037042
0.488613 0.377063 0.039034
0.599135 0.378824 0.041026
0.709657 0.380584 0.043018
0.820179 0.382345 0.045010
0.930701 0.384106 0.047002
0.052478 0.485292 0.037801
0.163001 0.487053 0.039793
0.273523 0.488814 0.041785
0.384045 0.490575 0.043777
0.494567 0.492336 0.045769
0.605089 0.494096 0.047761
0.715812 0.495962 0.049666
0.826818 0.497976 0.051448
0.937824 0.499989 0.053231
0.058432 0.600565 0.044537
0.168954 0.602326 0.046529
0.279476 0.604087 0.048521
0.390384 0.606049 0.050346
0.501390 0.608063 0.052128
0.612396 0.610076 0.053910
0.723402 0.612090 0.055692
0.834408 0.614103 0.057475
0.945414 0.616117 0.059257
0.064957 0.716136 0.051025
0.175963 0.718149 0.052808
0.286968 0.720163 0.054590
0.397974 0.722176 0.056372
0.508980 0.724190 0.058154
0.619986 0.726203 0.059937
0.730992 0.728217 0.061719
0.841998 0.730230 0.063501
0.953004 0.732244 0.065283
0.072547 0.832263 0.057052
0.183553 0.834277 0.058834
0.294559 0.836290 0.060616
0.405565 0.838304 0.062398
0.516570 0.840317 0.064181
0.627576 0.842331 0.065963
0.738582 0.844344 0.067745
0.849588 0.846358 0.069528
0.960594 0.848371 0.071310
0.080137 0.948390 0.063078
0.191143 0.950404 0.064860
0.302149 0.952417 0.066643
0.413155 0.954431 0.068425
0.524161 0.956444 0.070207
0.635167 0.958458 0.071989
0.746173 0.960471 0.073772
0.857178 0.962485 0.075554
0.968184 0.964498 0.077336
0.029271 0.024809 0.121980
0.139793 0.026569 0.123972
0.250315 0.028330 0.125964
0.360837 0.030091 0.127956
0.471359 0.031852 0.129948
0.581881 0.033612 0.131940
0.692403 0.035373 0.133932
0.802925 0.037134 0.135924
0.913447 0.038895 0.137916
0.035224 0.140081 0.128716
0.145746 0.141842 0.130708
0.256268 0.143603 0.132700
0.366790 0.145364 0.134692
0.477312 0.147124 0.136684
0.587835 0.148885 0.138676
0.698357 0.150646 0.140668
0.808879 0.152407 0.142660
0.919401 0.154168 0.144652
0.041178 0.255354 0.135452
0.151700 0.257115 0.137444
0.262222 0.258876 0.139436
0.372744 0.260636 0.141428
0.483266 0.262397 0.143420
0.593788 0.264158 0.145412
0.704310 0.265919 0.147404
0.814832 0.267680 0.149396
0.925354 0.269440 0.151388
0.047132 0.370627 0.142187
0.157654 0.372388 0.144179
0.268176 0.374148 0.146171
0.378698 0.375909 0.148163
0.489220 0.377670 0.150155
0.599742 0.379431 0.152147
0.710264 0.381192 0.154139
0.820786 0.382952 0.156131
0.931308 0.384713 0.158123
0.053086 0.485900 0.148923
0.163608 0.487660 0.150915
0.274130 0.489421 0.152907
0.384652 0.491182 0.154899
0.495174 0.492943 0.156891
0.605696 0.494704 0.158883
0.716586 0.496657 0.160715
0.827592 0.498670 0.162497
0.938598 0.500684 0.164280
0.059039 0.601172 0.155658
0.169561 0.602933 0.157650
0.280152 0.604730 0.159613
0.391158 0.606743 0.161395
0.502164 0.608757 0.163177
0.613170 0.610770 0.164959
0.724176 0.612784 0.166742
0.835182 0.614797 0.168524
0.946188 0.616811 0.170306
0.065731 0.716830 0.162074
0.176737 0.718844 0.163857
0.287743 0.720857 0.165639
0.398748 0.722871 0.167421
0.509754 0.724884 0.169203
0.620760 0.726898 0.170986
0.731766 0.728911 0.172768
0.842772 0.730925 0.174550
0.953778 0.732938 0.176332
0.073321 0.832957 0.168101
0.184327 0.834971 0.169883
0.295333 0.836984 0.171665
0.406339 0.838998 0.173448
0.517345 0.841011 0.175230
0.628351 0.843025 0.177012
0.739356 0.845038 0.178794
0.850362 0.847052 0.180577
0.961368 0.849065 0.182359
0.080911 0.949085 0.174127
0.191917 0.951098 0.175909
0.302923 0.953112 0.177692
0.413929 0.955125 0.179474
0.524935 0.957139 0.181256
0.635941 0.959152 0.183038
0.746947 0.961166 0.184821
0.857953 0.963179 0.186603
0.968958 0.965193 0.188385
0.029878 0.025416 0.233102
0.140400 0.027177 0.235094
0.250922 0.028937 0.237086
0.361444 0.030698 0.239078
0.471966 0.032459 0.241070
0.582488 0.034220 0.243062
0.693010 0.035980 0.245054
0.803532 0.037741 0.247046
0.914054 0.039502 0.249038
0.035832 0.140689 0.239837
0.146354 0.142449 0.241829
0.256876 0.144210 0.243821
0.367398 0.145971 0.245813
0.477920 0.147732 0.247805
0.588442 0.149492 0.249797
0.698964 0.151253 0.251789
0.809486 0.153014 0.253781
0.920008 0.154775 0.255773
0.041785 0.255961 0.246573
0.152307 0.257722 0.248565
0.262829 0.259483 0.250557
0.373351 0.261244 0.252549
0.483873 0.263004 0.254541
0.594395 0.264765 0.256533
0.704917 0.266526 0.258525
0.815440 0.268287 0.260517
0.925962 0.270048 0.262509
0.047739 0.371234 0.253309
0.158261 0.372995 0.255301
0.268783 0.374756 0.257293
0.379305 0.376516 0.259285
0.489827 0.378277 0.261277
0.600349 0.380038 0.263269
0.710871 0.381799 0.265261
0.821393 0.383560 0.267253
0.931915 0.385320 0.269245
0.053693 0.486507 0.260044
0.164215 0.488268 0.262036
0.274737 0.490028 0.264028
0.385259 0.491789 0.266020
0.495781 0.493550 0.268012
0.606354 0.495338 0.269982
0.717360 0.497351 0.271764
0.828366 0.499364 0.273547
0.939372 0.501378 0.275329
0.059647 0.601780 0.266780
0.170169 0.603540 0.268772
0.280926 0.605424 0.270662
0.391932 0.607438 0.272444
0.502938 0.609451 0.274226
0.613944 0.611465 0.276008
0.724950 0.613478 0.277791
0.835956 0.615492 0.279573
0.946962 0.617505 0.281355
0.066505 0.717525 0.273123
0.177511 0.719538 0.274906
0.288517 0.721552 0.276688
0.399523 0.723565 0.278470
0.510529 0.725579 0.280253
0.621534 0.727592 0.282035
0.732540 0.729605 0.283817
0.843546 0.731619 0.285599
0.954552 0.733632 0.287382
0.074095 0.833652 0.279150
0.185101 0.835665 0.280932
0.296107 0.837679 0.282714
0.407113 0.839692 0.284497
0.518119 0.841706 0.286279
0.629125 0.843719 0.288061
0.740131 0.845733 0.289843
0.851136 0.847746 0.291626
0.962142 0.849760 0.293408
0.081685 0.949779 0.285176
0.192691 0.951793 0.286959
0.303697 0.953806 0.288741
0.414703 0.955819 0.290523
0.525709 0.957833 0.292305
0.636715 0.959846 0.294088
0.747721 0.961860 0.295870
0.858727 0.963873 0.297652
0.969733 0.965887 0.299434
0.030485 0.026023 0.344223
0.141007 0.027784 0.346215
0.251529 0.029544 0.348207
0.362051 0.031305 0.350199
0.472573 0.033066 0.352191
0.583095 0.034827 0.354183
0.693617 0.036588 0.356175
0.804139 0.038348 0.358167
0.914661 0.040109 0.360159
0.036439 0.141296 0.350959
0.146961 0.143056 0.352951
0.257483 0.144817 0.354943
0.368005 0.146578 0.356935
0.478527 0.148339 0.358927
0.589049 0.150100 0.360919
0.699571 0.151860 0.362911
0.810093 0.153621 0.364903
0.920615 0.155382 0.366895
0.042392 0.256568 0.357694
0.152914 0.258329 0.359686
0.263437 0.260090 0.361678
0.373959 0.261851 0.363670
0.484481 0.263612 0.365662
0.595003 0.265372 0.367654
0.705525 0.267133 0.369646
0.816047 0.268894 0.371638
0.926569 0.270655 0.373630
0.048346 0.371841 0.364430
0.158868 0.373602 0.366422
0.269390 0.375363 0.368414
0.379912 0.377124 0.370406
0.490434 0.378884 0.372398
0.600956 0.380645 0.374390
0.711478 0.382406 0.376382
0.822000 0.384167 0.378374
0.932556 0.385945 0.380351
0.054300 0.487114 0.371166
0.164822 0.488875 0.373158
0.275344 0.490636 0.375150
0.385866 0.492396 0.377142
0.496388 0.494157 0.379134
0.607128 0.496032 0.381031
0.718134 0.498045 0.382813
0.829140 0.500059 0.384596
0.940146 0.502072 0.386378
0.060254 0.602387 0.377901
0.170776 0.604148 0.379893
0.281701 0.606119 0.381711
0.392706 0.608132 0.383493
0.503712 0.610146 0.385275
0.614718 0.612159 0.387057
0.725724 0.614173 0.388840
0.836730 0.616186 0.390622
0.947736 0.618200 0.392404
0.067279 0.718219 0.384173
0.178285 0.720232 0.385955
0.289291 0.722246 0.387737
0.400297 0.724259 0.389519
0.511303 0.726273 0.391302
0.622309 0.728286 0.393084
0.733314 0.730300 0.394866
0.844320 0.732313 0.396648
0.955326 0.734327 0.398431
0.074869 0.834346 0.390199
0.185875 0.836360 0.391981
0.296881 0.838373 0.393763
0.407887 0.840387 0.395546
0.518893 0.842400 0.397328
0.629899 0.844414 0.399110
0.740905 0.846427 0.400892
0.851911 0.848441 0.402675
0.962916 0.850454 0.404457
0.082459 0.950473 0.396225
0.193465 0.952487 0.398008
0.304471 0.954500 0.399790
0.415477 0.956514 0.401572
0.526483 0.958527 0.403354
0.637489 0.960541 0.405137
0.748495 0.962554 0.406919
0.859501 0.964568 0.408701
0.970507 0.966581 0.410483
0.031092 0.026630 0.455345
0.141614 0.028391 0.457337
0.252136 0.030152 0.459329
0.362658 0.031912 0.461321
0.473180 0.033673 0.463313
0.583702 0.035434 0.465305
0.694224 0.037195 0.467297
0.804746 0.038956 0.469289
0.915268 0.040716 0.471281
0.037046 0.141903 0.462080
0.147568 0.143664 0.464072
0.258090 0.145424 0.466064
0.368612 0.147185 0.468056
0.479134 0.148946 0.470048
0.589656 0.150707 0.472040
0.700178 0.152468 0.474032
0.810700 0.154228 0.476024
0.921222 0.155989 0.478016
0.043000 0.257176 0.468816
0.153522 0.258936 0.470808
0.264044 0.260697 0.472800
0.374566 0.262458 0.474792
0.485088 0.264219 0.476784
0.595610 0.265980 0.478776
0.706132 0.267740 0.480768
0.816654 0.269501 0.482760
0.927176 0.271262 0.484752
0.048953 0.372448 0.475551
0.159475 0.374209 0.477543
0.269997 0.375970 0.479535
0.380519 0.377731 0.481527
0.491042 0.379492 0.483519
0.601564 0.381252 0.485511
0.712086 0.383013 0.487503
0.822608 0.384774 0.489495
0.933330 0.386639 0.491401
0.054907 0.487721 0.482287
0.165429 0.489482 0.484279
0.275951 0.491243 0.486271
0.386473 0.493003 0.488263
0.496995 0.494764 0.490255
0.607902 0.496726 0.492080
0.718908 0.498740 0.493862
0.829914 0.500753 0.495645
0.940920 0.502767 0.497427
0.060861 0.602994 0.489023
0.171469 0.604799 0.490977
0.282475 0.606813 0.492760
0.393481 0.608826 0.494542
0.504487 0.610840 0.496324
0.615492 0.612853 0.498107
0.726498 0.614867 0.499889
0.837504 0.616880 0.501671
0.948510 0.618894 0.503453
0.068053 0.718913 0.495222
0.179059 0.720927 0.497004
0.290065 0.722940 0.498786
0.401071 0.724954 0.500568
0.512077 0.726967 0.502351
0.623083 0.728981 0.504133
0.734089 0.730994 0.505915
0.845094 0.733008 0.507697
0.956100 0.735021 0.509480
0.075643 0.835040 0.501248
0.186649 0.837054 0.503030
0.297655 0.839067 0.504813
0.408661 0.841081 0.506595
0.519667 0.843094 0.508377
0.630673 0.845108 0.510159
0.741679 0.847121 0.511942
0.852685 0.849135 0.513724
0.963691 0.851148 0.515506
0.083233 0.951168 0.507274
0.194239 0.953181 0.509057
0.305245 0.955195 0.510839
0.416251 0.957208 0.512621
0.527257 0.959222 0.514403
0.638263 0.961235 0.516186
0.749269 0.963249 0.517968
0.860275 0.965262 0.519750
0.971281 0.967276 0.521532
0.031699 0.027237 0.566466
0.142221 0.028998 0.568458
0.252743 0.030759 0.570450
0.363265 0.032520 0.572442
0.473787 0.034280 0.574434
0.584309 0.036041 0.576426
0.694831 0.037802 0.578418
0.805353 0.039563 0.580410
0.915876 0.041324 0.582402
0.037653 0.142510 0.573202
0.148175 0.144271 0.575194
0.258697 0.146032 0.577186
0.369219 0.147792 0.579178
0.479741 0.149553 0.581170
0.590263 0.151314 0.583162
0.700785 0.153075 0.585154
0.811307 0.154836 0.587146
0.921829 0.156596 0.589138
0.043607 0.257783 0.579937
0.154129 0.259544 0.581929
0.264651 0.261304 0.583921
0.375173 0.263065 0.585913
0.485695 0.264826 0.587905
0.596217 0.266587 0.589897
0.706739 0.268347 0.591889
0.817261 0.270108 0.593881
0.927783 0.271869 0.595873
0.049561 0.373056 0.586673
0.160083 0.374816 0.588665
0.270605 0.376577 0.590657
0.381127 0.378338 0.592649
0.491649 0.380099 0.594641
0.602171 0.381859 0.596633
0.712693 0.383620 0.598625
0.823215 0.385381 0.600617
0.934104 0.387334 0.602450
0.055514 0.488328 0.593408
0.166036 0.490089 0.595400
0.276558 0.491850 0.597392
0.387080 0.493611 0.599384
0.497670 0.495407 0.601347
0.608676 0.497420 0.603129
0.719682 0.499434 0.604911
0.830688 0.501447 0.606694
0.941694 0.503461 0.608476
0.061468 0.603601 0.600144
0.172243 0.605494 0.602027
0.283249 0.607507 0.603809
0.394255 0.609521 0.605591
0.505261 0.611534 0.607373
0.616267 0.613548 0.609156
0.727272 0.615561 0.610938
0.838278 0.617575 0.612720
0.949284 0.619588 0.614502
0.068827 0.719607 0.606271
0.179833 0.721621 0.608053
0.290839 0.723634 0.609835
0.401845 0.725648 0.611617
0.512851 0.727661 0.613400
0.623857 0.729675 0.615182
0.734863 0.731688 0.616964
0.845869 0.733702 0.618747
0.956874 0.735715 0.620529
0.076417 0.835735 0.612297
0.187423 0.837748 0.614079
0.298429 0.839762 0.615862
0.409435 0.841775 0.617644
0.520441 0.843789 0.619426
0.631447 0.845802 0.621208
0.742453 0.847816 0.622991
0.853459 0.849829 0.624773
0.964465 0.851843 0.626555
0.084007 0.951862 0.618323
0.195013 0.953875 0.620106
0.306019 0.955889 0.621888
0.417025 0.957902 0.623670
0.528031 0.959916 0.625453
0.639037 0.961929 0.627235
0.750043 0.963943 0.629017
0.861049 0.965956 0.630799
0.972055 0.967970 0.632582
0.032306 0.027844 0.677587
0.142828 0.029605 0.679579
0.253351 0.031366 0.681571
0.363873 0.033127 0.683563
0.474395 0.034888 0.685555
0.584917 0.036648 0.687547
0.695439 0.038409 0.689539
0.805961 0.040170 0.691531
0.916483 0.041931 0.693523
0.038260 0.143117 0.684323
0.148782 0.144878 0.686315
0.259304 0.146639 0.688307
0.369826 0.148400 0.690299
0.480348 0.150160 0.692291
0.590870 0.151921 0.694283
0.701392 0.153682 0.696275
0.811914 0.155443 0.698267
0.922436 0.157203 0.700259
0.044214 0.258390 0.691059
0.154736 0.260151 0.693051
0.265258 0.261912 0.695043
0.375780 0.263672 0.697035
0.486302 0.265433 0.699027
0.596824 0.267194 0.701019
0.707346 0.268955 0.703011
0.817868 0.270715 0.705003
0.928390 0.272476 0.706995
0.050168 0.373663 0.697794
0.160690 0.375424 0.699786
0.271212 0.377184 0.701778
0.381734 0.378945 0.703770
0.492256 0.380706 0.705762
0.602778 0.382467 0.707754
0.713300 0.384227 0.709746
0.823872 0.386015 0.711716
0.934878 0.388028 0.713499
0.056121 0.488935 0.704530
0.166644 0.490696 0.706522
0.277166 0.492457 0.708514
0.387688 0.494218 0.710506
0.498445 0.496101 0.712396
0.609450 0.498115 0.714178
0.720456 0.500128 0.715961
0.831462 0.502142 0.717743
0.942468 0.504155 0.719525
0.062075 0.604208 0.711265
0.173017 0.606188 0.713076
0.284023 0.608202 0.714858
0.395029 0.610215 0.716640
0.506035 0.612229 0.718422
0.617041 0.614242 0.720205
0.728047 0.616255 0.721987
0.839052 0.618269 0.723769
0.950058 0.620282 0.725551
0.069601 0.720302 0.717320
0.180607 0.722315 0.719102
0.291613 0.724329 0.720884
0.402619 0.726342 0.722667
0.513625 0.728356 0.724449
0.624631 0.730369 0.726231
0.735637 0.732383 0.728013
0.846643 0.734396 0.729796
0.957649 0.736410 0.731578
0.077191 0.836429 0.723346
0.188197 0.838443 0.725128
0.299203 0.840456 0.726911
0.410209 0.842469 0.728693
0.521215 0.844483 0.730475
0.632221 0.846496 0.732257
0.743227 0.848510 0.734040
0.854233 0.850523 0.735822
0.965239 0.852537 0.737604
0.084781 0.952556 0.729373
0.195787 0.954570 0.731155
0.306793 0.956583 0.732937
0.417799 0.958597 0.734719
0.528805 0.960610 0.736502
0.639811 0.962624 0.738284
0.750817 0.964637 0.740066
0.861823 0.966651 0.741848
0.972829 0.968664 0.743631
0.032914 0.028452 0.788709
0.143436 0.030212 0.790701
0.253958 0.031973 0.792693
0.364480 0.033734 0.794685
0.475002 0.035495 0.796677
0.585524 0.037256 0.798669
0.696046 0.039016 0.800661
0.806568 0.040777 0.802653
0.917090 0.042538 0.804645
0.038867 0.143724 0.795444
0.149389 0.145485 0.797436
0.259911 0.147246 0.799428
0.370433 0.149007 0.801420
0.480956 0.150768 0.803412
0.591478 0.152528 0.805404
0.702000 0.154289 0.807396
0.812522 0.156050 0.809388
0.923044 0.157811 0.811380
0.044821 0.258997 0.802180
0.155343 0.260758 0.804172
0.265865 0.262519 0.806164
0.376387 0.264279 0.808156
0.486909 0.266040 0.810148
0.597431 0.267801 0.812140
0.707953 0.269562 0.814132
0.818475 0.271323 0.816124
0.928997 0.273083 0.818116
0.050775 0.374270 0.808916
0.161297 0.376031 0.810908
0.271819 0.377791 0.812900
0.382341 0.379552 0.814892
0.492863 0.381313 0.816884
0.603385 0.383074 0.818876
0.713907 0.384835 0.820868
0.824646 0.386709 0.822766
0.935652 0.388722 0.824548
0.056729 0.489543 0.815651
0.167251 0.491303 0.817643
0.277773 0.493064 0.819635
0.388295 0.494825 0.821627
0.499219 0.496796 0.823445
0.610225 0.498809 0.825227
0.721230 0.500823 0.827010
0.832236 0.502836 0.828792
0.943242 0.504850 0.830574
0.062785 0.604869 0.822342
0.173791 0.606882 0.824125
0.284797 0.608896 0.825907
0.395803 0.610909 0.827689
0.506809 0.612923 0.829472
0.617815 0.614936 0.831254
0.728821 0.616950 0.833036
0.839827 0.618963 0.834818
0.950832 0.620977 0.836601
0.070375 0.720996 0.828369
0.181381 0.723010 0.830151
0.292387 0.725023 0.831933
0.403393 0.727037 0.833716
0.514399 0.729050 0.835498
0.625405 0.731064 0.837280
0.736411 0.733077 0.839062
0.847417 0.735091 0.840845
0.958423 0.737104 0.842627
0.077965 0.837123 0.834395
0.188971 0.839137 0.836177
0.299977 0.841150 0.837960
0.410983 0.843164 0.839742
0.521989 0.845177 0.841524
0.632995 0.847191 0.843307
0.744001 0.849204 0.845089
0.855007 0.851218 0.846871
0.966013 0.853231 0.848653
0.085555 0.953251 0.840422
0.196561 0.955264 0.842204
0.307567 0.957278 0.843986
0.418573 0.959291 0.845768
0.529579 0.961305 0.847551
0.640585 0.963318 0.849333
0.751591 0.965332 0.851115
0.862597 0.967345 0.852897
0.973603 0.969358 0.854680
0.033521 0.029059 0.899830
0.144043 0.030820 0.901822
0.254565 0.032580 0.903814
0.365087 0.034341 0.905806
0.475609 0.036102 0.907798
0.586131 0.037863 0.909790
0.696653 0.039623 0.911782
0.807175 0.041384 0.913774
0.917697 0.043145 0.915766
0.039475 0.144332 0.906566
0.149997 0.146092 0.908558
0.260519 0.147853 0.910550
0.371041 0.149614 0.912542
0.481563 0.151375 0.914534
0.592085 0.153135 0.916526
0.702607 0.154896 0.918518
0.813129 0.156657 0.920510
0.923651 0.158418 0.922502
0.045428 0.259604 0.913301
0.155950 0.261365 0.915293
0.266472 0.263126 0.917285
0.376994 0.264887 0.919277
0.487516 0.266647 0.921269
0.598038 0.268408 0.923261
0.708561 0.270169 0.925253
0.819083 0.271930 0.927245
0.929605 0.273691 0.929237
0.051382 0.374877 0.920037
0.161904 0.376638 0.922029
0.272426 0.378399 0.924021
0.382948 0.380159 0.926013
0.493470 0.381920 0.928005
0.603992 0.383681 0.929997
0.714514 0.385442 0.931989
0.825420 0.387403 0.933815
0.936426 0.389417 0.935597
0.057336 0.490150 0.926773
0.167858 0.491911 0.928765
0.278380 0.493671 0.930757
0.388987 0.495476 0.932712
0.499993 0.497490 0.934494
0.610999 0.499503 0.936276
0.722005 0.501517 0.938059
0.833010 0.503530 0.939841
0.944016 0.505544 0.941623
0.063559 0.605563 0.933392
0.174565 0.607577 0.935174
0.285571 0.609590 0.936956
0.396577 0.611604 0.938738
0.507583 0.613617 0.940521
0.618589 0.615631 0.942303
0.729595 0.617644 0.944085
0.840601 0.619658 0.945867
0.951607 0.621671 0.947650
0.071149 0.721690 0.939418
0.182155 0.723704 0.941200
0.293161 0.725717 0.942982
0.404167 0.727731 0.944765
0.515173 0.729744 0.946547
0.626179 0.731758 0.948329
0.737185 0.733771 0.950111
0.848191 0.735785 0.951894
0.959197 0.737798 0.953676
0.078739 0.837818 0.945444
0.189745 0.839831 0.947227
0.300751 0.841845 0.949009
0.411757 0.843858 0.950791
0.522763 0.845872 0.952573
0.633769 0.847885 0.954356
0.744775 0.849899 0.956138
0.855781 0.851912 0.957920
0.966787 0.853926 0.959702
0.086329 0.953945 0.951471
0.197335 0.955958 0.953253
0.308341 0.957972 0.955035
0.419347 0.959985 0.956817
0.530353 0.961999 0.958600
0.641359 0.964012 0.960382
0.752365 0.966026 0.962164
0.863371 0.968039 0.963947
0.974377 0.970053 0.965729
