assets/luts/generated_genre/bs_fantasy_painterly_emerald_694205e790f21abd.cube
# V4 spec-generated LUT — bs_fantasy_painterly_emerald
# Genre: fantasy
# Look: Painterly storybook fantasy — emerald shadows, warm highlights, mythic. Lesnie/LOTR, Bazelli/Lone Ra
# Spec hash: 694205e790f21abd
TITLE "V4 Spec LUT — bs_fantasy_painterly_emerald"
LUT_3D_SIZE 5
DOMAIN_MIN 0.0 0.0 0.0
DOMAIN_MAX 1.0 1.0 1.0
0.022514 0.052678 0.020546
0.278741 0.049532 0.017399
0.527011 0.046483 0.014351
0.771760 0.043477 0.011345
1.000000 0.040500 0.008368
0.019287 0.299279 0.009961
0.275513 0.296132 0.006814
0.523783 0.293084 0.003765
0.768532 0.290078 0.000760
1.000000 0.287101 0.000000
0.016159 0.538222 0.000000
0.272386 0.535075 0.000000
0.520656 0.532026 0.000000
0.765685 0.529605 0.000000
1.000000 0.527620 0.000000
0.013501 0.774664 0.000000
0.270230 0.772566 0.000000
0.518986 0.770534 0.000000
0.764215 0.768530 0.000000
1.000000 0.766545 0.000000
0.012045 1.000000 0.000000
0.268774 1.000000 0.000000
0.517530 1.000000 0.000000
0.762759 1.000000 0.000000
1.000000 1.000000 0.000000
0.022184 0.051596 0.279992
0.278411 0.048449 0.276846
0.526681 0.045400 0.273797
0.771430 0.042395 0.270791
1.000000 0.039417 0.267814
0.018957 0.298197 0.269407
0.275183 0.295050 0.266260
0.523453 0.292001 0.263211
0.768202 0.288995 0.260206
1.000000 0.286018 0.257229
0.015829 0.537139 0.259150
0.272056 0.533993 0.256004
0.520326 0.530944 0.252955
0.765527 0.528883 0.250402
1.000000 0.526899 0.247900
0.013344 0.773943 0.249637
0.270072 0.771845 0.246992
0.518829 0.769812 0.244430
0.764058 0.767809 0.241904
1.000000 0.765824 0.239402
0.011888 1.000000 0.241219
0.268617 1.000000 0.238575
0.517373 1.000000 0.236013
0.762602 1.000000 0.233487
1.000000 1.000000 0.230984
0.021865 0.050549 0.530838
0.278092 0.047403 0.527692
0.526362 0.044354 0.524643
0.771111 0.041348 0.521637
1.000000 0.038371 0.518660
0.018638 0.297150 0.520253
0.274864 0.294003 0.517106
0.523134 0.290954 0.514058
0.767883 0.287949 0.511052
1.000000 0.284972 0.508075
0.015510 0.536093 0.509996
0.271737 0.532946 0.506850
0.520146 0.530189 0.503941
0.765375 0.528186 0.501415
1.000000 0.526201 0.498913
0.013192 0.773245 0.500650
0.269920 0.771147 0.498005
0.518677 0.769115 0.495443
0.763906 0.767111 0.492917
1.000000 0.765126 0.490415
0.011736 1.000000 0.492233
0.268465 1.000000 0.489588
0.517221 1.000000 0.487026
0.762450 1.000000 0.484500
1.000000 1.000000 0.481998
0.021551 0.049518 0.778050
0.277777 0.046371 0.774903
0.526047 0.043322 0.771854
0.770796 0.040317 0.768849
1.000000 0.037339 0.765871
0.018323 0.296118 0.767464
0.274550 0.292972 0.764318
0.522819 0.289923 0.761269
0.767569 0.286917 0.758263
1.000000 0.283940 0.755286
0.015196 0.535061 0.757208
0.271422 0.531915 0.754061
0.519996 0.529502 0.751317
0.765225 0.527498 0.748791
1.000000 0.525513 0.746289
0.013042 0.772557 0.748026
0.269770 0.770460 0.745381
0.518527 0.768427 0.742819
0.763756 0.766423 0.740293
1.000000 0.764438 0.737791
0.011586 1.000000 0.739608
0.268315 1.000000 0.736964
0.517071 1.000000 0.734402
0.762300 1.000000 0.731876
1.000000 1.000000 0.729373
0.021239 0.048496 1.000000
0.277466 0.045350 1.000000
0.525736 0.042301 1.000000
0.770485 0.039295 1.000000
1.000000 0.036318 1.000000
0.018012 0.295097 1.000000
0.274238 0.291950 1.000000
0.522508 0.288901 1.000000
0.767257 0.285896 1.000000
1.000000 0.282919 1.000000
0.014884 0.534040 1.000000
0.271111 0.530893 0.998904
0.519848 0.528821 0.996322
0.765077 0.526817 0.993796
1.000000 0.524832 0.991294
0.012893 0.771876 0.993031
0.269622 0.769778 0.990387
0.518378 0.767746 0.987825
0.763607 0.765742 0.985299
1.000000 0.763757 0.982797
0.011437 1.000000 0.984614
0.268166 1.000000 0.981970
0.516922 1.000000 0.979407
0.762151 1.000000 0.976881
1.000000 1.000000 0.974379
