assets/luts/generated_genre/bs_fantasy_painterly_emerald_694205e790f21abd.cube
# V4 spec-generated LUT — bs_fantasy_painterly_emerald
# Genre: fantasy
# Look: Painterly storybook fantasy — emerald shadows, warm highlights, mythic. Lesnie/LOTR, Bazelli/Lone Ra
# Spec hash: 694205e790f21abd
TITLE "V4 Spec LUT — bs_fantasy_painterly_emerald"
LUT_3D_SIZE 17
DOMAIN_MIN 0.0 0.0 0.0
DOMAIN_MAX 1.0 1.0 1.0
0.022514 0.052678 0.020546
0.088126 0.051873 0.019740
0.152354 0.051084 0.018952
0.215815 0.050304 0.018172
0.278741 0.049532 0.017399
0.341258 0.048764 0.016632
0.403442 0.048000 0.015868
0.465347 0.047240 0.015108
0.527011 0.046483 0.014351
0.588463 0.045728 0.013596
0.649727 0.044976 0.012844
0.710821 0.044226 0.012093
0.771760 0.043477 0.011345
0.832557 0.042731 0.010598
0.893223 0.041986 0.009853
0.953767 0.041242 0.009110
1.000000 0.040500 0.008368
0.021688 0.115825 0.017835
0.087300 0.115019 0.017030
0.151527 0.114230 0.016241
0.214988 0.113451 0.015462
0.277915 0.112678 0.014689
0.340431 0.111911 0.013921
0.402615 0.111147 0.013157
0.464520 0.110387 0.012397
0.526184 0.109630 0.011640
0.587637 0.108875 0.010885
0.648901 0.108123 0.010133
0.709995 0.107372 0.009383
0.770934 0.106624 0.008634
0.831731 0.105877 0.007888
0.892396 0.105132 0.007143
0.952940 0.104389 0.006399
1.000000 0.103647 0.005657
0.020879 0.177640 0.015182
0.086490 0.176834 0.014376
0.150718 0.176045 0.013588
0.214179 0.175266 0.012808
0.277105 0.174493 0.012035
0.339622 0.173726 0.011268
0.401806 0.172962 0.010504
0.463711 0.172202 0.009744
0.525375 0.171444 0.008987
0.586828 0.170690 0.008232
0.648092 0.169937 0.007480
0.709186 0.169187 0.006729
0.770125 0.168439 0.005981
0.830922 0.167692 0.005234
0.891587 0.166947 0.004489
0.952131 0.166204 0.003746
1.000000 0.165462 0.003004
0.020079 0.238716 0.012560
0.085691 0.237911 0.011755
0.149919 0.237122 0.010966
0.213380 0.236343 0.010187
0.276306 0.235570 0.009414
0.338823 0.234802 0.008646
0.401007 0.234039 0.007882
0.462912 0.233278 0.007122
0.524576 0.232521 0.006365
0.586028 0.231766 0.005610
0.647292 0.231014 0.004858
0.708386 0.230264 0.004108
0.769325 0.229515 0.003359
0.830122 0.228769 0.002613
0.890788 0.228024 0.001868
0.951332 0.227280 0.001124
1.000000 0.226538 0.000382
0.019287 0.299279 0.009961
0.084898 0.298473 0.009155
0.149126 0.297685 0.008366
0.212587 0.296905 0.007587
0.275513 0.296132 0.006814
0.338030 0.295365 0.006046
0.400214 0.294601 0.005283
0.462119 0.293841 0.004522
0.523783 0.293084 0.003765
0.585236 0.292329 0.003011
0.646500 0.291577 0.002258
0.707593 0.290826 0.001508
0.768532 0.290078 0.000760
0.829329 0.289331 0.000013
0.889995 0.288586 0.000000
0.950539 0.287843 0.000000
1.000000 0.287101 0.000000
0.018499 0.359447 0.007378
0.084111 0.358641 0.006572
0.148339 0.357853 0.005783
0.211799 0.357073 0.005004
0.274726 0.356300 0.004231
0.337242 0.355533 0.003464
0.399427 0.354769 0.002700
0.461332 0.354009 0.001940
0.522996 0.353252 0.001183
0.584448 0.352497 0.000428
0.645712 0.351745 0.000000
0.706806 0.350994 0.000000
0.767745 0.350246 0.000000
0.828542 0.349499 0.000000
0.889208 0.348754 0.000000
0.949752 0.348011 0.000000
1.000000 0.347269 0.000000
0.017716 0.419295 0.004809
0.083327 0.418489 0.004003
0.147555 0.417701 0.003215
0.211016 0.416921 0.002435
0.273942 0.416149 0.001662
0.336459 0.415381 0.000895
0.398643 0.414617 0.000131
0.460548 0.413857 0.000000
0.522212 0.413100 0.000000
0.583665 0.412345 0.000000
0.644929 0.411593 0.000000
0.706023 0.410842 0.000000
0.766962 0.410094 0.000000
0.827759 0.409347 0.000000
0.888424 0.408602 0.000000
0.948968 0.407859 0.000000
1.000000 0.407117 0.000000
0.016936 0.478874 0.002252
0.082548 0.478069 0.001446
0.146775 0.477280 0.000657
0.210236 0.476501 0.000000
0.273163 0.475728 0.000000
0.335679 0.474960 0.000000
0.397863 0.474196 0.000000
0.459768 0.473436 0.000000
0.521432 0.472679 0.000000
0.582885 0.471924 0.000000
0.644149 0.471172 0.000000
0.705243 0.470422 0.000000
0.766182 0.469673 0.000000
0.826979 0.468927 0.000000
0.887756 0.468414 0.000000
0.948418 0.467918 0.000000
1.000000 0.467424 0.000000
0.016159 0.538222 0.000000
0.081771 0.537416 0.000000
0.145999 0.536627 0.000000
0.209459 0.535848 0.000000
0.272386 0.535075 0.000000
0.334902 0.534308 0.000000
0.397087 0.533544 0.000000
0.458992 0.532784 0.000000
0.520656 0.532026 0.000000
0.582108 0.531272 0.000000
0.643413 0.530604 0.000000
0.704626 0.530104 0.000000
0.765685 0.529605 0.000000
0.826601 0.529107 0.000000
0.887385 0.528611 0.000000
0.948048 0.528115 0.000000
1.000000 0.527620 0.000000
0.015385 0.597366 0.000000
0.080997 0.596560 0.000000
0.145224 0.595771 0.000000
0.208685 0.594992 0.000000
0.271612 0.594219 0.000000
0.334128 0.593451 0.000000
0.396313 0.592688 0.000000
0.458302 0.592104 0.000000
0.520087 0.591599 0.000000
0.581660 0.591096 0.000000
0.643044 0.590594 0.000000
0.704257 0.590094 0.000000
0.765316 0.589595 0.000000
0.826232 0.589097 0.000000
0.887016 0.588601 0.000000
0.947679 0.588105 0.000000
1.000000 0.587610 0.000000
0.014613 0.656328 0.000000
0.080225 0.655522 0.000000
0.144453 0.654734 0.000000
0.207913 0.653954 0.000000
0.270963 0.653438 0.000000
0.333602 0.652926 0.000000
0.395908 0.652417 0.000000
0.457934 0.651910 0.000000
0.519719 0.651405 0.000000
0.581292 0.650902 0.000000
0.642676 0.650400 0.000000
0.703889 0.649900 0.000000
0.764948 0.649401 0.000000
0.825864 0.648904 0.000000
0.886649 0.648407 0.000000
0.947311 0.647911 0.000000
1.000000 0.647416 0.000000
0.013867 0.715175 0.000000
0.079607 0.714638 0.000000
0.143961 0.714112 0.000000
0.207546 0.713593 0.000000
0.270596 0.713078 0.000000
0.333235 0.712566 0.000000
0.395541 0.712057 0.000000
0.457567 0.711550 0.000000
0.519352 0.711045 0.000000
0.580925 0.710542 0.000000
0.642309 0.710040 0.000000
0.703522 0.709540 0.000000
0.764581 0.709041 0.000000
0.825497 0.708544 0.000000
0.886282 0.708047 0.000000
0.946944 0.707551 0.000000
1.000000 0.707057 0.000000
0.013501 0.774664 0.000000
0.079241 0.774127 0.000000
0.143595 0.773601 0.000000
0.207180 0.773082 0.000000
0.270230 0.772566 0.000000
0.332869 0.772055 0.000000
0.395175 0.771546 0.000000
0.457201 0.771039 0.000000
0.518986 0.770534 0.000000
0.580559 0.770031 0.000000
0.641943 0.769529 0.000000
0.703157 0.769029 0.000000
0.764215 0.768530 0.000000
0.825131 0.768032 0.000000
0.885916 0.767536 0.000000
0.946578 0.767040 0.000000
1.000000 0.766545 0.000000
0.013136 0.834014 0.000000
0.078876 0.833477 0.000000
0.143230 0.832951 0.000000
0.206815 0.832432 0.000000
0.269865 0.831917 0.000000
0.332504 0.831405 0.000000
0.394810 0.830896 0.000000
0.456836 0.830389 0.000000
0.518621 0.829884 0.000000
0.580194 0.829381 0.000000
0.641578 0.828880 0.000000
0.702791 0.828379 0.000000
0.763850 0.827880 0.000000
0.824766 0.827383 0.000000
0.885551 0.826886 0.000000
0.946213 0.826390 0.000000
1.000000 0.825896 0.000000
0.012772 0.893237 0.000000
0.078512 0.892699 0.000000
0.142865 0.892174 0.000000
0.206451 0.891654 0.000000
0.269500 0.891139 0.000000
0.332140 0.890627 0.000000
0.394446 0.890118 0.000000
0.456472 0.889611 0.000000
0.518257 0.889106 0.000000
0.579830 0.888603 0.000000
0.641214 0.888102 0.000000
0.702427 0.887602 0.000000
0.763486 0.887103 0.000000
0.824402 0.886605 0.000000
0.885186 0.886108 0.000000
0.945849 0.885613 0.000000
1.000000 0.885118 0.000000
0.012408 0.952340 0.000000
0.078148 0.951803 0.000000
0.142502 0.951277 0.000000
0.206087 0.950757 0.000000
0.269137 0.950242 0.000000
0.331776 0.949730 0.000000
0.394082 0.949221 0.000000
0.456108 0.948714 0.000000
0.517893 0.948210 0.000000
0.579466 0.947706 0.000000
0.640850 0.947205 0.000000
0.702064 0.946705 0.000000
0.763122 0.946206 0.000000
0.824038 0.945708 0.000000
0.884823 0.945211 0.000000
0.945486 0.944716 0.000000
1.000000 0.944221 0.000000
0.012045 1.000000 0.000000
0.077785 1.000000 0.000000
0.142139 1.000000 0.000000
0.205724 1.000000 0.000000
0.268774 1.000000 0.000000
0.331413 1.000000 0.000000
0.393719 1.000000 0.000000
0.455745 1.000000 0.000000
0.517530 1.000000 0.000000
0.579103 1.000000 0.000000
0.640487 1.000000 0.000000
0.701701 1.000000 0.000000
0.762759 1.000000 0.000000
0.823675 1.000000 0.000000
0.884460 1.000000 0.000000
0.945123 1.000000 0.000000
1.000000 1.000000 0.000000
0.022430 0.052400 0.087192
0.088041 0.051594 0.086386
0.152269 0.050806 0.085597
0.215730 0.050026 0.084818
0.278656 0.049254 0.084045
0.341173 0.048486 0.083277
0.403357 0.047722 0.082514
0.465262 0.046962 0.081753
0.526926 0.046205 0.080996
0.588379 0.045450 0.080241
0.649642 0.044698 0.079489
0.710736 0.043947 0.078739
0.771675 0.043199 0.077990
0.832472 0.042452 0.077244
0.893138 0.041707 0.076499
0.953682 0.040964 0.075755
1.000000 0.040222 0.075013
0.021603 0.115547 0.084481
0.087215 0.114741 0.083675
0.151443 0.113952 0.082886
0.214903 0.113173 0.082107
0.277830 0.112400 0.081334
0.340346 0.111633 0.080567
0.402531 0.110869 0.079803
0.464436 0.110109 0.079043
0.526100 0.109351 0.078286
0.587552 0.108597 0.077531
0.648816 0.107844 0.076778
0.709910 0.107094 0.076028
0.770849 0.106346 0.075280
0.831646 0.105599 0.074533
0.892312 0.104854 0.073788
0.952856 0.104111 0.073045
1.000000 0.103369 0.072303
0.020794 0.177362 0.081828
0.086406 0.176556 0.081022
0.150633 0.175767 0.080233
0.214094 0.174988 0.079454
0.277021 0.174215 0.078681
0.339537 0.173447 0.077913
0.401722 0.172684 0.077150
0.463626 0.171924 0.076389
0.525290 0.171166 0.075632
0.586743 0.170412 0.074877
0.648007 0.169659 0.074125
0.709101 0.168909 0.073375
0.770040 0.168161 0.072626
0.830837 0.167414 0.071880
0.891503 0.166669 0.071135
0.952047 0.165926 0.070391
1.000000 0.165183 0.069649
0.019995 0.238438 0.079206
0.085606 0.237633 0.078400
0.149834 0.236844 0.077611
0.213295 0.236065 0.076832
0.276221 0.235292 0.076059
0.338738 0.234524 0.075292
0.400922 0.233760 0.074528
0.462827 0.233000 0.073768
0.524491 0.232243 0.073010
0.585944 0.231488 0.072256
0.647207 0.230736 0.071503
0.708301 0.229986 0.070753
0.769240 0.229237 0.070005
0.830037 0.228491 0.069258
0.890703 0.227746 0.068513
0.951247 0.227002 0.067770
1.000000 0.226260 0.067028
0.019202 0.299001 0.076606
0.084814 0.298195 0.075800
0.149041 0.297406 0.075012
0.212502 0.296627 0.074232
0.275429 0.295854 0.073460
0.337945 0.295087 0.072692
0.400129 0.294323 0.071928
0.462034 0.293563 0.071168
0.523698 0.292805 0.070411
0.585151 0.292051 0.069656
0.646415 0.291298 0.068904
0.707509 0.290548 0.068153
0.768448 0.289800 0.067405
0.829245 0.289053 0.066659
0.889910 0.288308 0.065914
0.950454 0.287565 0.065170
1.000000 0.286823 0.064428
0.018414 0.359169 0.074024
0.084026 0.358363 0.073218
0.148254 0.357574 0.072429
0.211715 0.356795 0.071650
0.274641 0.356022 0.070877
0.337158 0.355255 0.070109
0.399342 0.354491 0.069346
0.461247 0.353731 0.068585
0.522911 0.352973 0.067828
0.584363 0.352219 0.067073
0.645627 0.351466 0.066321
0.706721 0.350716 0.065571
0.767660 0.349968 0.064822
0.828457 0.349221 0.064076
0.889123 0.348476 0.063331
0.949667 0.347733 0.062587
1.000000 0.346991 0.061845
0.017631 0.419017 0.071455
0.083243 0.418211 0.070649
0.147470 0.417423 0.069860
0.210931 0.416643 0.069081
0.273858 0.415870 0.068308
0.336374 0.415103 0.067540
0.398559 0.414339 0.066777
0.460463 0.413579 0.066016
0.522127 0.412822 0.065259
0.583580 0.412067 0.064504
0.644844 0.411315 0.063752
0.705938 0.410564 0.063002
0.766877 0.409816 0.062253
0.827674 0.409069 0.061507
0.888340 0.408324 0.060762
0.948884 0.407581 0.060018
1.000000 0.406839 0.059276
0.016851 0.478596 0.068897
0.082463 0.477791 0.068091
0.146691 0.477002 0.067303
0.210151 0.476223 0.066523
0.273078 0.475450 0.065751
0.335594 0.474682 0.064983
0.397779 0.473918 0.064219
0.459684 0.473158 0.063459
0.521348 0.472401 0.062702
0.582800 0.471646 0.061947
0.644064 0.470894 0.061195
0.705158 0.470144 0.060444
0.766097 0.469395 0.059696
0.826931 0.468725 0.058986
0.887715 0.468229 0.058360
0.948378 0.467733 0.057735
1.000000 0.467238 0.057111
0.016074 0.537944 0.066350
0.081686 0.537138 0.065544
0.145914 0.536349 0.064755
0.209375 0.535570 0.063976
0.272301 0.534797 0.063203
0.334818 0.534029 0.062435
0.397002 0.533266 0.061672
0.458907 0.532506 0.060911
0.520571 0.531748 0.060154
0.582023 0.530994 0.059399
0.643372 0.530419 0.058732
0.704586 0.529919 0.058102
0.765644 0.529420 0.057473
0.826560 0.528922 0.056845
0.887345 0.528425 0.056219
0.948008 0.527930 0.055594
1.000000 0.527435 0.054970
0.015300 0.597088 0.063811
0.080912 0.596282 0.063005
0.145140 0.595493 0.062216
0.208600 0.594714 0.061437
0.271527 0.593941 0.060664
0.334044 0.593173 0.059897
0.396235 0.592425 0.059140
0.458261 0.591918 0.058501
0.520046 0.591414 0.057865
0.581619 0.590910 0.057231
0.643003 0.590409 0.056598
0.704217 0.589909 0.055968
0.765275 0.589410 0.055339
0.826191 0.588912 0.054712
0.886976 0.588415 0.054085
0.947639 0.587920 0.053461
1.000000 0.587425 0.052837
0.014529 0.656050 0.061280
0.080140 0.655244 0.060474
0.144368 0.654456 0.059685
0.207872 0.653767 0.058950
0.270922 0.653252 0.058300
0.333561 0.652740 0.057655
0.395867 0.652231 0.057013
0.457894 0.651724 0.056374
0.519678 0.651220 0.055738
0.581251 0.650717 0.055104
0.642635 0.650215 0.054471
0.703849 0.649715 0.053841
0.764907 0.649216 0.053212
0.825824 0.648718 0.052584
0.886608 0.648221 0.051958
0.947271 0.647726 0.051333
1.000000 0.647231 0.050710
0.013827 0.714990 0.058824
0.079567 0.714453 0.058146
0.143920 0.713927 0.057484
0.207505 0.713407 0.056829
0.270555 0.712892 0.056179
0.333194 0.712380 0.055534
0.395500 0.711871 0.054892
0.457527 0.711364 0.054253
0.519312 0.710860 0.053617
0.580884 0.710357 0.052983
0.642268 0.709855 0.052350
0.703482 0.709355 0.051720
0.764540 0.708856 0.051091
0.825457 0.708358 0.050463
0.886241 0.707862 0.049837
0.946904 0.707366 0.049212
1.000000 0.706871 0.048589
0.013461 0.774479 0.056708
0.079201 0.773942 0.056031
0.143554 0.773416 0.055368
0.207139 0.772896 0.054713
0.270189 0.772381 0.054063
0.332828 0.771869 0.053418
0.395135 0.771360 0.052776
0.457161 0.770853 0.052137
0.518946 0.770349 0.051501
0.580519 0.769845 0.050867
0.641903 0.769344 0.050234
0.703116 0.768844 0.049604
0.764175 0.768345 0.048975
0.825091 0.767847 0.048347
0.885875 0.767350 0.047721
0.946538 0.766855 0.047096
1.000000 0.766360 0.046473
0.013096 0.833829 0.054597
0.078836 0.833292 0.053920
0.143189 0.832766 0.053257
0.206774 0.832247 0.052602
0.269824 0.831731 0.051952
0.332463 0.831220 0.051307
0.394769 0.830710 0.050665
0.456796 0.830204 0.050027
0.518581 0.829699 0.049390
0.580153 0.829196 0.048756
0.641537 0.828694 0.048124
0.702751 0.828194 0.047493
0.763810 0.827695 0.046864
0.824726 0.827197 0.046237
0.885510 0.826701 0.045610
0.946173 0.826205 0.044986
1.000000 0.825710 0.044362
0.012731 0.893051 0.052491
0.078471 0.892514 0.051813
0.142825 0.891988 0.051151
0.206410 0.891469 0.050496
0.269460 0.890954 0.049846
0.332099 0.890442 0.049201
0.394405 0.889933 0.048559
0.456431 0.889426 0.047920
0.518216 0.888921 0.047284
0.579789 0.888418 0.046650
0.641173 0.887916 0.046017
0.702387 0.887416 0.045387
0.763445 0.886917 0.044758
0.824361 0.886420 0.044130
0.885146 0.885923 0.043504
0.945809 0.885427 0.042879
1.000000 0.884932 0.042256
0.012368 0.952154 0.050389
0.078108 0.951617 0.049711
0.142462 0.951091 0.049048
0.206047 0.950572 0.048394
0.269096 0.950057 0.047744
0.331736 0.949545 0.047099
0.394042 0.949036 0.046457
0.456068 0.948529 0.045818
0.517853 0.948024 0.045182
0.579426 0.947521 0.044547
0.640810 0.947020 0.043915
0.702023 0.946519 0.043285
0.763082 0.946020 0.042656
0.823998 0.945523 0.042028
0.884783 0.945026 0.041402
0.945445 0.944530 0.040777
1.000000 0.944036 0.040154
0.012005 1.000000 0.048290
0.077745 1.000000 0.047613
0.142099 1.000000 0.046950
0.205684 1.000000 0.046295
0.268734 1.000000 0.045646
0.331373 1.000000 0.045001
0.393679 1.000000 0.044359
0.455705 1.000000 0.043720
0.517490 1.000000 0.043084
0.579063 1.000000 0.042449
0.640447 1.000000 0.041817
0.701660 1.000000 0.041187
0.762719 1.000000 0.040558
0.823635 1.000000 0.039930
0.884420 1.000000 0.039304
0.945082 1.000000 0.038679
1.000000 1.000000 0.038055
0.022347 0.052129 0.152205
0.087959 0.051323 0.151399
0.152186 0.050534 0.150611
0.215647 0.049755 0.149831
0.278574 0.048982 0.149059
0.341090 0.048215 0.148291
0.403274 0.047451 0.147527
0.465179 0.046691 0.146767
0.526843 0.045933 0.146010
0.588296 0.045179 0.145255
0.649560 0.044426 0.144503
0.710654 0.043676 0.143752
0.771593 0.042928 0.143004
0.832390 0.042181 0.142258
0.893055 0.041436 0.141513
0.953599 0.040693 0.140769
1.000000 0.039951 0.140027
0.021520 0.115276 0.149495
0.087132 0.114470 0.148689
0.151360 0.113681 0.147900
0.214821 0.112902 0.147121
0.277747 0.112129 0.146348
0.340264 0.111361 0.145580
0.402448 0.110598 0.144817
0.464353 0.109837 0.144056
0.526017 0.109080 0.143299
0.587469 0.108326 0.142545
0.648733 0.107573 0.141792
0.709827 0.106823 0.141042
0.770766 0.106075 0.140294
0.831563 0.105328 0.139547
0.892229 0.104583 0.138802
0.952773 0.103839 0.138058
1.000000 0.103097 0.137316
0.020711 0.177091 0.146841
0.086323 0.176285 0.146036
0.150551 0.175496 0.145247
0.214011 0.174717 0.144467
0.276938 0.173944 0.143695
0.339455 0.173176 0.142927
0.401639 0.172413 0.142163
0.463544 0.171652 0.141403
0.525208 0.170895 0.140646
0.586660 0.170140 0.139891
0.647924 0.169388 0.139139
0.709018 0.168638 0.138389
0.769957 0.167889 0.137640
0.830754 0.167143 0.136894
0.891420 0.166398 0.136149
0.951964 0.165654 0.135405
1.000000 0.164912 0.134663
0.019912 0.238167 0.144220
0.085524 0.237361 0.143414
0.149751 0.236573 0.142625
0.213212 0.235793 0.141846
0.276139 0.235021 0.141073
0.338655 0.234253 0.140305
0.400839 0.233489 0.139542
0.462744 0.232729 0.138781
0.524408 0.231972 0.138024
0.585861 0.231217 0.137269
0.647125 0.230465 0.136517
0.708219 0.229714 0.135767
0.769158 0.228966 0.135018
0.829955 0.228219 0.134272
0.890620 0.227474 0.133527
0.951164 0.226731 0.132783
1.000000 0.225989 0.132041
0.019119 0.298730 0.141620
0.084731 0.297924 0.140814
0.148959 0.297135 0.140025
0.212419 0.296356 0.139246
0.275346 0.295583 0.138473
0.337862 0.294815 0.137706
0.400047 0.294052 0.136942
0.461952 0.293291 0.136182
0.523616 0.292534 0.135424
0.585068 0.291780 0.134670
0.646332 0.291027 0.133917
0.707426 0.290277 0.133167
0.768365 0.289529 0.132419
0.829162 0.288782 0.131672
0.889828 0.288037 0.130927
0.950372 0.287293 0.130184
1.000000 0.286551 0.129442
0.018332 0.358898 0.139037
0.083943 0.358092 0.138231
0.148171 0.357303 0.137443
0.211632 0.356524 0.136663
0.274558 0.355751 0.135891
0.337075 0.354983 0.135123
0.399259 0.354220 0.134359
0.461164 0.353460 0.133599
0.522828 0.352702 0.132842
0.584281 0.351948 0.132087
0.645544 0.351195 0.131335
0.706638 0.350445 0.130584
0.767577 0.349697 0.129836
0.828374 0.348950 0.129089
0.889040 0.348205 0.128344
0.949584 0.347461 0.127601
1.000000 0.346719 0.126859
0.017548 0.418746 0.136468
0.083160 0.417940 0.135662
0.147388 0.417151 0.134874
0.210848 0.416372 0.134094
0.273775 0.415599 0.133322
0.336292 0.414832 0.132554
0.398476 0.414068 0.131790
0.460381 0.413308 0.131030
0.522045 0.412550 0.130273
0.583497 0.411796 0.129518
0.644761 0.411043 0.128766
0.705855 0.410293 0.128015
0.766794 0.409545 0.127267
0.827591 0.408798 0.126521
0.888257 0.408053 0.125776
0.948801 0.407310 0.125032
1.000000 0.406626 0.124318
0.016769 0.478325 0.133911
0.082380 0.477519 0.133105
0.146608 0.476731 0.132316
0.210069 0.475951 0.131537
0.272995 0.475178 0.130764
0.335512 0.474411 0.129996
0.397696 0.473647 0.129233
0.459601 0.472887 0.128473
0.521265 0.472130 0.127715
0.582717 0.471375 0.126961
0.643981 0.470623 0.126208
0.705075 0.469872 0.125458
0.766014 0.469124 0.124710
0.826891 0.468544 0.124043
0.887676 0.468048 0.123417
0.948339 0.467552 0.122792
1.000000 0.467057 0.122168
0.015992 0.537673 0.131363
0.081603 0.536867 0.130558
0.145831 0.536078 0.129769
0.209292 0.535299 0.128989
0.272218 0.534526 0.128217
0.334735 0.533758 0.127449
0.396919 0.532995 0.126685
0.458824 0.532234 0.125925
0.520488 0.531477 0.125168
0.581949 0.530739 0.124421
0.643333 0.530238 0.123789
0.704546 0.529738 0.123159
0.765605 0.529239 0.122530
0.826521 0.528741 0.121902
0.887306 0.528244 0.121276
0.947968 0.527749 0.120651
1.000000 0.527254 0.120027
0.015218 0.596816 0.128825
0.080829 0.596011 0.128019
0.145057 0.595222 0.127230
0.208518 0.594443 0.126451
0.271444 0.593670 0.125678
0.333961 0.592902 0.124910
0.396196 0.592244 0.124197
0.458222 0.591738 0.123558
0.520007 0.591233 0.122922
0.581580 0.590730 0.122288
0.642964 0.590228 0.121655
0.704177 0.589728 0.121025
0.765236 0.589229 0.120396
0.826152 0.588731 0.119768
0.886937 0.588235 0.119142
0.947599 0.587739 0.118518
1.000000 0.587244 0.117894
0.014446 0.655779 0.126294
0.080057 0.654973 0.125488
0.144285 0.654184 0.124699
0.207833 0.653586 0.124007
0.270883 0.653071 0.123357
0.333522 0.652560 0.122712
0.395828 0.652050 0.122070
0.457854 0.651544 0.121431
0.519639 0.651039 0.120795
0.581212 0.650536 0.120161
0.642596 0.650034 0.119528
0.703809 0.649534 0.118898
0.764868 0.649035 0.118269
0.825784 0.648537 0.117641
0.886569 0.648041 0.117015
0.947231 0.647545 0.116390
1.000000 0.647050 0.115767
0.013787 0.714809 0.123881
0.079527 0.714272 0.123203
0.143881 0.713746 0.122540
0.207466 0.713227 0.121886
0.270516 0.712711 0.121236
0.333155 0.712200 0.120591
0.395461 0.711690 0.119949
0.457487 0.711184 0.119310
0.519272 0.710679 0.118674
0.580845 0.710176 0.118039
0.642229 0.709674 0.117407
0.703443 0.709174 0.116777
0.764501 0.708675 0.116148
0.825417 0.708177 0.115520
0.886202 0.707681 0.114894
0.946864 0.707185 0.114269
1.000000 0.706690 0.113646
0.013421 0.774298 0.121765
0.079161 0.773761 0.121088
0.143515 0.773235 0.120425
0.207100 0.772715 0.119770
0.270150 0.772200 0.119120
0.332789 0.771688 0.118475
0.395095 0.771179 0.117833
0.457121 0.770673 0.117194
0.518906 0.770168 0.116558
0.580479 0.769665 0.115924
0.641863 0.769163 0.115291
0.703077 0.768663 0.114661
0.764135 0.768164 0.114032
0.825051 0.767666 0.113404
0.885836 0.767170 0.112778
0.946499 0.766674 0.112153
1.000000 0.766179 0.111530
0.013056 0.833648 0.119654
0.078796 0.833111 0.118977
0.143150 0.832585 0.118314
0.206735 0.832066 0.117659
0.269785 0.831551 0.117009
0.332424 0.831039 0.116364
0.394730 0.830530 0.115722
0.456756 0.830023 0.115083
0.518541 0.829518 0.114447
0.580114 0.829015 0.113813
0.641498 0.828513 0.113181
0.702712 0.828013 0.112550
0.763770 0.827514 0.111921
0.824686 0.827017 0.111294
0.885471 0.826520 0.110667
0.946134 0.826024 0.110043
1.000000 0.825529 0.109419
0.012692 0.892870 0.117548
0.078432 0.892333 0.116870
0.142786 0.891807 0.116208
0.206371 0.891288 0.115553
0.269421 0.890773 0.114903
0.332060 0.890261 0.114258
0.394366 0.889752 0.113616
0.456392 0.889245 0.112977
0.518177 0.888740 0.112341
0.579750 0.888237 0.111707
0.641134 0.887736 0.111074
0.702347 0.887235 0.110444
0.763406 0.886736 0.109815
0.824322 0.886239 0.109187
0.885107 0.885742 0.108561
0.945769 0.885246 0.107936
1.000000 0.884752 0.107313
0.012328 0.951974 0.115445
0.078068 0.951436 0.114768
0.142422 0.950911 0.114105
0.206007 0.950391 0.113450
0.269057 0.949876 0.112801
0.331696 0.949364 0.112156
0.394002 0.948855 0.111514
0.456028 0.948348 0.110875
0.517813 0.947843 0.110239
0.579386 0.947340 0.109604
0.640770 0.946839 0.108972
0.701984 0.946339 0.108342
0.763042 0.945840 0.107713
0.823958 0.945342 0.107085
0.884743 0.944845 0.106459
0.945406 0.944350 0.105834
1.000000 0.943855 0.105211
0.011965 1.000000 0.113347
0.077706 1.000000 0.112670
0.142059 1.000000 0.112007
0.205644 1.000000 0.111352
0.268694 1.000000 0.110703
0.331333 1.000000 0.110058
0.393639 1.000000 0.109416
0.455666 1.000000 0.108777
0.517450 1.000000 0.108141
0.579023 1.000000 0.107506
0.640407 1.000000 0.106874
0.701621 1.000000 0.106243
0.762679 1.000000 0.105615
0.823596 1.000000 0.104987
0.884380 1.000000 0.104361
0.945043 1.000000 0.103736
1.000000 1.000000 0.103112
0.022265 0.051861 0.216383
0.087877 0.051055 0.215577
0.152105 0.050267 0.214788
0.215565 0.049487 0.214009
0.278492 0.048715 0.213236
0.341009 0.047947 0.212469
0.403193 0.047183 0.211705
0.465098 0.046423 0.210945
0.526762 0.045666 0.210187
