assets/luts/generated_genre/bs_fantasy_painterly_emerald_694205e790f21abd.cube
# V4 spec-generated LUT — bs_fantasy_painterly_emerald
# Genre: fantasy
# Look: Painterly storybook fantasy — emerald shadows, warm highlights, mythic. Lesnie/LOTR, Bazelli/Lone Ra
# Spec hash: 694205e790f21abd
TITLE "V4 Spec LUT — bs_fantasy_painterly_emerald"
LUT_3D_SIZE 9
DOMAIN_MIN 0.0 0.0 0.0
DOMAIN_MAX 1.0 1.0 1.0
0.022514 0.052678 0.020546
0.152354 0.051084 0.018952
0.278741 0.049532 0.017399
0.403442 0.048000 0.015868
0.527011 0.046483 0.014351
0.649727 0.044976 0.012844
0.771760 0.043477 0.011345
0.893223 0.041986 0.009853
1.000000 0.040500 0.008368
0.020879 0.177640 0.015182
0.150718 0.176045 0.013588
0.277105 0.174493 0.012035
0.401806 0.172962 0.010504
0.525375 0.171444 0.008987
0.648092 0.169937 0.007480
0.770125 0.168439 0.005981
0.891587 0.166947 0.004489
1.000000 0.165462 0.003004
0.019287 0.299279 0.009961
0.149126 0.297685 0.008366
0.275513 0.296132 0.006814
0.400214 0.294601 0.005283
0.523783 0.293084 0.003765
0.646500 0.291577 0.002258
0.768532 0.290078 0.000760
0.889995 0.288586 0.000000
1.000000 0.287101 0.000000
0.017716 0.419295 0.004809
0.147555 0.417701 0.003215
0.273942 0.416149 0.001662
0.398643 0.414617 0.000131
0.522212 0.413100 0.000000
0.644929 0.411593 0.000000
0.766962 0.410094 0.000000
0.888424 0.408602 0.000000
1.000000 0.407117 0.000000
0.016159 0.538222 0.000000
0.145999 0.536627 0.000000
0.272386 0.535075 0.000000
0.397087 0.533544 0.000000
0.520656 0.532026 0.000000
0.643413 0.530604 0.000000
0.765685 0.529605 0.000000
0.887385 0.528611 0.000000
1.000000 0.527620 0.000000
0.014613 0.656328 0.000000
0.144453 0.654734 0.000000
0.270963 0.653438 0.000000
0.395908 0.652417 0.000000
0.519719 0.651405 0.000000
0.642676 0.650400 0.000000
0.764948 0.649401 0.000000
0.886649 0.648407 0.000000
1.000000 0.647416 0.000000
0.013501 0.774664 0.000000
0.143595 0.773601 0.000000
0.270230 0.772566 0.000000
0.395175 0.771546 0.000000
0.518986 0.770534 0.000000
0.641943 0.769529 0.000000
0.764215 0.768530 0.000000
0.885916 0.767536 0.000000
1.000000 0.766545 0.000000
0.012772 0.893237 0.000000
0.142865 0.892174 0.000000
0.269500 0.891139 0.000000
0.394446 0.890118 0.000000
0.518257 0.889106 0.000000
0.641214 0.888102 0.000000
0.763486 0.887103 0.000000
0.885186 0.886108 0.000000
1.000000 0.885118 0.000000
0.012045 1.000000 0.000000
0.142139 1.000000 0.000000
0.268774 1.000000 0.000000
0.393719 1.000000 0.000000
0.517530 1.000000 0.000000
0.640487 1.000000 0.000000
0.762759 1.000000 0.000000
0.884460 1.000000 0.000000
1.000000 1.000000 0.000000
0.022347 0.052129 0.152205
0.152186 0.050534 0.150611
0.278574 0.048982 0.149059
0.403274 0.047451 0.147527
0.526843 0.045933 0.146010
0.649560 0.044426 0.144503
0.771593 0.042928 0.143004
0.893055 0.041436 0.141513
1.000000 0.039951 0.140027
0.020711 0.177091 0.146841
0.150551 0.175496 0.145247
0.276938 0.173944 0.143695
0.401639 0.172413 0.142163
0.525208 0.170895 0.140646
0.647924 0.169388 0.139139
0.769957 0.167889 0.137640
0.891420 0.166398 0.136149
1.000000 0.164912 0.134663
0.019119 0.298730 0.141620
0.148959 0.297135 0.140025
0.275346 0.295583 0.138473
0.400047 0.294052 0.136942
0.523616 0.292534 0.135424
0.646332 0.291027 0.133917
0.768365 0.289529 0.132419
0.889828 0.288037 0.130927
1.000000 0.286551 0.129442
0.017548 0.418746 0.136468
0.147388 0.417151 0.134874
0.273775 0.415599 0.133322
0.398476 0.414068 0.131790
0.522045 0.412550 0.130273
0.644761 0.411043 0.128766
0.766794 0.409545 0.127267
0.888257 0.408053 0.125776
1.000000 0.406626 0.124318
0.015992 0.537673 0.131363
0.145831 0.536078 0.129769
0.272218 0.534526 0.128217
0.396919 0.532995 0.126685
0.520488 0.531477 0.125168
0.643333 0.530238 0.123789
0.765605 0.529239 0.122530
0.887306 0.528244 0.121276
1.000000 0.527254 0.120027
0.014446 0.655779 0.126294
0.144285 0.654184 0.124699
0.270883 0.653071 0.123357
0.395828 0.652050 0.122070
0.519639 0.651039 0.120795
0.642596 0.650034 0.119528
0.764868 0.649035 0.118269
0.886569 0.648041 0.117015
1.000000 0.647050 0.115767
0.013421 0.774298 0.121765
0.143515 0.773235 0.120425
0.270150 0.772200 0.119120
0.395095 0.771179 0.117833
0.518906 0.770168 0.116558
0.641863 0.769163 0.115291
0.764135 0.768164 0.114032
0.885836 0.767170 0.112778
1.000000 0.766179 0.111530
0.012692 0.892870 0.117548
0.142786 0.891807 0.116208
0.269421 0.890773 0.114903
0.394366 0.889752 0.113616
0.518177 0.888740 0.112341
0.641134 0.887736 0.111074
0.763406 0.886736 0.109815
0.885107 0.885742 0.108561
1.000000 0.884752 0.107313
0.011965 1.000000 0.113347
0.142059 1.000000 0.112007
0.268694 1.000000 0.110703
0.393639 1.000000 0.109416
0.517450 1.000000 0.108141
0.640407 1.000000 0.106874
0.762679 1.000000 0.105615
0.884380 1.000000 0.104361
1.000000 1.000000 0.103112
0.022184 0.051596 0.279992
0.152024 0.050001 0.278398
0.278411 0.048449 0.276846
0.403112 0.046918 0.275314
0.526681 0.045400 0.273797
0.649397 0.043893 0.272290
0.771430 0.042395 0.270791
0.892893 0.040903 0.269299
1.000000 0.039417 0.267814
0.020549 0.176557 0.274628
0.150388 0.174963 0.273034
0.276775 0.173411 0.271482
0.401476 0.171879 0.269950
0.525045 0.170362 0.268433
0.647762 0.168855 0.266926
0.769794 0.167356 0.265427
0.891257 0.165865 0.263936
1.000000 0.164379 0.262450
0.018957 0.298197 0.269407
0.148796 0.296602 0.267812
0.275183 0.295050 0.266260
0.399884 0.293519 0.264729
0.523453 0.292001 0.263211
0.646169 0.290494 0.261704
0.768202 0.288995 0.260206
0.889665 0.287504 0.258714
1.000000 0.286018 0.257229
0.017386 0.418213 0.264255
0.147225 0.416618 0.262661
0.273612 0.415066 0.261109
0.398313 0.413535 0.259577
0.521882 0.412017 0.258060
0.644599 0.410510 0.256553
0.766631 0.409012 0.255054
0.888094 0.407520 0.253563
1.000000 0.406270 0.252190
0.015829 0.537139 0.259150
0.145669 0.535545 0.257556
0.272056 0.533993 0.256004
0.396757 0.532461 0.254472
0.520326 0.530944 0.252955
0.643255 0.529882 0.251661
0.765527 0.528883 0.250402
0.887228 0.527889 0.249148
1.000000 0.526899 0.247900
0.014283 0.655246 0.254081
0.144170 0.653751 0.252534
0.270805 0.652716 0.251229
0.395750 0.651695 0.249942
0.519561 0.650683 0.248667
0.642518 0.649679 0.247400
0.764790 0.648680 0.246141
0.886491 0.647685 0.244887
1.000000 0.646695 0.243639
0.013344 0.773943 0.249637
0.143437 0.772880 0.248297
0.270072 0.771845 0.246992
0.395018 0.770824 0.245705
0.518829 0.769812 0.244430
0.641786 0.768808 0.243163
0.764058 0.767809 0.241904
0.885759 0.766814 0.240650
1.000000 0.765824 0.239402
0.012614 0.892515 0.245420
0.142708 0.891452 0.244080
0.269343 0.890417 0.242775
0.394288 0.889396 0.241488
0.518099 0.888385 0.240213
0.641056 0.887380 0.238946
0.763328 0.886381 0.237687
0.885029 0.885387 0.236433
1.000000 0.884396 0.235185
0.011888 1.000000 0.241219
0.141982 1.000000 0.239879
0.268617 1.000000 0.238575
0.393562 1.000000 0.237288
0.517373 1.000000 0.236013
0.640330 1.000000 0.234746
0.762602 1.000000 0.233487
0.884303 1.000000 0.232233
1.000000 1.000000 0.230984
0.022024 0.051070 0.406003
0.151863 0.049476 0.404408
0.278251 0.047923 0.402856
0.402952 0.046392 0.401325
0.526520 0.044875 0.399807
0.649237 0.043368 0.398300
0.771270 0.041869 0.396802
0.892733 0.040377 0.395310
1.000000 0.038892 0.393825
0.020388 0.176032 0.400639
0.150228 0.174437 0.399044
0.276615 0.172885 0.397492
0.401316 0.171354 0.395961
0.524885 0.169836 0.394443
0.647601 0.168329 0.392936
0.769634 0.166831 0.391438
0.891097 0.165339 0.389946
1.000000 0.163853 0.388461
0.018796 0.297671 0.395418
0.148636 0.296076 0.393823
0.275023 0.294524 0.392271
0.399724 0.292993 0.390740
0.523293 0.291475 0.389222
0.646009 0.289968 0.387715
0.768042 0.288470 0.386216
0.889505 0.286978 0.384725
1.000000 0.285492 0.383239
0.017225 0.417687 0.390266
0.147065 0.416092 0.388671
0.273452 0.414540 0.387119
0.398153 0.413009 0.385588
0.521722 0.411491 0.384070
0.644438 0.409984 0.382563
0.766471 0.408486 0.381065
0.887934 0.406994 0.379573
1.000000 0.405920 0.378284
0.015669 0.536614 0.385161
0.145508 0.535019 0.383566
0.271895 0.533467 0.382014
0.396596 0.531936 0.380483
0.520222 0.530537 0.379022
0.643179 0.529532 0.377756
0.765451 0.528533 0.376496
0.887152 0.527539 0.375243
1.000000 0.526548 0.373994
0.014123 0.654720 0.380091
0.144094 0.653400 0.378628
0.270729 0.652365 0.377324
0.395674 0.651344 0.376037
0.519485 0.650333 0.374762
0.642442 0.649328 0.373495
0.764714 0.648329 0.372236
0.886415 0.647335 0.370982
1.000000 0.646344 0.369733
0.013267 0.773592 0.375731
0.143361 0.772529 0.374391
0.269996 0.771494 0.373087
0.394941 0.770473 0.371800
0.518752 0.769462 0.370525
0.641709 0.768457 0.369258
0.763981 0.767458 0.367999
0.885682 0.766464 0.366745
1.000000 0.765473 0.365496
0.012538 0.892164 0.371514
0.142632 0.891102 0.370174
0.269267 0.890067 0.368870
0.394212 0.889046 0.367583
0.518023 0.888034 0.366307
0.640980 0.887030 0.365041
0.763252 0.886031 0.363781
0.884953 0.885036 0.362528
1.000000 0.884046 0.361279
0.011812 1.000000 0.367314
0.141905 1.000000 0.365974
0.268540 1.000000 0.364670
0.393485 1.000000 0.363383
0.517297 1.000000 0.362107
0.640253 1.000000 0.360841
0.762525 1.000000 0.359581
0.884226 1.000000 0.358328
1.000000 1.000000 0.357079
0.021865 0.050549 0.530838
0.151705 0.048955 0.529244
0.278092 0.047403 0.527692
0.402793 0.045871 0.526160
0.526362 0.044354 0.524643
0.649078 0.042847 0.523136
0.771111 0.041348 0.521637
0.892574 0.039856 0.520146
1.000000 0.038371 0.518660
0.020230 0.175511 0.525474
0.150069 0.173916 0.523880
0.276456 0.172364 0.522328
0.401157 0.170833 0.520796
0.524726 0.169315 0.519279
0.647442 0.167808 0.517772
0.769475 0.166310 0.516273
0.890938 0.164818 0.514782
1.000000 0.163332 0.513296
0.018638 0.297150 0.520253
0.148477 0.295555 0.518659
0.274864 0.294003 0.517106
0.399565 0.292472 0.515575
0.523134 0.290954 0.514058
0.645850 0.289447 0.512551
0.767883 0.287949 0.511052
0.889346 0.286457 0.509560
1.000000 0.284972 0.508075
0.017067 0.417166 0.515101
0.146906 0.415572 0.513507
0.273293 0.414019 0.511955
0.397994 0.412488 0.510423
0.521563 0.410971 0.508906
0.644279 0.409464 0.507399
0.766312 0.407965 0.505900
0.887818 0.406563 0.504452
1.000000 0.405572 0.503203
0.015510 0.536093 0.509996
0.145349 0.534498 0.508402
0.271737 0.532946 0.506850
0.396437 0.531415 0.505318
0.520146 0.530189 0.503941
0.643103 0.529185 0.502674
0.765375 0.528186 0.501415
0.887076 0.527191 0.500161
1.000000 0.526201 0.498913
0.013964 0.654199 0.504927
0.144018 0.653053 0.503547
0.270653 0.652018 0.502242
0.395598 0.650997 0.500955
0.519409 0.649986 0.499680
0.642366 0.648981 0.498414
0.764638 0.647982 0.497154
0.886339 0.646987 0.495901
1.000000 0.645997 0.494652
0.013192 0.773245 0.500650
0.143285 0.772182 0.499310
0.269920 0.771147 0.498005
0.394866 0.770126 0.496718
0.518677 0.769115 0.495443
0.641633 0.768110 0.494177
0.763906 0.767111 0.492917
0.885606 0.766116 0.491664
1.000000 0.765126 0.490415
0.012462 0.891817 0.496433
0.142556 0.890754 0.495093
0.269191 0.889720 0.493788
0.394136 0.888699 0.492501
0.517947 0.887687 0.491226
0.640904 0.886682 0.489959
0.763176 0.885683 0.488700
0.884877 0.884689 0.487446
1.000000 0.883698 0.486198
0.011736 1.000000 0.492233
0.141830 1.000000 0.490893
0.268465 1.000000 0.489588
0.393410 1.000000 0.488301
0.517221 1.000000 0.487026
0.640178 1.000000 0.485759
0.762450 1.000000 0.484500
0.884151 1.000000 0.483246
1.000000 1.000000 0.481998
0.021708 0.050032 0.654795
0.151547 0.048437 0.653200
0.277934 0.046885 0.651648
0.402635 0.045354 0.650117
0.526204 0.043837 0.648599
0.648920 0.042330 0.647092
0.770953 0.040831 0.645594
0.892416 0.039339 0.644102
1.000000 0.037854 0.642617
0.020072 0.174994 0.649431
0.149911 0.173399 0.647836
0.276299 0.171847 0.646284
0.400999 0.170316 0.644753
0.524568 0.168798 0.643235
0.647285 0.167291 0.641728
0.769318 0.165792 0.640230
0.890780 0.164301 0.638738
1.000000 0.162815 0.637253
0.018480 0.296633 0.644210
0.148319 0.295038 0.642615
0.274706 0.293486 0.641063
0.399407 0.291955 0.639532
0.522976 0.290437 0.638014
0.645693 0.288930 0.636507
0.767726 0.287432 0.635008
0.889188 0.285940 0.633517
1.000000 0.284454 0.632031
0.016909 0.416649 0.639058
0.146748 0.415054 0.637463
0.273136 0.413502 0.635911
0.397836 0.411971 0.634380
0.521405 0.410453 0.632862
0.644122 0.408946 0.631355
0.766155 0.407448 0.629857
0.887743 0.406218 0.628491
1.000000 0.405228 0.627242
0.015352 0.535576 0.633953
0.145192 0.533981 0.632358
0.271579 0.532429 0.630806
0.396280 0.530898 0.629275
0.520071 0.529845 0.627980
0.643028 0.528840 0.626713
0.765300 0.527841 0.625454
0.887001 0.526847 0.624200
1.000000 0.525856 0.622952
0.013849 0.653771 0.628926
0.143943 0.652708 0.627586
0.270578 0.651673 0.626281
0.395523 0.650652 0.624994
0.519334 0.649641 0.623719
0.642291 0.648636 0.622453
0.764563 0.647637 0.621193
0.886264 0.646643 0.619940
1.000000 0.645652 0.618691
0.013116 0.772900 0.624689
0.143210 0.771837 0.623349
0.269845 0.770802 0.622045
0.394790 0.769781 0.620758
0.518601 0.768770 0.619482
0.641558 0.767765 0.618216
0.763830 0.766766 0.616956
0.885531 0.765772 0.615703
1.000000 0.764781 0.614454
0.012387 0.891472 0.620472
0.142481 0.890409 0.619132
0.269116 0.889375 0.617827
0.394061 0.888354 0.616540
0.517872 0.887342 0.615265
0.640829 0.886338 0.613998
0.763101 0.885339 0.612739
0.884802 0.884344 0.611485
1.000000 0.883354 0.610237
0.011661 1.000000 0.616272
0.141754 1.000000 0.614932
0.268389 1.000000 0.613627
0.393335 1.000000 0.612340
0.517146 1.000000 0.611065
0.640103 1.000000 0.609798
0.762375 1.000000 0.608539
0.884075 1.000000 0.607285
1.000000 1.000000 0.606037
0.021551 0.049518 0.778050
0.151390 0.047923 0.776455
0.277777 0.046371 0.774903
0.402478 0.044840 0.773372
0.526047 0.043322 0.771854
0.648764 0.041815 0.770347
0.770796 0.040317 0.768849
0.892259 0.038825 0.767357
1.000000 0.037339 0.765871
0.019915 0.174479 0.772686
0.149755 0.172885 0.771091
0.276142 0.171333 0.769539
0.400843 0.169801 0.768008
0.524412 0.168284 0.766490
0.647128 0.166777 0.764983
0.769161 0.165278 0.763485
0.890624 0.163787 0.761993
1.000000 0.162301 0.760507
0.018323 0.296118 0.767464
0.148162 0.294524 0.765870
0.274550 0.292972 0.764318
0.399250 0.291441 0.762786
0.522819 0.289923 0.761269
0.645536 0.288416 0.759762
0.767569 0.286917 0.758263
0.889032 0.285426 0.756772
1.000000 0.283940 0.755286
0.016752 0.416135 0.762313
0.146592 0.414540 0.760718
0.272979 0.412988 0.759166
0.397680 0.411457 0.757635
0.521249 0.409939 0.756117
0.643965 0.408432 0.754610
0.765998 0.406934 0.753112
0.887668 0.405875 0.751827
1.000000 0.404885 0.750579
0.015196 0.535061 0.757208
0.145035 0.533467 0.755613
0.271422 0.531915 0.754061
0.396185 0.530513 0.752592
0.519996 0.529502 0.751317
0.642953 0.528497 0.750050
0.765225 0.527498 0.748791
0.886926 0.526504 0.747537
1.000000 0.525513 0.746289
0.013774 0.653428 0.752263
0.143868 0.652365 0.750923
0.270503 0.651331 0.749618
0.395448 0.650310 0.748331
0.519259 0.649298 0.747056
0.642216 0.648293 0.745789
0.764488 0.647294 0.744530
0.886189 0.646300 0.743276
1.000000 0.645309 0.742028
0.013042 0.772557 0.748026
0.143135 0.771494 0.746686
0.269770 0.770460 0.745381
0.394716 0.769439 0.744094
0.518527 0.768427 0.742819
0.641484 0.767422 0.741552
0.763756 0.766423 0.740293
0.885456 0.765429 0.739039
1.000000 0.764438 0.737791
0.012312 0.891130 0.743809
0.142406 0.890067 0.742469
0.269041 0.889032 0.741164
0.393986 0.888011 0.739877
0.517797 0.886999 0.738602
0.640754 0.885995 0.737335
0.763026 0.884996 0.736076
0.884727 0.884001 0.734822
1.000000 0.883011 0.733574
0.011586 1.000000 0.739608
0.141680 1.000000 0.738268
0.268315 1.000000 0.736964
0.393260 1.000000 0.735677
0.517071 1.000000 0.734402
0.640028 1.000000 0.733135
0.762300 1.000000 0.731876
0.884001 1.000000 0.730622
1.000000 1.000000 0.729373
0.021395 0.049006 0.900721
0.151234 0.047411 0.899126
0.277621 0.045859 0.897574
0.402322 0.044328 0.896043
0.525891 0.042810 0.894525
0.648607 0.041303 0.893018
0.770640 0.039805 0.891520
0.892103 0.038313 0.890028
1.000000 0.036828 0.888542
0.019759 0.173968 0.895357
0.149598 0.172373 0.893762
0.275986 0.170821 0.892210
0.400687 0.169290 0.890679
0.524255 0.167772 0.889161
0.646972 0.166265 0.887654
0.769005 0.164766 0.886156
0.890468 0.163275 0.884664
1.000000 0.161789 0.883178
0.018167 0.295607 0.890135
0.148006 0.294012 0.888541
0.274394 0.292460 0.886989
0.399094 0.290929 0.885457
0.522663 0.289411 0.883940
0.645380 0.287904 0.882433
0.767413 0.286406 0.880934
0.888875 0.284914 0.879443
1.000000 0.283428 0.877957
0.016596 0.415623 0.884984
0.146435 0.414028 0.883389
0.272823 0.412476 0.881837
0.397524 0.410945 0.880306
0.521092 0.409427 0.878788
0.643809 0.407920 0.877281
0.765893 0.406528 0.875834
0.887594 0.405534 0.874580
1.000000 0.404544 0.873332
0.015039 0.534550 0.879879
0.144879 0.532955 0.878284
0.271266 0.531403 0.876732
0.396111 0.530172 0.875345
0.519922 0.529161 0.874069
0.642879 0.528156 0.872803
0.765151 0.527157 0.871543
0.886852 0.526162 0.870290
1.000000 0.525172 0.869041
0.013700 0.653087 0.875015
0.143794 0.652024 0.873675
0.270429 0.650989 0.872371
0.395374 0.649968 0.871084
0.519185 0.648957 0.869809
0.642142 0.647952 0.868542
0.764414 0.646953 0.867283
0.886115 0.645959 0.866029
1.000000 0.644968 0.864781
0.012967 0.772216 0.870779
0.143061 0.771153 0.869438
0.269696 0.770118 0.868134
0.394641 0.769097 0.866847
0.518452 0.768086 0.865572
0.641409 0.767081 0.864305
0.763681 0.766082 0.863046
0.885382 0.765088 0.861792
1.000000 0.764097 0.860544
0.012238 0.890788 0.866561
0.142332 0.889725 0.865221
0.268967 0.888691 0.863917
0.393912 0.887670 0.862630
0.517723 0.886658 0.861355
0.640680 0.885654 0.860088
0.762952 0.884654 0.858829
0.884653 0.883660 0.857575
1.000000 0.882670 0.856326
0.011511 1.000000 0.862361
0.141605 1.000000 0.861021
0.268240 1.000000 0.859717
0.393185 1.000000 0.858430
0.516997 1.000000 0.857154
0.639953 1.000000 0.855888
0.762225 1.000000 0.854628
0.883926 1.000000 0.853375
1.000000 1.000000 0.852126
0.021239 0.048496 1.000000
0.151079 0.046902 1.000000
0.277466 0.045350 1.000000
0.402167 0.043818 1.000000
0.525736 0.042301 1.000000
0.648452 0.040794 1.000000
0.770485 0.039295 1.000000
0.891948 0.037803 1.000000
1.000000 0.036318 1.000000
0.019604 0.173458 1.000000
0.149443 0.171863 1.000000
0.275830 0.170311 1.000000
0.400531 0.168780 1.000000
0.524100 0.167262 1.000000
0.646816 0.165755 1.000000
0.768849 0.164257 1.000000
0.890312 0.162765 1.000000
1.000000 0.161279 1.000000
0.018012 0.295097 1.000000
0.147851 0.293502 1.000000
0.274238 0.291950 1.000000
0.398939 0.290419 1.000000
0.522508 0.288901 1.000000
0.645224 0.287394 1.000000
0.767257 0.285896 1.000000
0.888720 0.284404 1.000000
1.000000 0.282919 1.000000
0.016441 0.415113 1.000000
0.146280 0.413519 1.000000
0.272667 0.411966 1.000000
0.397368 0.410435 1.000000
0.520937 0.408918 1.000000
0.643653 0.407411 0.999453
0.765819 0.406189 0.998087
0.887520 0.405194 0.996833
1.000000 0.404204 0.995584
0.014884 0.534040 1.000000
0.144723 0.532445 1.000000
0.271111 0.530893 0.998904
0.396037 0.529832 0.997598
0.519848 0.528821 0.996322
0.642805 0.527816 0.995056
0.765077 0.526817 0.993796
0.886778 0.525823 0.992543
1.000000 0.524832 0.991294
0.013626 0.652747 0.997268
0.143720 0.651684 0.995928
0.270355 0.650650 0.994624
0.395300 0.649629 0.993337
0.519111 0.648617 0.992062
0.642068 0.647612 0.990795
0.764340 0.646613 0.989536
0.886041 0.645619 0.988282
1.000000 0.644628 0.987033
0.012893 0.771876 0.993031
0.142987 0.770813 0.991691
0.269622 0.769778 0.990387
0.394567 0.768758 0.989100
0.518378 0.767746 0.987825
0.641335 0.766741 0.986558
0.763607 0.765742 0.985299
0.885308 0.764748 0.984045
1.000000 0.763757 0.982797
0.012164 0.890449 0.988814
0.142258 0.889386 0.987474
0.268893 0.888351 0.986170
0.393838 0.887330 0.984883
0.517649 0.886318 0.983607
0.640606 0.885314 0.982341
0.762878 0.884315 0.981081
0.884579 0.883320 0.979828
1.000000 0.882330 0.978579
0.011437 1.000000 0.984614
0.141531 1.000000 0.983274
0.268166 1.000000 0.981970
0.393111 1.000000 0.980683
0.516922 1.000000 0.979407
0.639879 1.000000 0.978141
0.762151 1.000000 0.976881
0.883852 1.000000 0.975628
1.000000 1.000000 0.974379
