assets/luts/generated_genre/bs_horror_clinical_pale_acd3330fac7f3553.cube
# V4 spec-generated LUT — bs_horror_clinical_pale
# Genre: horror
# Look: Sickly clinical horror — drained skin, off-kilter green tint. Young/It Comes At Night, Saint Maud.
# Spec hash: acd3330fac7f3553
TITLE "V4 Spec LUT — bs_horror_clinical_pale"
LUT_3D_SIZE 9
DOMAIN_MIN 0.0 0.0 0.0
DOMAIN_MAX 1.0 1.0 1.0
0.000000 0.013987 0.000000
0.077350 0.017239 0.000000
0.187275 0.021465 0.003666
0.299210 0.025767 0.007509
0.412414 0.030119 0.011395
0.526552 0.034506 0.015314
0.641433 0.038922 0.019258
0.756931 0.043361 0.023223
0.872956 0.047821 0.027207
0.003365 0.114751 0.007615
0.087978 0.118003 0.010520
0.197903 0.122229 0.014294
0.309838 0.126531 0.018137
0.423042 0.130883 0.022024
0.537181 0.135270 0.025942
0.652062 0.139686 0.029887
0.767559 0.144125 0.033852
0.883585 0.148585 0.037835
0.015957 0.234127 0.020207
0.100570 0.237380 0.023112
0.210495 0.241605 0.026886
0.322430 0.245908 0.030729
0.435634 0.250259 0.034615
0.549772 0.254646 0.038534
0.664653 0.259062 0.042478
0.780151 0.263502 0.046444
0.896176 0.267961 0.050427
0.028768 0.355586 0.033018
0.113381 0.358839 0.035923
0.223306 0.363064 0.039697
0.335241 0.367367 0.043540
0.448445 0.371718 0.047427
0.562584 0.376105 0.051345
0.677465 0.380521 0.055290
0.792962 0.384961 0.059255
0.908988 0.389421 0.063238
0.041721 0.478383 0.045971
0.126334 0.481636 0.048876
0.236259 0.485861 0.052650
0.348194 0.490164 0.056493
0.461398 0.494515 0.060379
0.575536 0.498902 0.064298
0.690447 0.503283 0.068261
0.806599 0.506954 0.072644
0.923282 0.510642 0.077046
0.054778 0.602173 0.059028
0.139391 0.605426 0.061933
0.249316 0.609651 0.065707
0.361497 0.613665 0.069707
0.475342 0.617263 0.074002
0.590127 0.620891 0.078333
0.705659 0.624543 0.082692
0.821811 0.628214 0.087075
0.938494 0.631902 0.091477
0.068597 0.725960 0.072601
0.153689 0.728649 0.075812
0.264237 0.732143 0.079983
0.376806 0.735701 0.084230
0.490651 0.739299 0.088526
0.605436 0.742927 0.092856
0.720968 0.746579 0.097216
0.837120 0.750250 0.101598
0.953803 0.753938 0.106001
0.083987 0.848642 0.087201
0.169079 0.851332 0.090412
0.279627 0.854826 0.094583
0.392196 0.858384 0.098830
0.506041 0.861982 0.103126
0.620826 0.865610 0.107457
0.736358 0.869261 0.111816
0.852510 0.872933 0.116198
0.969193 0.876621 0.120601
0.099447 0.971879 0.101868
0.184539 0.974569 0.105078
0.295087 0.978063 0.109249
0.407656 0.981621 0.113497
0.521501 0.985219 0.117792
0.636286 0.988847 0.122123
0.751818 0.992499 0.126482
0.867970 0.996170 0.130865
0.984653 0.999858 0.135267
0.000000 0.015140 0.083301
0.078380 0.018392 0.086206
0.188304 0.022617 0.089980
0.300240 0.026920 0.093823
0.413443 0.031271 0.097709
0.527582 0.035659 0.101628
0.642463 0.040075 0.105572
0.757960 0.044514 0.109537
0.873986 0.048974 0.113521
0.004395 0.115904 0.093929
0.089008 0.119156 0.096834
0.198933 0.123382 0.100608
0.310868 0.127684 0.104451
0.424072 0.132036 0.108338
0.538210 0.136423 0.112256
0.653091 0.140839 0.116200
0.768589 0.145278 0.120166
0.884615 0.149738 0.124149
0.016987 0.235280 0.106521
0.101600 0.238532 0.109426
0.211525 0.242758 0.113200
0.323460 0.247060 0.117043
0.436664 0.251412 0.120929
0.550802 0.255799 0.124848
0.665683 0.260215 0.128792
0.781181 0.264654 0.132757
0.897206 0.269114 0.136741
0.029798 0.356739 0.119332
0.114411 0.359991 0.122237
0.224336 0.364217 0.126011
0.336271 0.368519 0.129854
0.449475 0.372871 0.133741
0.563613 0.377258 0.137659
0.678494 0.381674 0.141603
0.793992 0.386114 0.145569
0.910018 0.390573 0.149552
0.042750 0.479536 0.132285
0.127364 0.482788 0.135190
0.237288 0.487014 0.138964
0.349224 0.491316 0.142807
0.462427 0.495668 0.146693
0.576566 0.500055 0.150612
0.691647 0.504236 0.154683
0.807799 0.507907 0.159066
0.924482 0.511595 0.163468
0.055808 0.603326 0.145342
0.140421 0.606579 0.148247
0.250346 0.610804 0.152021
0.362697 0.614618 0.156129
0.476542 0.618217 0.160424
0.591327 0.621845 0.164755
0.706859 0.625496 0.169114
0.823010 0.629167 0.173497
0.939693 0.632855 0.177899
0.069796 0.726913 0.159023
0.154889 0.729602 0.162234
0.265436 0.733097 0.166405
0.378006 0.736654 0.170652
0.491851 0.740253 0.174948
0.606636 0.743881 0.179279
0.722168 0.747532 0.183638
0.838320 0.751203 0.188020
0.955002 0.754891 0.192423
0.085187 0.849596 0.173623
0.170279 0.852285 0.176834
0.280827 0.855779 0.181005
0.393396 0.859337 0.185252
0.507241 0.862935 0.189548
0.622026 0.866563 0.193879
0.737558 0.870215 0.198238
0.853710 0.873886 0.202620
0.970393 0.877574 0.207023
0.100646 0.972833 0.188290
0.185739 0.975522 0.191500
0.296286 0.979016 0.195671
0.408856 0.982574 0.199919
0.522701 0.986172 0.204214
0.637486 0.989800 0.208545
0.753018 0.993452 0.212904
0.869170 0.997123 0.217287
0.985852 1.000000 0.221689
0.000000 0.016569 0.190293
0.079656 0.019821 0.193198
0.189581 0.024047 0.196972
0.301516 0.028349 0.200815
0.414720 0.032701 0.204702
0.528858 0.037088 0.208620
0.643739 0.041504 0.212565
0.759237 0.045943 0.216530
0.875263 0.050403 0.220513
0.005671 0.117333 0.200922
0.090285 0.120585 0.203827
0.200209 0.124811 0.207601
0.312145 0.129113 0.211444
0.425348 0.133465 0.215330
0.539487 0.137852 0.219249
0.654368 0.142268 0.223193
0.769865 0.146707 0.227158
0.885891 0.151167 0.231142
0.018263 0.236709 0.213513
0.102876 0.239961 0.216418
0.212801 0.244187 0.220192
0.324736 0.248489 0.224035
0.437940 0.252841 0.227922
0.552078 0.257228 0.231841
0.666959 0.261644 0.235785
0.782457 0.266084 0.239750
0.898483 0.270543 0.243733
0.031074 0.358168 0.226325
0.115688 0.361421 0.229230
0.225612 0.365646 0.233004
0.337548 0.369949 0.236847
0.450751 0.374300 0.240733
0.564890 0.378687 0.244652
0.679771 0.383103 0.248596
0.795268 0.387543 0.252561
0.911294 0.392002 0.256545
0.044027 0.480965 0.239277
0.128640 0.484218 0.242182
0.238565 0.488443 0.245956
0.350500 0.492745 0.249799
0.463704 0.497097 0.253686
0.577842 0.501484 0.257604
0.693134 0.505418 0.261810
0.809286 0.509089 0.266193
0.925969 0.512777 0.270595
0.057084 0.604755 0.252334
0.141697 0.608008 0.255239
0.251622 0.612233 0.259013
0.364184 0.615800 0.263256
0.478029 0.619398 0.267551
0.592814 0.623026 0.271882
0.708346 0.626678 0.276241
0.824497 0.630349 0.280624
0.941180 0.634037 0.285026
0.071283 0.728095 0.266150
0.156376 0.730784 0.269361
0.266923 0.734278 0.273532
0.379493 0.737836 0.277779
0.493338 0.741434 0.282075
0.608123 0.745062 0.286405
0.723655 0.748714 0.290765
0.839807 0.752385 0.295147
0.956490 0.756073 0.299550
0.086674 0.850777 0.280750
0.171766 0.853467 0.283961
0.282314 0.856961 0.288132
0.394883 0.860519 0.292379
0.508728 0.864117 0.296675
0.623513 0.867745 0.301006
0.739045 0.871396 0.305365
0.855197 0.875068 0.309747
0.971880 0.878756 0.314150
0.102133 0.974014 0.295417
0.187226 0.976704 0.298627
0.297773 0.980198 0.302798
0.410343 0.983756 0.307046
0.524188 0.987354 0.311341
0.638973 0.990982 0.315672
0.754505 0.994634 0.320031
0.870657 0.998305 0.324414
0.987340 1.000000 0.328816
0.000000 0.018023 0.299197
0.080955 0.021276 0.302102
0.190880 0.025501 0.305876
0.302815 0.029804 0.309719
0.416019 0.034155 0.313605
0.530158 0.038542 0.317524
0.645038 0.042958 0.321468
0.760536 0.047398 0.325433
0.876562 0.051858 0.329417
0.006971 0.118788 0.309825
0.091584 0.122040 0.312730
0.201509 0.126265 0.316504
0.313444 0.130568 0.320347
0.426648 0.134919 0.324234
0.540786 0.139307 0.328152
0.655667 0.143722 0.332097
0.771165 0.148162 0.336062
0.887190 0.152622 0.340045
0.019562 0.238164 0.322417
0.104175 0.241416 0.325322
0.214100 0.245641 0.329096
0.326035 0.249944 0.332939
0.439239 0.254295 0.336825
0.553378 0.258683 0.340744
0.668259 0.263099 0.344688
0.783756 0.267538 0.348654
0.899782 0.271998 0.352637
0.032374 0.359623 0.335228
0.116987 0.362875 0.338133
0.226911 0.367100 0.341907
0.338847 0.371403 0.345750
0.452050 0.375754 0.349637
0.566189 0.380142 0.353555
0.681070 0.384558 0.357500
0.796568 0.388997 0.361465
0.912593 0.393457 0.365448
0.045326 0.482420 0.348181
0.129939 0.485672 0.351086
0.239864 0.489897 0.354860
0.351799 0.494200 0.358703
0.465003 0.498551 0.362589
0.579141 0.502939 0.366508
0.694647 0.506621 0.370851
0.810799 0.510292 0.375233
0.927482 0.513980 0.379636
0.058383 0.606210 0.361238
0.142996 0.609462 0.364143
0.253128 0.613445 0.368049
0.365697 0.617003 0.372296
0.479542 0.620601 0.376591
0.594327 0.624229 0.380922
0.709859 0.627881 0.385281
0.826011 0.631552 0.389664
0.942694 0.635240 0.394067
0.072797 0.729298 0.375190
0.157890 0.731987 0.378401
0.268437 0.735481 0.382572
0.381006 0.739039 0.386819
0.494851 0.742637 0.391115
0.609637 0.746265 0.395446
0.725168 0.749917 0.399805
0.841320 0.753588 0.404187
0.958003 0.757276 0.408590
0.088187 0.851980 0.389791
0.173280 0.854670 0.393001
0.283827 0.858164 0.397172
0.396397 0.861722 0.401420
0.510242 0.865320 0.405715
0.625027 0.868948 0.410046
0.740558 0.872599 0.414405
0.856710 0.876270 0.418788
0.973393 0.879958 0.423190
0.103647 0.975217 0.404457
0.188740 0.977907 0.407667
0.299287 0.981401 0.411838
0.411856 0.984959 0.416086
0.525701 0.988557 0.420381
0.640487 0.992185 0.424712
0.756018 0.995836 0.429071
0.872170 0.999508 0.433454
0.988853 1.000000 0.437856
0.000000 0.019494 0.409317
0.082269 0.022747 0.412222
0.192194 0.026972 0.415996
0.304129 0.031275 0.419839
0.417333 0.035626 0.423726
0.531471 0.040013 0.427644
0.646352 0.044429 0.431588
0.761850 0.048869 0.435554
0.877875 0.053329 0.439537
0.008284 0.120258 0.419945
0.092897 0.123511 0.422850
0.202822 0.127736 0.426624
0.314757 0.132039 0.430467
0.427961 0.136390 0.434354
0.542100 0.140777 0.438273
0.656981 0.145193 0.442217
0.772478 0.149633 0.446182
0.888504 0.154093 0.450166
0.020876 0.239635 0.432537
0.105489 0.242887 0.435442
0.215414 0.247112 0.439216
0.327349 0.251415 0.443059
0.440553 0.255766 0.446946
0.554691 0.260154 0.450864
0.669572 0.264569 0.454808
0.785070 0.269009 0.458774
0.901096 0.273469 0.462757
0.033687 0.361094 0.445348
0.118300 0.364346 0.448253
0.228225 0.368571 0.452027
0.340160 0.372874 0.455870
0.453364 0.377225 0.459757
0.567503 0.381613 0.463676
0.682384 0.386029 0.467620
0.797881 0.390468 0.471585
0.913923 0.394909 0.475579
0.046640 0.483891 0.458301
0.131253 0.487143 0.461206
0.241178 0.491368 0.464980
0.353113 0.495671 0.468823
0.466317 0.500022 0.472709
0.580646 0.504185 0.476750
0.696178 0.507837 0.481109
0.812330 0.511508 0.485491
0.929013 0.515196 0.489894
0.059697 0.607681 0.471358
0.144310 0.610933 0.474263
0.254658 0.614661 0.478307
0.367228 0.618219 0.482554
0.481073 0.621817 0.486850
0.595858 0.625445 0.491181
0.711390 0.629097 0.495540
0.827542 0.632768 0.499922
0.944225 0.636456 0.504325
0.074328 0.730514 0.485449
0.159420 0.733203 0.488659
0.269968 0.736697 0.492830
0.382537 0.740255 0.497078
0.496382 0.743854 0.501373
0.611167 0.747481 0.505704
0.726699 0.751133 0.510063
0.842851 0.754804 0.514446
0.959534 0.758492 0.518848
0.089718 0.853196 0.500049
0.174810 0.855886 0.503260
0.285358 0.859380 0.507431
0.397927 0.862938 0.511678
0.511772 0.866536 0.515973
0.626557 0.870164 0.520304
0.742089 0.873816 0.524664
0.858241 0.877487 0.529046
0.974924 0.881175 0.533449
0.105178 0.976434 0.514715
0.190270 0.979123 0.517926
0.300817 0.982617 0.522097
0.413387 0.986175 0.526344
0.527232 0.989773 0.530640
0.642017 0.993401 0.534971
0.757549 0.997053 0.539330
0.873701 1.000000 0.543712
0.990384 1.000000 0.548115
0.000000 0.020977 0.520337
0.083593 0.024229 0.523242
0.193518 0.028455 0.527016
0.305453 0.032757 0.530859
0.418657 0.037109 0.534746
0.532796 0.041496 0.538664
0.647677 0.045912 0.542609
0.763174 0.050352 0.546574
0.879200 0.054811 0.550557
0.009609 0.121741 0.530966
0.094222 0.124994 0.533871
0.204147 0.129219 0.537645
0.316082 0.133522 0.541488
0.429286 0.137873 0.545374
0.543424 0.142260 0.549293
0.658305 0.146676 0.553237
0.773803 0.151116 0.557202
0.889828 0.155576 0.561186
0.022200 0.241117 0.543557
0.106814 0.244370 0.546462
0.216738 0.248595 0.550236
0.328674 0.252898 0.554079
0.441877 0.257249 0.557966
0.556016 0.261636 0.561885
0.670897 0.266052 0.565829
0.786394 0.270492 0.569794
0.902420 0.274952 0.573777
0.035012 0.362576 0.556369
0.119625 0.365829 0.559274
0.229550 0.370054 0.563048
0.341485 0.374357 0.566891
0.454689 0.378708 0.570777
0.568827 0.383096 0.574696
0.683708 0.387511 0.578640
0.799206 0.391951 0.582605
0.915466 0.396135 0.586738
0.047964 0.485373 0.569321
0.132577 0.488626 0.572226
0.242502 0.492851 0.576000
0.354437 0.497154 0.579843
0.467641 0.501505 0.583730
0.582189 0.505412 0.587909
0.697721 0.509063 0.592269
0.813873 0.512734 0.596651
0.930556 0.516422 0.601054
0.061021 0.609164 0.582378
0.145654 0.612393 0.585296
0.256201 0.615887 0.589467
0.368771 0.619445 0.593714
0.482616 0.623044 0.598009
0.597401 0.626672 0.602340
0.712933 0.630323 0.606699
0.829085 0.633994 0.611082
0.945768 0.637682 0.615485
0.075871 0.731740 0.596608
0.160963 0.734430 0.599819
0.271511 0.737924 0.603990
0.384080 0.741481 0.608237
0.497925 0.745080 0.612533
0.612710 0.748708 0.616864
0.728242 0.752359 0.621223
0.844394 0.756030 0.625605
0.961077 0.759718 0.630008
0.091261 0.854423 0.611209
0.176353 0.857112 0.614419
0.286901 0.860606 0.618590
0.399470 0.864164 0.622838
0.513315 0.867762 0.627133
0.628100 0.871390 0.631464
0.743632 0.875042 0.635823
0.859784 0.878713 0.640206
0.976467 0.882401 0.644608
0.106721 0.977660 0.625875
0.191813 0.980349 0.629085
0.302361 0.983843 0.633256
0.414930 0.987401 0.637504
0.528775 0.990999 0.641799
0.643560 0.994627 0.646130
0.759092 0.998279 0.650489
0.875244 1.000000 0.654872
0.991927 1.000000 0.659274
0.000313 0.022470 0.632074
0.084927 0.025722 0.634979
0.194851 0.029947 0.638753
0.306787 0.034250 0.642596
0.419990 0.038601 0.646482
0.534129 0.042989 0.650401
0.649010 0.047404 0.654345
0.764507 0.051844 0.658310
0.880533 0.056304 0.662294
0.010942 0.123234 0.642702
0.095555 0.126486 0.645607
0.205480 0.130711 0.649381
0.317415 0.135014 0.653224
0.430619 0.139365 0.657111
0.544757 0.143753 0.661029
0.659638 0.148169 0.664974
0.775136 0.152608 0.668939
0.891161 0.157068 0.672922
0.023533 0.242610 0.655294
0.108147 0.245862 0.658199
0.218071 0.250088 0.661973
0.330007 0.254390 0.665816
0.443210 0.258742 0.669702
0.557349 0.263129 0.673621
0.672230 0.267545 0.677565
0.787727 0.271984 0.681530
0.903753 0.276444 0.685514
0.036345 0.364069 0.668105
0.120958 0.367321 0.671010
0.230883 0.371547 0.674784
0.342818 0.375849 0.678627
0.456022 0.380201 0.682514
0.570160 0.384588 0.686432
0.685041 0.389004 0.690377
0.800539 0.393443 0.694342
0.917019 0.397369 0.698615
0.049297 0.486866 0.681058
0.133910 0.490118 0.683963
0.243835 0.494344 0.687737
0.355770 0.498646 0.691580
0.468974 0.502998 0.695466
0.583742 0.506646 0.699786
0.699274 0.510297 0.704145
0.815426 0.513968 0.708528
0.932109 0.517656 0.712930
0.062354 0.610656 0.694115
0.147207 0.613628 0.697172
0.257754 0.617122 0.701343
0.370324 0.620679 0.705591
0.484169 0.624278 0.709886
0.598954 0.627906 0.714217
0.714486 0.631557 0.718576
0.830638 0.635228 0.722959
0.947321 0.638916 0.727361
0.077424 0.732974 0.708485
0.162516 0.735664 0.711696
0.273063 0.739158 0.715867
0.385633 0.742716 0.720114
0.499478 0.746314 0.724410
0.614263 0.749942 0.728740
0.729795 0.753593 0.733100
0.845947 0.757264 0.737482
0.962630 0.760952 0.741885
0.092814 0.855657 0.723085
0.177906 0.858346 0.726296
0.288454 0.861840 0.730467
0.401023 0.865398 0.734714
0.514868 0.868996 0.739010
0.629653 0.872624 0.743341
0.745185 0.876276 0.747700
0.861337 0.879947 0.752082
0.978020 0.883635 0.756485
0.108274 0.978894 0.737752
0.193366 0.981583 0.740962
0.303913 0.985077 0.745133
0.416483 0.988635 0.749381
0.530328 0.992234 0.753676
0.645113 0.995862 0.758007
0.760645 0.999513 0.762366
0.876797 1.000000 0.766749
0.993480 1.000000 0.771151
0.001653 0.023970 0.744406
0.086267 0.027222 0.747311
0.196191 0.031448 0.751085
0.308127 0.035750 0.754928
0.421330 0.040102 0.758815
0.535469 0.044489 0.762733
0.650350 0.048905 0.766677
0.765847 0.053344 0.770643
0.881873 0.057804 0.774626
0.012282 0.124734 0.755035
0.096895 0.127986 0.757940
0.206820 0.132212 0.761714
0.318755 0.136514 0.765557
0.431959 0.140866 0.769443
0.546097 0.145253 0.773362
0.660978 0.149669 0.777306
0.776476 0.154109 0.781271
0.892502 0.158568 0.785255
0.024874 0.244110 0.767626
0.109487 0.247363 0.770531
0.219411 0.251588 0.774305
0.331347 0.255891 0.778148
0.444550 0.260242 0.782035
0.558689 0.264629 0.785953
0.673570 0.269045 0.789898
0.789068 0.273485 0.793863
0.905093 0.277945 0.797846
0.037685 0.365569 0.780438
0.122298 0.368822 0.783343
0.232223 0.373047 0.787117
0.344158 0.377350 0.790960
0.457362 0.381701 0.794846
0.571500 0.386088 0.798765
0.686381 0.390504 0.802709
0.801897 0.394922 0.806686
0.918580 0.398610 0.811089
0.050637 0.488366 0.793390
0.135251 0.491619 0.796295
0.245175 0.495844 0.800069
0.357111 0.500147 0.803912
0.470518 0.504258 0.807929
0.585303 0.507886 0.812260
0.700835 0.511538 0.816619
0.816987 0.515209 0.821001
0.933670 0.518897 0.825404
0.063695 0.612157 0.806447
0.148768 0.614868 0.809646
0.259316 0.618362 0.813817
0.371885 0.621920 0.818064
0.485730 0.625518 0.822360
0.600515 0.629146 0.826691
0.716047 0.632798 0.831050
0.832199 0.636469 0.835432
0.948882 0.640157 0.839835
0.078985 0.734215 0.820958
0.164077 0.736904 0.824169
0.274625 0.740398 0.828340
0.387194 0.743956 0.832587
0.501039 0.747555 0.836883
0.615824 0.751182 0.841214
0.731356 0.754834 0.845573
0.847508 0.758505 0.849955
0.964191 0.762193 0.854358
0.094375 0.856897 0.835559
0.179467 0.859587 0.838769
0.290015 0.863081 0.842940
0.402584 0.866639 0.847188
0.516429 0.870237 0.851483
0.631214 0.873865 0.855814
0.746746 0.877517 0.860173
0.862898 0.881188 0.864556
0.979581 0.884876 0.868958
0.109835 0.980135 0.850225
0.194927 0.982824 0.853436
0.305475 0.986318 0.857607
0.418044 0.989876 0.861854
0.531889 0.993474 0.866149
0.646674 0.997102 0.870480
0.762206 1.000000 0.874839
0.878358 1.000000 0.879222
0.995041 1.000000 0.883625
0.003000 0.025477 0.857249
0.087613 0.028730 0.860154
0.197538 0.032955 0.863928
0.309473 0.037257 0.867771
0.422677 0.041609 0.871658
0.536815 0.045996 0.875576
0.651696 0.050412 0.879521
0.767194 0.054852 0.883486
0.883219 0.059311 0.887469
0.013628 0.126241 0.867878
0.098241 0.129494 0.870783
0.208166 0.133719 0.874557
0.320101 0.138022 0.878400
0.433305 0.142373 0.882286
0.547444 0.146760 0.886205
0.662324 0.151176 0.890149
0.777822 0.155616 0.894114
0.893848 0.160076 0.898098
0.026220 0.245617 0.880469
0.110833 0.248870 0.883374
0.220758 0.253095 0.887148
0.332693 0.257398 0.890991
0.445897 0.261749 0.894878
0.560035 0.266137 0.898796
0.674916 0.270552 0.902741
0.790414 0.274992 0.906706
0.906439 0.279452 0.910689
0.039031 0.367077 0.893281
0.123644 0.370329 0.896186
0.233569 0.374554 0.899960
0.345504 0.378857 0.903803
0.458708 0.383208 0.907689
0.572847 0.387596 0.911608
0.687727 0.392011 0.915552
0.803466 0.396168 0.919671
0.920149 0.399856 0.924073
0.051984 0.489873 0.906233
0.136597 0.493126 0.909138
0.246521 0.497351 0.912912
0.358457 0.501654 0.916755
0.472087 0.505505 0.920913
0.586872 0.509133 0.925244
0.702403 0.512784 0.929603
0.818555 0.516455 0.933986
0.935238 0.520143 0.938388
0.065244 0.613425 0.919420
0.150336 0.616115 0.922630
0.260884 0.619609 0.926801
0.373453 0.623167 0.931049
0.487298 0.626765 0.935344
0.602084 0.630393 0.939675
0.717615 0.634044 0.944034
0.833767 0.637715 0.948417
0.950450 0.641403 0.952819
0.080553 0.735461 0.933943
0.165646 0.738151 0.937154
0.276193 0.741645 0.941325
0.388762 0.745203 0.945572
0.502608 0.748801 0.949868
0.617393 0.752429 0.954199
0.732924 0.756080 0.958558
0.849076 0.759752 0.962940
0.965759 0.763439 0.967343
0.095943 0.858144 0.948543
0.181036 0.860833 0.951754
0.291583 0.864327 0.955925
0.404153 0.867885 0.960172
0.517998 0.871483 0.964468
0.632783 0.875111 0.968799
0.748315 0.878763 0.973158
0.864466 0.882434 0.977540
0.981149 0.886122 0.981943
0.111403 0.981381 0.963210
0.196496 0.984070 0.966420
0.307043 0.987564 0.970591
0.419612 0.991122 0.974839
0.533458 0.994721 0.979134
0.648243 0.998349 0.983465
0.763774 1.000000 0.987824
0.879926 1.000000 0.992207
0.996609 1.000000 0.996609
