assets/luts/generated_genre/bs_horror_clinical_pale_acd3330fac7f3553.cube
# V4 spec-generated LUT — bs_horror_clinical_pale
# Genre: horror
# Look: Sickly clinical horror — drained skin, off-kilter green tint. Young/It Comes At Night, Saint Maud.
# Spec hash: acd3330fac7f3553
TITLE "V4 Spec LUT — bs_horror_clinical_pale"
LUT_3D_SIZE 17
DOMAIN_MIN 0.0 0.0 0.0
DOMAIN_MAX 1.0 1.0 1.0
0.000000 0.013987 0.000000
0.023839 0.015182 0.000000
0.077350 0.017239 0.000000
0.131978 0.019339 0.001767
0.187275 0.021465 0.003666
0.243053 0.023609 0.005581
0.299210 0.025767 0.007509
0.355679 0.027938 0.009448
0.412414 0.030119 0.011395
0.469380 0.032308 0.013351
0.526552 0.034506 0.015314
0.583909 0.036711 0.017283
0.641433 0.038922 0.019258
0.699111 0.041139 0.021238
0.756931 0.043361 0.023223
0.814882 0.045589 0.025213
0.872956 0.047821 0.027207
0.000000 0.056498 0.001471
0.028323 0.057694 0.002539
0.081834 0.059751 0.004376
0.136462 0.061851 0.006251
0.191759 0.063976 0.008150
0.247537 0.066120 0.010065
0.303694 0.068279 0.011993
0.360163 0.070449 0.013932
0.416898 0.072630 0.015879
0.473864 0.074820 0.017835
0.531036 0.077017 0.019798
0.588393 0.079222 0.021767
0.645917 0.081433 0.023742
0.703595 0.083650 0.025722
0.761415 0.085873 0.027708
0.819366 0.088100 0.029697
0.877440 0.090333 0.031691
0.003365 0.114751 0.007615
0.034467 0.115946 0.008683
0.087978 0.118003 0.010520
0.142607 0.120103 0.012396
0.197903 0.122229 0.014294
0.253682 0.124373 0.016209
0.309838 0.126531 0.018137
0.366307 0.128702 0.020076
0.423042 0.130883 0.022024
0.480009 0.133072 0.023980
0.537181 0.135270 0.025942
0.594537 0.137475 0.027912
0.652062 0.139686 0.029887
0.709739 0.141903 0.031867
0.767559 0.144125 0.033852
0.825511 0.146353 0.035842
0.883585 0.148585 0.037835
0.009625 0.174097 0.013875
0.040727 0.175293 0.014943
0.094238 0.177350 0.016780
0.148867 0.179450 0.018656
0.204163 0.181575 0.020554
0.259941 0.183719 0.022469
0.316098 0.185878 0.024397
0.372567 0.188048 0.026336
0.429302 0.190229 0.028284
0.486268 0.192419 0.030239
0.543440 0.194617 0.032202
0.600797 0.196821 0.034171
0.658321 0.199032 0.036146
0.715999 0.201249 0.038127
0.773819 0.203472 0.040112
0.831770 0.205700 0.042101
0.889845 0.207932 0.044095
0.015957 0.234127 0.020207
0.047059 0.235323 0.021275
0.100570 0.237380 0.023112
0.155198 0.239479 0.024987
0.210495 0.241605 0.026886
0.266273 0.243749 0.028801
0.322430 0.245908 0.030729
0.378899 0.248078 0.032668
0.435634 0.250259 0.034615
0.492600 0.252449 0.036571
0.549772 0.254646 0.038534
0.607129 0.256851 0.040503
0.664653 0.259062 0.042478
0.722331 0.261279 0.044458
0.780151 0.263502 0.046444
0.838102 0.265729 0.048433
0.896176 0.267961 0.050427
0.022342 0.294658 0.026592
0.053444 0.295854 0.027659
0.106955 0.297910 0.029497
0.161583 0.300010 0.031372
0.216880 0.302136 0.033271
0.272658 0.304280 0.035186
0.328815 0.306438 0.037114
0.385284 0.308609 0.039052
0.442019 0.310790 0.041000
0.498985 0.312980 0.042956
0.556157 0.315177 0.044919
0.613514 0.317382 0.046888
0.671038 0.319593 0.048863
0.728716 0.321810 0.050843
0.786536 0.324033 0.052828
0.844487 0.326260 0.054818
0.902561 0.328492 0.056812
0.028768 0.355586 0.033018
0.059870 0.356782 0.034086
0.113381 0.358839 0.035923
0.168010 0.360938 0.037799
0.223306 0.363064 0.039697
0.279085 0.365208 0.041612
0.335241 0.367367 0.043540
0.391710 0.369537 0.045479
0.448445 0.371718 0.047427
0.505412 0.373908 0.049383
0.562584 0.376105 0.051345
0.619940 0.378310 0.053315
0.677465 0.380521 0.055290
0.735142 0.382738 0.057270
0.792962 0.384961 0.059255
0.850914 0.387188 0.061245
0.908988 0.389421 0.063238
0.035230 0.416844 0.039480
0.066332 0.418039 0.040547
0.119843 0.420096 0.042385
0.174471 0.422196 0.044260
0.229767 0.424322 0.046159
0.285546 0.426466 0.048074
0.341703 0.428624 0.050002
0.398172 0.430795 0.051940
0.454907 0.432976 0.053888
0.511873 0.435165 0.055844
0.569045 0.437363 0.057807
0.626402 0.439568 0.059776
0.683926 0.441779 0.061751
0.741604 0.443996 0.063731
0.799424 0.446218 0.065716
0.857375 0.448446 0.067706
0.915720 0.450360 0.069872
0.041721 0.478383 0.045971
0.072823 0.479579 0.047039
0.126334 0.481636 0.048876
0.180962 0.483735 0.050751
0.236259 0.485861 0.052650
0.292037 0.488005 0.054565
0.348194 0.490164 0.056493
0.404663 0.492334 0.058431
0.461398 0.494515 0.060379
0.518364 0.496705 0.062335
0.575536 0.498902 0.064298
0.632893 0.501107 0.066267
0.690447 0.503283 0.068261
0.748452 0.505116 0.070450
0.806599 0.506954 0.072644
0.864879 0.508796 0.074843
0.923282 0.510642 0.077046
0.048238 0.540169 0.052488
0.079340 0.541364 0.053556
0.132851 0.543421 0.055393
0.187479 0.545521 0.057268
0.242776 0.547647 0.059167
0.298554 0.549791 0.061082
0.354711 0.551949 0.063010
0.411180 0.554120 0.064948
0.467915 0.556301 0.066896
0.525012 0.558337 0.068936
0.582508 0.560154 0.071105
0.640189 0.561977 0.073281
0.698040 0.563805 0.075464
0.756044 0.565639 0.077653
0.814191 0.567477 0.079846
0.872471 0.569319 0.082045
0.930874 0.571165 0.084249
0.054778 0.602173 0.059028
0.085880 0.603369 0.060096
0.139391 0.605426 0.061933
0.194019 0.607526 0.063808
0.249316 0.609651 0.065707
0.305094 0.611795 0.067622
0.361497 0.613665 0.069707
0.418286 0.615460 0.071849
0.475342 0.617263 0.074002
0.532631 0.619074 0.076164
0.590127 0.620891 0.078333
0.647809 0.622714 0.080509
0.705659 0.624543 0.082692
0.763664 0.626376 0.084881
0.821811 0.628214 0.087075
0.880090 0.630056 0.089274
0.938494 0.631902 0.091477
0.061339 0.664375 0.065589
0.092441 0.665571 0.066657
0.146024 0.667543 0.068540
0.200962 0.669280 0.070612
0.256571 0.671037 0.072711
0.312666 0.672810 0.074827
0.369141 0.674595 0.076958
0.425929 0.676390 0.079101
0.482986 0.678193 0.081253
0.540275 0.680004 0.083415
0.597771 0.681821 0.085584
0.655452 0.683645 0.087761
0.713302 0.685473 0.089943
0.771307 0.687306 0.092132
0.829454 0.689144 0.094326
0.887734 0.690986 0.096525
0.946137 0.692832 0.098728
0.068597 0.725960 0.072601
0.099875 0.726948 0.073781
0.153689 0.728649 0.075812
0.208627 0.730386 0.077885
0.264237 0.732143 0.079983
0.320331 0.733916 0.082099
0.376806 0.735701 0.084230
0.433595 0.737496 0.086373
0.490651 0.739299 0.088526
0.547940 0.741110 0.090687
0.605436 0.742927 0.092856
0.663118 0.744750 0.095033
0.720968 0.746579 0.097216
0.778973 0.748412 0.099404
0.837120 0.750250 0.101598
0.895400 0.752092 0.103797
0.953803 0.753938 0.106001
0.076283 0.787227 0.079892
0.107561 0.788215 0.081072
0.161375 0.789916 0.083103
0.216313 0.791652 0.085176
0.271923 0.793410 0.087274
0.328017 0.795183 0.089390
0.384492 0.796968 0.091521
0.441281 0.798763 0.093664
0.498337 0.800566 0.095817
0.555626 0.802377 0.097978
0.613122 0.804194 0.100148
0.670804 0.806017 0.102324
0.728654 0.807846 0.104507
0.786658 0.809679 0.106695
0.844806 0.811517 0.108889
0.903085 0.813359 0.111088
0.961489 0.815205 0.113292
0.083987 0.848642 0.087201
0.115265 0.849631 0.088381
0.169079 0.851332 0.090412
0.224017 0.853068 0.092485
0.279627 0.854826 0.094583
0.335721 0.856599 0.096699
0.392196 0.858384 0.098830
0.448985 0.860179 0.100973
0.506041 0.861982 0.103126
0.563331 0.863793 0.105287
0.620826 0.865610 0.107457
0.678508 0.867433 0.109633
0.736358 0.869261 0.111816
0.794363 0.871095 0.114004
0.852510 0.872933 0.116198
0.910790 0.874775 0.118397
0.969193 0.876621 0.120601
0.091709 0.910196 0.094527
0.122987 0.911185 0.095707
0.176801 0.912886 0.097737
0.231739 0.914622 0.099810
0.287349 0.916380 0.101908
0.343443 0.918153 0.104025
0.399918 0.919938 0.106156
0.456707 0.921733 0.108298
0.513763 0.923536 0.110451
0.571052 0.925347 0.112613
0.628548 0.927164 0.114782
0.686230 0.928987 0.116959
0.744080 0.930815 0.119141
0.802085 0.932649 0.121330
0.860232 0.934487 0.123524
0.918512 0.936329 0.125723
0.976915 0.938174 0.127926
0.099447 0.971879 0.101868
0.130725 0.972868 0.103048
0.184539 0.974569 0.105078
0.239477 0.976305 0.107151
0.295087 0.978063 0.109249
0.351181 0.979836 0.111366
0.407656 0.981621 0.113497
0.464445 0.983416 0.115639
0.521501 0.985219 0.117792
0.578790 0.987030 0.119954
0.636286 0.988847 0.122123
0.693968 0.990670 0.124299
0.751818 0.992499 0.126482
0.809823 0.994332 0.128671
0.867970 0.996170 0.130865
0.926250 0.998012 0.133064
0.984653 0.999858 0.135267
0.000000 0.014443 0.031151
0.024246 0.015639 0.032219
0.077758 0.017696 0.034056
0.132386 0.019795 0.035931
0.187682 0.021921 0.037830
0.243461 0.024065 0.039745
0.299618 0.026224 0.041673
0.356086 0.028394 0.043612
0.412821 0.030575 0.045559
0.469788 0.032765 0.047515
0.526960 0.034962 0.049478
0.584316 0.037167 0.051447
0.641841 0.039378 0.053422
0.699519 0.041595 0.055403
0.757338 0.043818 0.057388
0.815290 0.046045 0.059377
0.873364 0.048277 0.061371
0.000000 0.056955 0.035635
0.028731 0.058150 0.036703
0.082242 0.060207 0.038540
0.136870 0.062307 0.040416
0.192166 0.064432 0.042314
0.247945 0.066576 0.044229
0.304102 0.068735 0.046157
0.360571 0.070906 0.048096
0.417305 0.073086 0.050044
0.474272 0.075276 0.051999
0.531444 0.077474 0.053962
0.588800 0.079678 0.055931
0.646325 0.081890 0.057906
0.704003 0.084107 0.059887
0.761822 0.086329 0.061872
0.819774 0.088557 0.063861
0.877848 0.090789 0.065855
0.003773 0.115207 0.041779
0.034875 0.116403 0.042847
0.088386 0.118460 0.044684
0.143014 0.120560 0.046560
0.198311 0.122685 0.048458
0.254089 0.124829 0.050373
0.310246 0.126988 0.052301
0.366715 0.129158 0.054240
0.423450 0.131339 0.056188
0.480416 0.133529 0.058144
0.537588 0.135726 0.060107
0.594945 0.137931 0.062076
0.652469 0.140142 0.064051
0.710147 0.142359 0.066031
0.767967 0.144582 0.068016
0.825918 0.146809 0.070006
0.883992 0.149042 0.072000
0.010033 0.174554 0.048039
0.041135 0.175749 0.049107
0.094646 0.177806 0.050944
0.149274 0.179906 0.052820
0.204571 0.182032 0.054718
0.260349 0.184176 0.056633
0.316506 0.186334 0.058561
0.372975 0.188505 0.060500
0.429710 0.190686 0.062448
0.486676 0.192875 0.064404
0.543848 0.195073 0.066366
0.601205 0.197278 0.068336
0.658729 0.199489 0.070311
0.716407 0.201706 0.072291
0.774227 0.203928 0.074276
0.832178 0.206156 0.076265
0.890252 0.208388 0.078259
0.016364 0.234583 0.054371
0.047467 0.235779 0.055439
0.100978 0.237836 0.057276
0.155606 0.239936 0.059152
0.210902 0.242061 0.061050
0.266681 0.244205 0.062965
0.322838 0.246364 0.064893
0.379307 0.248534 0.066832
0.436041 0.250715 0.068780
0.493008 0.252905 0.070735
0.550180 0.255103 0.072698
0.607536 0.257307 0.074667
0.665061 0.259518 0.076642
0.722739 0.261735 0.078623
0.780558 0.263958 0.080608
0.838510 0.266186 0.082597
0.896584 0.268418 0.084591
0.022749 0.295114 0.060756
0.053851 0.296310 0.061824
0.107362 0.298367 0.063661
0.161991 0.300467 0.065536
0.217287 0.302592 0.067435
0.273065 0.304736 0.069350
0.329222 0.306895 0.071278
0.385691 0.309065 0.073216
0.442426 0.311246 0.075164
0.499393 0.313436 0.077120
0.556565 0.315633 0.079083
0.613921 0.317838 0.081052
0.671445 0.320049 0.083027
0.729123 0.322266 0.085007
0.786943 0.324489 0.086992
0.844895 0.326716 0.088982
0.902969 0.328949 0.090976
0.029176 0.356043 0.067182
0.060278 0.357238 0.068250
0.113789 0.359295 0.070087
0.168417 0.361395 0.071963
0.223714 0.363520 0.073861
0.279492 0.365664 0.075776
0.335649 0.367823 0.077704
0.392118 0.369993 0.079643
0.448853 0.372174 0.081591
0.505819 0.374364 0.083547
0.562991 0.376562 0.085510
0.620348 0.378766 0.087479
0.677872 0.380977 0.089454
0.735550 0.383194 0.091434
0.793370 0.385417 0.093419
0.851321 0.387645 0.095409
0.909395 0.389877 0.097403
0.035637 0.417300 0.073644
0.066739 0.418496 0.074712
0.120250 0.420553 0.076549
0.174879 0.422652 0.078424
0.230175 0.424778 0.080323
0.285953 0.426922 0.082238
0.342110 0.429080 0.084166
0.398579 0.431251 0.086104
0.455314 0.433432 0.088052
0.512281 0.435622 0.090008
0.569453 0.437819 0.091971
0.626809 0.440024 0.093940
0.684333 0.442235 0.095915
0.742011 0.444452 0.097895
0.799831 0.446675 0.099880
0.857791 0.448892 0.101876
0.916195 0.450738 0.104079
0.042128 0.478839 0.080135
0.073230 0.480035 0.081203
0.126741 0.482092 0.083040
0.181370 0.484192 0.084915
0.236666 0.486317 0.086814
0.292445 0.488461 0.088729
0.348601 0.490620 0.090657
0.405070 0.492790 0.092596
0.461805 0.494971 0.094543
0.518772 0.497161 0.096499
0.575944 0.499359 0.098462
0.633300 0.501563 0.100431
0.690922 0.503660 0.102468
0.748927 0.505493 0.104657
0.807074 0.507331 0.106851
0.865354 0.509173 0.109050
0.923757 0.511019 0.111253
0.048645 0.540625 0.086652
0.079747 0.541821 0.087720
0.133258 0.543878 0.089557
0.187887 0.545977 0.091432
0.243183 0.548103 0.093331
0.298962 0.550247 0.095246
0.355118 0.552406 0.097174
0.411587 0.554576 0.099113
0.468322 0.556757 0.101060
0.525487 0.558714 0.103143
0.582983 0.560531 0.105312
0.640664 0.562354 0.107488
0.698514 0.564183 0.109671
0.756519 0.566016 0.111860
0.814666 0.567854 0.114054
0.872946 0.569696 0.116252
0.931349 0.571542 0.118456
0.055186 0.602630 0.093192
0.086288 0.603825 0.094260
0.139799 0.605882 0.096097
0.194427 0.607982 0.097973
0.249723 0.610107 0.099871
0.305502 0.612252 0.101786
0.361972 0.614042 0.103914
0.418761 0.615837 0.106056
0.475817 0.617641 0.108209
0.533106 0.619451 0.110371
0.590602 0.621269 0.112540
0.648284 0.623092 0.114717
0.706134 0.624920 0.116899
0.764138 0.626753 0.119088
0.822286 0.628591 0.121282
0.880565 0.630433 0.123481
0.938969 0.632279 0.125684
0.061746 0.664831 0.099753
0.092849 0.666027 0.100821
0.146499 0.667921 0.102747
0.201436 0.669657 0.104819
0.257046 0.671415 0.106918
0.313140 0.673188 0.109034
0.369615 0.674973 0.111165
0.426404 0.676767 0.113308
0.483460 0.678571 0.115460
0.540750 0.680382 0.117622
0.598246 0.682199 0.119791
0.655927 0.684022 0.121968
0.713777 0.685850 0.124150
0.771782 0.687684 0.126339
0.829929 0.689521 0.128533
0.888209 0.691364 0.130732
0.946612 0.693209 0.132936
0.069072 0.726337 0.106808
0.100350 0.727326 0.107988
0.154164 0.729026 0.110019
0.209102 0.730763 0.112092
0.264712 0.732521 0.114190
0.320806 0.734293 0.116306
0.377281 0.736078 0.118437
0.434070 0.737873 0.120580
0.491126 0.739677 0.122733
0.548415 0.741487 0.124894
0.605911 0.743305 0.127063
0.663593 0.745128 0.129240
0.721443 0.746956 0.131423
0.779447 0.748790 0.133611
0.837595 0.750627 0.135805
0.895874 0.752469 0.138004
0.954278 0.754315 0.140208
0.076757 0.787604 0.114099
0.108036 0.788593 0.115280
0.161850 0.790293 0.117310
0.216788 0.792030 0.119383
0.272397 0.793787 0.121481
0.328492 0.795560 0.123597
0.384967 0.797345 0.125728
0.441756 0.799140 0.127871
0.498812 0.800944 0.130024
0.556101 0.802754 0.132185
0.613597 0.804572 0.134355
0.671278 0.806395 0.136531
0.729129 0.808223 0.138714
0.787133 0.810056 0.140902
0.845281 0.811894 0.143096
0.903560 0.813736 0.145295
0.961963 0.815582 0.147499
0.084462 0.849020 0.121408
0.115740 0.850008 0.122588
0.169554 0.851709 0.124619
0.224492 0.853445 0.126692
0.280102 0.855203 0.128790
0.336196 0.856976 0.130906
0.392671 0.858761 0.133037
0.449460 0.860556 0.135180
0.506516 0.862359 0.137333
0.563805 0.864170 0.139494
0.621301 0.865987 0.141664
0.678983 0.867810 0.143840
0.736833 0.869639 0.146023
0.794838 0.871472 0.148211
0.852985 0.873310 0.150405
0.911265 0.875152 0.152604
0.969668 0.876998 0.154808
0.092184 0.910574 0.128734
0.123462 0.911562 0.129914
0.177276 0.913263 0.131944
0.232214 0.914999 0.134017
0.287824 0.916757 0.136115
0.343918 0.918530 0.138232
0.400393 0.920315 0.140363
0.457182 0.922110 0.142505
0.514238 0.923913 0.144658
0.571527 0.925724 0.146820
0.629023 0.927541 0.148989
0.686705 0.929364 0.151166
0.744555 0.931193 0.153348
0.802559 0.933026 0.155537
0.860707 0.934864 0.157731
0.918986 0.936706 0.159930
0.977390 0.938552 0.162133
0.099922 0.972257 0.136075
0.131200 0.973245 0.137255
0.185014 0.974946 0.139285
0.239952 0.976683 0.141358
0.295562 0.978440 0.143456
0.351656 0.980213 0.145573
0.408131 0.981998 0.147704
0.464920 0.983793 0.149846
0.521976 0.985596 0.151999
0.579265 0.987407 0.154161
0.636761 0.989224 0.156330
0.694443 0.991047 0.158506
0.752293 0.992876 0.160689
0.810297 0.994709 0.162878
0.868445 0.996547 0.165072
0.926724 0.998389 0.167271
0.985128 1.000000 0.169474
0.000000 0.015140 0.083301
0.024869 0.016335 0.084368
0.078380 0.018392 0.086206
0.133008 0.020492 0.088081
0.188304 0.022617 0.089980
0.244083 0.024761 0.091895
0.300240 0.026920 0.093823
0.356709 0.029091 0.095761
0.413443 0.031271 0.097709
0.470410 0.033461 0.099665
0.527582 0.035659 0.101628
0.584939 0.037863 0.103597
0.642463 0.040075 0.105572
0.700141 0.042292 0.107552
0.757960 0.044514 0.109537
0.815912 0.046742 0.111527
0.873986 0.048974 0.113521
0.000000 0.057651 0.087785
0.029353 0.058847 0.088853
0.082864 0.060904 0.090690
0.137492 0.063003 0.092565
0.192788 0.065129 0.094464
0.248567 0.067273 0.096379
0.304724 0.069432 0.098307
0.361193 0.071602 0.100245
0.417927 0.073783 0.102193
0.474894 0.075973 0.104149
0.532066 0.078170 0.106112
0.589423 0.080375 0.108081
0.646947 0.082586 0.110056
0.704625 0.084803 0.112036
0.762445 0.087026 0.114021
0.820396 0.089253 0.116011
0.878470 0.091486 0.118005
0.004395 0.115904 0.093929
0.035497 0.117099 0.094997
0.089008 0.119156 0.096834
0.143636 0.121256 0.098710
0.198933 0.123382 0.100608
0.254711 0.125526 0.102523
0.310868 0.127684 0.104451
0.367337 0.129855 0.106390
0.424072 0.132036 0.108338
0.481038 0.134225 0.110293
0.538210 0.136423 0.112256
0.595567 0.138628 0.114226
0.653091 0.140839 0.116200
0.710769 0.143056 0.118181
0.768589 0.145278 0.120166
0.826540 0.147506 0.122155
0.884615 0.149738 0.124149
0.010655 0.175250 0.100189
0.041757 0.176446 0.101257
0.095268 0.178503 0.103094
0.149896 0.180603 0.104969
0.205193 0.182728 0.106868
0.260971 0.184872 0.108783
0.317128 0.187031 0.110711
0.373597 0.189201 0.112650
0.430332 0.191382 0.114597
0.487298 0.193572 0.116553
0.544470 0.195769 0.118516
0.601827 0.197974 0.120485
0.659351 0.200185 0.122460
0.717029 0.202402 0.124440
0.774849 0.204625 0.126426
0.832800 0.206852 0.128415
0.890874 0.209085 0.130409
0.016987 0.235280 0.106521
0.048089 0.236476 0.107589
0.101600 0.238532 0.109426
0.156228 0.240632 0.111301
0.211525 0.242758 0.113200
0.267303 0.244902 0.115115
0.323460 0.247060 0.117043
0.379929 0.249231 0.118981
0.436664 0.251412 0.120929
0.493630 0.253601 0.122885
0.550802 0.255799 0.124848
0.608159 0.258004 0.126817
0.665683 0.260215 0.128792
0.723361 0.262432 0.130772
0.781181 0.264654 0.132757
0.839132 0.266882 0.134747
0.897206 0.269114 0.136741
0.023371 0.295811 0.112905
0.054473 0.297006 0.113973
0.107984 0.299063 0.115810
0.162613 0.301163 0.117686
0.217909 0.303289 0.119584
0.273688 0.305433 0.121499
0.329844 0.307591 0.123427
0.386313 0.309762 0.125366
0.443048 0.311943 0.127314
0.500015 0.314132 0.129270
0.557187 0.316330 0.131233
0.614543 0.318535 0.133202
0.672068 0.320746 0.135177
0.729746 0.322963 0.137157
0.787565 0.325185 0.139142
0.845517 0.327413 0.141132
0.903591 0.329645 0.143126
0.029798 0.356739 0.119332
0.060900 0.357935 0.120400
0.114411 0.359991 0.122237
0.169039 0.362091 0.124113
0.224336 0.364217 0.126011
0.280114 0.366361 0.127926
0.336271 0.368519 0.129854
0.392740 0.370690 0.131793
0.449475 0.372871 0.133741
0.506441 0.375061 0.135696
0.563613 0.377258 0.137659
0.620970 0.379463 0.139628
0.678494 0.381674 0.141603
0.736172 0.383891 0.143584
0.793992 0.386114 0.145569
0.851943 0.388341 0.147558
0.910018 0.390573 0.149552
0.036259 0.417997 0.125793
0.067361 0.419192 0.126861
0.120872 0.421249 0.128698
0.175501 0.423349 0.130574
0.230797 0.425474 0.132472
0.286576 0.427618 0.134387
0.342732 0.429777 0.136315
0.399201 0.431948 0.138254
0.455936 0.434128 0.140202
0.512903 0.436318 0.142158
0.570075 0.438516 0.144121
0.627431 0.440720 0.146090
0.684956 0.442932 0.148065
0.742634 0.445149 0.150045
0.800453 0.447371 0.152030
0.858516 0.449468 0.154091
0.916919 0.451314 0.156294
0.042750 0.479536 0.132285
0.073853 0.480732 0.133352
0.127364 0.482788 0.135190
0.181992 0.484888 0.137065
0.237288 0.487014 0.138964
0.293067 0.489158 0.140879
0.349224 0.491316 0.142807
0.405693 0.493487 0.144745
0.462427 0.495668 0.146693
0.519394 0.497857 0.148649
0.576566 0.500055 0.150612
0.633922 0.502260 0.152581
0.691647 0.504236 0.154683
0.749651 0.506069 0.156872
0.807799 0.507907 0.159066
0.866078 0.509749 0.161265
0.924482 0.511595 0.163468
0.049267 0.541322 0.138802
0.080370 0.542517 0.139869
0.133881 0.544574 0.141707
0.188509 0.546674 0.143582
0.243805 0.548799 0.145481
0.299584 0.550943 0.147396
0.355741 0.553102 0.149324
0.412210 0.555273 0.151262
0.468944 0.557453 0.153210
0.526212 0.559290 0.155358
0.583707 0.561107 0.157527
0.641389 0.562930 0.159703
0.699239 0.564759 0.161886
0.757244 0.566592 0.164075
0.815391 0.568430 0.166269
0.873671 0.570272 0.168468
0.932074 0.572118 0.170671
0.055808 0.603326 0.145342
0.086910 0.604522 0.146410
0.140421 0.606579 0.148247
0.195049 0.608679 0.150122
0.250346 0.610804 0.152021
0.306222 0.612833 0.153998
0.362697 0.614618 0.156129
0.419485 0.616413 0.158272
0.476542 0.618217 0.160424
0.533831 0.620027 0.162586
0.591327 0.621845 0.164755
0.649008 0.623668 0.166932
0.706859 0.625496 0.169114
0.764863 0.627329 0.171303
0.823010 0.629167 0.173497
0.881290 0.631009 0.175696
0.939693 0.632855 0.177899
0.062369 0.665528 0.151903
0.093471 0.666723 0.152971
0.147223 0.668497 0.154962
0.202161 0.670233 0.157035
0.257771 0.671991 0.159133
0.313865 0.673764 0.161249
0.370340 0.675549 0.163380
0.427129 0.677343 0.165523
0.484185 0.679147 0.167676
0.541474 0.680958 0.169837
0.598970 0.682775 0.172007
0.656652 0.684598 0.174183
0.714502 0.686426 0.176366
0.772507 0.688260 0.178554
0.830654 0.690097 0.180748
0.888934 0.691939 0.182947
0.947337 0.693785 0.185151
0.069796 0.726913 0.159023
0.101075 0.727902 0.160203
0.154889 0.729602 0.162234
0.209827 0.731339 0.164307
0.265436 0.733097 0.166405
0.321531 0.734869 0.168521
0.378006 0.736654 0.170652
0.434795 0.738449 0.172795
0.491851 0.740253 0.174948
0.549140 0.742063 0.177109
0.606636 0.743881 0.179279
0.664317 0.745704 0.181455
0.722168 0.747532 0.183638
0.780172 0.749365 0.185826
0.838320 0.751203 0.188020
0.896599 0.753045 0.190219
0.955002 0.754891 0.192423
0.077482 0.788180 0.166314
0.108760 0.789169 0.167495
0.162575 0.790869 0.169525
0.217512 0.792606 0.171598
0.273122 0.794363 0.173696
0.329217 0.796136 0.175813
0.385692 0.797921 0.177943
0.442480 0.799716 0.180086
0.499537 0.801520 0.182239
0.556826 0.803330 0.184401
0.614322 0.805148 0.186570
0.672003 0.806971 0.188746
0.729853 0.808799 0.190929
0.787858 0.810632 0.193118
0.846005 0.812470 0.195311
0.904285 0.814312 0.197510
0.962688 0.816158 0.199714
0.085187 0.849596 0.173623
0.116465 0.850584 0.174804
0.170279 0.852285 0.176834
0.225217 0.854021 0.178907
0.280827 0.855779 0.181005
0.336921 0.857552 0.183122
0.393396 0.859337 0.185252
0.450185 0.861132 0.187395
0.507241 0.862935 0.189548
0.564530 0.864746 0.191710
0.622026 0.866563 0.193879
0.679708 0.868386 0.196055
0.737558 0.870215 0.198238
0.795563 0.872048 0.200427
0.853710 0.873886 0.202620
0.911989 0.875728 0.204819
0.970393 0.877574 0.207023
0.092908 0.911150 0.180949
0.124187 0.912138 0.182129
0.178001 0.913839 0.184160
0.232939 0.915575 0.186232
0.288548 0.917333 0.188331
0.344643 0.919106 0.190447
0.401118 0.920891 0.192578
0.457907 0.922686 0.194721
0.514963 0.924489 0.196873
0.572252 0.926300 0.199035
0.629748 0.928117 0.201204
0.687429 0.929940 0.203381
0.745280 0.931769 0.205563
0.803284 0.933602 0.207752
0.861432 0.935440 0.209946
0.919711 0.937282 0.212145
0.978114 0.939128 0.214348
0.100646 0.972833 0.188290
0.131925 0.973821 0.189470
0.185739 0.975522 0.191500
0.240677 0.977259 0.193573
0.296286 0.979016 0.195671
0.352381 0.980789 0.197788
0.408856 0.982574 0.199919
0.465645 0.984369 0.202061
0.522701 0.986172 0.204214
0.579990 0.987983 0.206376
0.637486 0.989800 0.208545
0.695167 0.991623 0.210721
0.753018 0.993452 0.212904
0.811022 0.995285 0.215093
0.869170 0.997123 0.217287
0.927449 0.998965 0.219486
0.985852 1.000000 0.221689
0.000000 0.015850 0.136482
0.025503 0.017046 0.137549
0.079014 0.019102 0.139387
0.133642 0.021202 0.141262
0.188939 0.023328 0.143161
0.244717 0.025472 0.145076
0.300874 0.027630 0.147004
0.357343 0.029801 0.148942
0.414078 0.031982 0.150890
0.471044 0.034171 0.152846
