assets/luts/generated_genre/bs_horror_warm_dread_a370da22eb5960cc.cube
# V4 spec-generated LUT — bs_horror_warm_dread
# Genre: horror
# Look: Domestic-wrong horror — warm shadow with sickly green mid. Gioulakis/Hereditary, Midsommar.
# Spec hash: a370da22eb5960cc
TITLE "V4 Spec LUT — bs_horror_warm_dread"
LUT_3D_SIZE 5
DOMAIN_MIN 0.0 0.0 0.0
DOMAIN_MAX 1.0 1.0 1.0
0.059526 0.042921 0.000000
0.275985 0.047334 0.000000
0.496972 0.051838 0.002232
0.720131 0.056387 0.006311
0.944759 0.060966 0.010418
0.066769 0.274109 0.007664
0.283228 0.278521 0.011621
0.504215 0.283026 0.015660
0.727374 0.287575 0.019740
0.952002 0.292154 0.023846
0.074173 0.510429 0.021390
0.290631 0.514841 0.025347
0.511619 0.519346 0.029387
0.735974 0.523370 0.033630
0.963887 0.526507 0.038185
0.084278 0.747970 0.035614
0.303903 0.750992 0.040003
0.528123 0.754078 0.044484
0.754547 0.757194 0.049009
0.982460 0.760330 0.053564
0.102974 0.983353 0.051096
0.322599 0.986375 0.055485
0.546819 0.989461 0.059966
0.773243 0.992577 0.064492
1.000000 0.995713 0.069047
0.060274 0.044468 0.216925
0.276733 0.048881 0.220882
0.497720 0.053386 0.224922
0.720880 0.057935 0.229001
0.945507 0.062514 0.233107
0.067517 0.275656 0.230354
0.283976 0.280069 0.234310
0.504963 0.284573 0.238350
0.728123 0.289122 0.242429
0.952750 0.293701 0.246536
0.074921 0.511976 0.244080
0.291380 0.516389 0.248037
0.512367 0.520893 0.252077
0.737832 0.524430 0.256471
0.965746 0.527567 0.261026
0.086136 0.749030 0.258455
0.305761 0.752052 0.262844
0.529981 0.755138 0.267325
0.756405 0.758253 0.271851
0.984318 0.761390 0.276406
0.104833 0.984413 0.273937
0.324458 0.987435 0.278327
0.548678 0.990521 0.282808
0.775102 0.993636 0.287333
1.000000 0.996773 0.291888
0.061044 0.046060 0.445961
0.277503 0.050472 0.449918
0.498490 0.054977 0.453957
0.721650 0.059526 0.458037
0.946277 0.064105 0.462143
0.068287 0.277247 0.459389
0.284746 0.281660 0.463346
0.505733 0.286165 0.467386
0.728893 0.290714 0.471465
0.953520 0.295293 0.475571
0.075691 0.513567 0.473116
0.292149 0.517980 0.477072
0.513320 0.522404 0.481137
0.739744 0.525520 0.485662
0.967657 0.528657 0.490217
0.088048 0.750120 0.487646
0.307673 0.753142 0.492036
0.531893 0.756228 0.496517
0.758317 0.759343 0.501042
0.986230 0.762480 0.505597
0.106745 0.985503 0.503129
0.326370 0.988525 0.507518
0.550590 0.991611 0.511999
0.777014 0.994727 0.516524
1.000000 0.997863 0.521079
0.061822 0.047668 0.677454
0.278281 0.052081 0.681411
0.499268 0.056585 0.685450
0.722428 0.061135 0.689530
0.947055 0.065714 0.693636
0.069065 0.278856 0.690882
0.285524 0.283268 0.694839
0.506511 0.287773 0.698879
0.729671 0.292322 0.702958
0.954298 0.296901 0.707064
0.076469 0.515176 0.704609
0.292927 0.519588 0.708566
0.515252 0.523506 0.712788
0.741676 0.526622 0.717313
0.969589 0.529758 0.721868
0.089980 0.751221 0.719297
0.309605 0.754244 0.723686
0.533825 0.757329 0.728168
0.760249 0.760445 0.732693
0.988162 0.763582 0.737248
0.108677 0.986604 0.734779
0.328302 0.989627 0.739169
0.552522 0.992712 0.743650
0.778946 0.995828 0.748175
1.000000 0.998965 0.752730
0.062605 0.049288 0.910557
0.279064 0.053700 0.914514
0.500051 0.058205 0.918554
0.723211 0.062754 0.922633
0.947838 0.067333 0.926739
0.069848 0.280476 0.923986
0.286307 0.284888 0.927943
0.507294 0.289393 0.931982
0.730454 0.293942 0.936062
0.955081 0.298521 0.940168
0.077252 0.516796 0.937712
0.293711 0.521208 0.941669
0.517198 0.524615 0.946050
0.743622 0.527731 0.950575
0.971535 0.530868 0.955130
0.091926 0.752331 0.952559
0.311551 0.755353 0.956949
0.535771 0.758439 0.961430
0.762195 0.761555 0.965955
0.990108 0.764691 0.970510
0.110623 0.987714 0.968042
0.330248 0.990736 0.972431
0.554468 0.993822 0.976912
0.780892 0.996938 0.981437
1.000000 1.000000 0.985992
