assets/luts/generated_genre/bs_horror_warm_dread_a370da22eb5960cc.cube
# V4 spec-generated LUT — bs_horror_warm_dread
# Genre: horror
# Look: Domestic-wrong horror — warm shadow with sickly green mid. Gioulakis/Hereditary, Midsommar.
# Spec hash: a370da22eb5960cc
TITLE "V4 Spec LUT — bs_horror_warm_dread"
LUT_3D_SIZE 17
DOMAIN_MIN 0.0 0.0 0.0
DOMAIN_MAX 1.0 1.0 1.0
0.059526 0.042921 0.000000
0.112824 0.044008 0.000000
0.166825 0.045108 0.000000
0.221251 0.046218 0.000000
0.275985 0.047334 0.000000
0.330960 0.048454 0.000000
0.386135 0.049579 0.000206
0.441479 0.050707 0.001218
0.496972 0.051838 0.002232
0.552596 0.052972 0.003249
0.608337 0.054109 0.004268
0.664185 0.055247 0.005289
0.720131 0.056387 0.006311
0.776168 0.057530 0.007336
0.832288 0.058674 0.008362
0.888487 0.059819 0.009389
0.944759 0.060966 0.010418
0.061306 0.099748 0.000000
0.114604 0.100835 0.000000
0.168605 0.101936 0.000000
0.223031 0.103045 0.000493
0.277765 0.104161 0.001493
0.332740 0.105281 0.002498
0.387915 0.106406 0.003507
0.443260 0.107534 0.004518
0.498752 0.108666 0.005533
0.554376 0.109799 0.006550
0.610117 0.110936 0.007569
0.665966 0.112074 0.008589
0.721912 0.113215 0.009612
0.777948 0.114357 0.010637
0.834069 0.115501 0.011662
0.890267 0.116647 0.012690
0.946539 0.117794 0.013718
0.063113 0.157428 0.000887
0.116411 0.158515 0.001861
0.170412 0.159616 0.002848
0.224838 0.160725 0.003843
0.279572 0.161841 0.004844
0.334547 0.162962 0.005848
0.389722 0.164086 0.006857
0.445067 0.165215 0.007869
0.500559 0.166346 0.008883
0.556183 0.167480 0.009900
0.611924 0.168616 0.010919
0.667773 0.169754 0.011940
0.723719 0.170895 0.012962
0.779755 0.172037 0.013987
0.835876 0.173181 0.015013
0.892074 0.174327 0.016040
0.948346 0.175474 0.017069
0.064936 0.215596 0.004265
0.118234 0.216682 0.005240
0.172235 0.217783 0.006227
0.226661 0.218893 0.007222
0.281394 0.220008 0.008222
0.336370 0.221129 0.009227
0.391545 0.222254 0.010236
0.446889 0.223382 0.011247
0.502382 0.224513 0.012262
0.558005 0.225647 0.013279
0.613747 0.226783 0.014298
0.669595 0.227922 0.015318
0.725541 0.229062 0.016341
0.781578 0.230205 0.017365
0.837698 0.231349 0.018391
0.893897 0.232494 0.019419
0.950168 0.233641 0.020447
0.066769 0.274109 0.007664
0.120067 0.275195 0.008638
0.174068 0.276296 0.009625
0.228494 0.277406 0.010620
0.283228 0.278521 0.011621
0.338203 0.279642 0.012626
0.393378 0.280767 0.013634
0.448722 0.281895 0.014646
0.504215 0.283026 0.015660
0.559839 0.284160 0.016677
0.615580 0.285296 0.017696
0.671428 0.286435 0.018717
0.727374 0.287575 0.019740
0.783411 0.288717 0.020764
0.839531 0.289862 0.021790
0.895730 0.291007 0.022817
0.952002 0.292154 0.023846
0.068610 0.332890 0.011078
0.121909 0.333977 0.012053
0.175909 0.335077 0.013040
0.230336 0.336187 0.014035
0.285069 0.337303 0.015035
0.340045 0.338423 0.016040
0.395219 0.339548 0.017049
0.450564 0.340676 0.018060
0.506056 0.341807 0.019075
0.561680 0.342941 0.020092
0.617422 0.344078 0.021110
0.673270 0.345216 0.022131
0.729216 0.346357 0.023154
0.785253 0.347499 0.024178
0.841373 0.348643 0.025204
0.897571 0.349788 0.026232
0.953843 0.350936 0.027260
0.070459 0.391891 0.014505
0.123757 0.392978 0.015480
0.177758 0.394079 0.016467
0.232184 0.395188 0.017462
0.286918 0.396304 0.018462
0.341893 0.397425 0.019467
0.397068 0.398549 0.020476
0.452412 0.399678 0.021487
0.507905 0.400809 0.022502
0.563529 0.401943 0.023519
0.619270 0.403079 0.024538
0.675118 0.404217 0.025558
0.731065 0.405358 0.026581
0.787101 0.406500 0.027605
0.843221 0.407644 0.028631
0.899420 0.408790 0.029659
0.955692 0.409937 0.030687
0.072313 0.451079 0.017943
0.125611 0.452166 0.018917
0.179612 0.453266 0.019905
0.234038 0.454376 0.020900
0.288772 0.455492 0.021900
0.343747 0.456612 0.022905
0.398922 0.457737 0.023914
0.454267 0.458865 0.024925
0.509759 0.459997 0.025940
0.565383 0.461130 0.026956
0.621124 0.462267 0.027975
0.676973 0.463405 0.028996
0.732919 0.464546 0.030019
0.788955 0.465688 0.031043
0.845153 0.466798 0.032080
0.902174 0.467583 0.033219
0.959269 0.468368 0.034360
0.074173 0.510429 0.021390
0.127471 0.511515 0.022365
0.181472 0.512616 0.023352
0.235898 0.513726 0.024347
0.290631 0.514841 0.025347
0.345607 0.515962 0.026352
0.400782 0.517087 0.027361
0.456126 0.518215 0.028373
0.511619 0.519346 0.029387
0.567242 0.520480 0.030404
0.622984 0.521616 0.031423
0.679209 0.522589 0.032495
0.735974 0.523370 0.033630
0.792830 0.524153 0.034766
0.849771 0.524936 0.035904
0.906792 0.525721 0.037043
0.963887 0.526507 0.038185
0.076037 0.569921 0.024846
0.129335 0.571008 0.025820
0.183336 0.572109 0.026807
0.237762 0.573218 0.027802
0.292495 0.574334 0.028803
0.347471 0.575455 0.029808
0.402645 0.576579 0.030816
0.457990 0.577708 0.031828
0.514179 0.578533 0.032938
0.570616 0.579310 0.034066
0.627173 0.580088 0.035196
0.683838 0.580868 0.036328
0.740603 0.581649 0.037463
0.797459 0.582431 0.038599
0.854400 0.583215 0.039737
0.911421 0.584000 0.040877
0.968516 0.584785 0.042018
0.077904 0.629542 0.028309
0.131202 0.630629 0.029283
0.185203 0.631730 0.030271
0.239629 0.632839 0.031265
0.294598 0.633852 0.032298
0.350378 0.634619 0.033413
0.406360 0.635390 0.034532
0.462514 0.636163 0.035654
0.518818 0.636937 0.036779
0.575255 0.637714 0.037907
0.631812 0.638492 0.039037
0.688477 0.639272 0.040170
0.745242 0.640053 0.041304
0.802098 0.640836 0.042441
0.859039 0.641619 0.043579
0.916060 0.642404 0.044718
0.973155 0.643190 0.045859
0.079776 0.689280 0.031779
0.133699 0.690092 0.032839
0.188490 0.690846 0.033934
0.243712 0.691606 0.035037
0.299246 0.692370 0.036147
0.355026 0.693137 0.037262
0.411008 0.693908 0.038381
0.467162 0.694681 0.039503
0.523466 0.695455 0.040628
0.579904 0.696232 0.041756
0.636460 0.697010 0.042886
0.693126 0.697790 0.044019
0.749890 0.698571 0.045153
0.806746 0.699354 0.046290
0.863688 0.700137 0.047428
0.920708 0.700922 0.048567
0.977803 0.701708 0.049708
0.084278 0.747970 0.035614
0.138355 0.748714 0.036694
0.193146 0.749468 0.037789
0.248368 0.750228 0.038893
0.303903 0.750992 0.040003
0.359682 0.751760 0.041118
0.415664 0.752530 0.042237
0.471818 0.753303 0.043359
0.528123 0.754078 0.044484
0.584560 0.754854 0.045612
0.641117 0.755633 0.046742
0.697782 0.756412 0.047875
0.754547 0.757194 0.049009
0.811403 0.757976 0.050146
0.868344 0.758760 0.051284
0.925365 0.759544 0.052423
0.982460 0.760330 0.053564
0.088942 0.806688 0.039476
0.143019 0.807432 0.040557
0.197810 0.808186 0.041652
0.253032 0.808946 0.042755
0.308567 0.809710 0.043865
0.364346 0.810478 0.044980
0.420328 0.811248 0.046099
0.476482 0.812021 0.047221
0.532787 0.812796 0.048346
0.589224 0.813573 0.049474
0.645781 0.814351 0.050605
0.702446 0.815131 0.051737
0.759211 0.815912 0.052871
0.816067 0.816694 0.054008
0.873008 0.817478 0.055146
0.930029 0.818262 0.056285
0.987124 0.819048 0.057426
0.093613 0.865495 0.043344
0.147690 0.866239 0.044425
0.202481 0.866993 0.045520
0.257704 0.867753 0.046623
0.313238 0.868517 0.047733
0.369017 0.869285 0.048848
0.424999 0.870055 0.049967
0.481154 0.870828 0.051089
0.537458 0.871603 0.052214
0.593895 0.872380 0.053342
0.650452 0.873158 0.054473
0.707117 0.873938 0.055605
0.763882 0.874719 0.056740
0.820738 0.875501 0.057876
0.877679 0.876285 0.059014
0.934700 0.877070 0.060153
0.991795 0.877855 0.061294
0.098290 0.924385 0.047217
0.152368 0.925129 0.048298
0.207159 0.925883 0.049393
0.262381 0.926643 0.050497
0.317916 0.927407 0.051607
0.373695 0.928175 0.052721
0.429677 0.928945 0.053840
0.485831 0.929718 0.054963
0.542135 0.930493 0.056088
0.598573 0.931270 0.057216
0.655130 0.932048 0.058346
0.711795 0.932828 0.059479
0.768559 0.933609 0.060613
0.825416 0.934391 0.061749
0.882357 0.935175 0.062887
0.939378 0.935960 0.064027
0.996473 0.936745 0.065168
0.102974 0.983353 0.051096
0.157052 0.984097 0.052177
0.211843 0.984851 0.053272
0.267065 0.985611 0.054375
0.322599 0.986375 0.055485
0.378379 0.987143 0.056600
0.434361 0.987913 0.057719
0.490515 0.988686 0.058841
0.546819 0.989461 0.059966
0.603257 0.990237 0.061094
0.659813 0.991016 0.062225
0.716479 0.991795 0.063357
0.773243 0.992577 0.064492
0.830100 0.993359 0.065628
0.887041 0.994143 0.066766
0.944061 0.994927 0.067905
1.000000 0.995713 0.069047
0.059708 0.043297 0.048354
0.113006 0.044384 0.049329
0.167007 0.045484 0.050316
0.221433 0.046594 0.051311
0.276167 0.047710 0.052311
0.331142 0.048830 0.053316
0.386317 0.049955 0.054325
0.441661 0.051083 0.055337
0.497154 0.052214 0.056351
0.552777 0.053348 0.057368
0.608519 0.054485 0.058387
0.664367 0.055623 0.059408
0.720313 0.056763 0.060430
0.776350 0.057906 0.061455
0.832470 0.059050 0.062481
0.888669 0.060195 0.063508
0.944941 0.061343 0.064536
0.061488 0.100124 0.051655
0.114786 0.101211 0.052630
0.168787 0.102312 0.053617
0.223213 0.103421 0.054612
0.277947 0.104537 0.055612
0.332922 0.105657 0.056617
0.388097 0.106782 0.057626
0.443442 0.107910 0.058637
0.498934 0.109042 0.059652
0.554558 0.110175 0.060669
0.610299 0.111312 0.061687
0.666148 0.112450 0.062708
0.722094 0.113591 0.063731
0.778130 0.114733 0.064755
0.834251 0.115877 0.065781
0.890449 0.117023 0.066809
0.946721 0.118170 0.067837
0.063295 0.157804 0.055006
0.116593 0.158891 0.055980
0.170594 0.159992 0.056967
0.225020 0.161101 0.057962
0.279754 0.162217 0.058962
0.334729 0.163338 0.059967
0.389904 0.164462 0.060976
0.445249 0.165591 0.061988
0.500741 0.166722 0.063002
0.556365 0.167856 0.064019
0.612106 0.168992 0.065038
0.667955 0.170130 0.066059
0.723901 0.171271 0.067081
0.779937 0.172413 0.068106
0.836058 0.173557 0.069132
0.892256 0.174703 0.070159
0.948528 0.175850 0.071188
0.065118 0.215972 0.058384
0.118416 0.217058 0.059358
0.172417 0.218159 0.060346
0.226843 0.219269 0.061341
0.281576 0.220384 0.062341
0.336552 0.221505 0.063346
0.391726 0.222630 0.064355
0.447071 0.223758 0.065366
0.502564 0.224889 0.066381
0.558187 0.226023 0.067397
0.613929 0.227159 0.068416
0.669777 0.228298 0.069437
0.725723 0.229438 0.070460
0.781760 0.230581 0.071484
0.837880 0.231725 0.072510
0.894079 0.232870 0.073538
0.950350 0.234017 0.074566
0.066951 0.274485 0.061783
0.120249 0.275571 0.062757
0.174250 0.276672 0.063744
0.228676 0.277782 0.064739
0.283409 0.278897 0.065740
0.338385 0.280018 0.066745
0.393560 0.281143 0.067753
0.448904 0.282271 0.068765
0.504397 0.283402 0.069779
0.560020 0.284536 0.070796
0.615762 0.285672 0.071815
0.671610 0.286811 0.072836
0.727556 0.287951 0.073859
0.783593 0.289094 0.074883
0.839713 0.290238 0.075909
0.895912 0.291383 0.076936
0.952184 0.292530 0.077965
0.068792 0.333266 0.065197
0.122090 0.334353 0.066171
0.176091 0.335453 0.067159
0.230517 0.336563 0.068153
0.285251 0.337679 0.069154
0.340226 0.338799 0.070159
0.395401 0.339924 0.071168
0.450746 0.341052 0.072179
0.506238 0.342183 0.073194
0.561862 0.343317 0.074210
0.617603 0.344454 0.075229
0.673452 0.345592 0.076250
0.729398 0.346733 0.077273
0.785434 0.347875 0.078297
0.841555 0.349019 0.079323
0.897753 0.350165 0.080350
0.954025 0.351312 0.081379
0.070641 0.392267 0.068624
0.123939 0.393354 0.069598
0.177940 0.394455 0.070586
0.232366 0.395564 0.071581
0.287100 0.396680 0.072581
0.342075 0.397801 0.073586
0.397250 0.398925 0.074595
0.452594 0.400054 0.075606
0.508087 0.401185 0.076621
0.563710 0.402319 0.077637
0.619452 0.403455 0.078656
0.675300 0.404593 0.079677
0.731246 0.405734 0.080700
0.787283 0.406876 0.081724
0.843403 0.408020 0.082750
0.899602 0.409166 0.083778
0.955874 0.410313 0.084806
0.072495 0.451455 0.072062
0.125793 0.452542 0.073036
0.179794 0.453643 0.074023
0.234220 0.454752 0.075018
0.288954 0.455868 0.076019
0.343929 0.456988 0.077024
0.399104 0.458113 0.078032
0.454449 0.459241 0.079044
0.509941 0.460373 0.080059
0.565565 0.461506 0.081075
0.621306 0.462643 0.082094
0.677154 0.463781 0.083115
0.733101 0.464922 0.084138
0.789137 0.466064 0.085162
0.845605 0.467055 0.086236
0.902626 0.467840 0.087375
0.959721 0.468626 0.088516
0.074355 0.510805 0.075509
0.127653 0.511891 0.076484
0.181654 0.512992 0.077471
0.236080 0.514102 0.078466
0.290813 0.515217 0.079466
0.345789 0.516338 0.080471
0.400963 0.517463 0.081480
0.456308 0.518591 0.082491
0.511801 0.519722 0.083506
0.567424 0.520856 0.084523
0.623166 0.521992 0.085542
0.679661 0.522847 0.086651
0.736425 0.523628 0.087785
0.793282 0.524410 0.088922
0.850223 0.525194 0.090060
0.907244 0.525979 0.091199
0.964339 0.526764 0.092340
0.076218 0.570298 0.078965
0.129516 0.571384 0.079939
0.183517 0.572485 0.080926
0.237943 0.573594 0.081921
0.292677 0.574710 0.082922
0.347653 0.575831 0.083927
0.402827 0.576955 0.084935
0.458326 0.578016 0.085968
0.514631 0.578791 0.087093
0.571068 0.579567 0.088221
0.627625 0.580346 0.089352
0.684290 0.581125 0.090484
0.741055 0.581907 0.091619
0.797911 0.582689 0.092755
0.854852 0.583473 0.093893
0.911873 0.584257 0.095032
0.968968 0.585043 0.096174
0.078086 0.629918 0.082428
0.131384 0.631005 0.083402
0.185385 0.632106 0.084389
0.239811 0.633215 0.085384
0.295050 0.634109 0.086454
0.350829 0.634877 0.087569
0.406811 0.635647 0.088687
0.462965 0.636420 0.089810
0.519270 0.637195 0.090935
0.575707 0.637972 0.092063
0.632264 0.638750 0.093193
0.688929 0.639530 0.094326
0.745694 0.640311 0.095460
0.802550 0.641093 0.096596
0.859491 0.641877 0.097734
0.916512 0.642662 0.098874
0.973607 0.643447 0.100015
0.080073 0.689605 0.085914
0.134151 0.690349 0.086994
0.188941 0.691103 0.088089
0.244164 0.691863 0.089193
0.299698 0.692627 0.090303
0.355478 0.693395 0.091418
0.411459 0.694165 0.092536
0.467614 0.694938 0.093659
0.523918 0.695713 0.094784
0.580355 0.696490 0.095912
0.636912 0.697268 0.097042
0.693577 0.698048 0.098175
0.750342 0.698829 0.099309
0.807198 0.699611 0.100445
0.864139 0.700395 0.101583
0.921160 0.701180 0.102723
0.978255 0.701965 0.103864
0.084729 0.748227 0.089769
0.138807 0.748972 0.090850
0.193598 0.749726 0.091945
0.248820 0.750485 0.093049
0.304354 0.751250 0.094159
0.360134 0.752017 0.095273
0.416116 0.752788 0.096392
0.472270 0.753560 0.097515
0.528574 0.754335 0.098640
0.585012 0.755112 0.099768
0.641568 0.755890 0.100898
0.698234 0.756670 0.102031
0.754998 0.757451 0.103165
0.811855 0.758234 0.104301
0.868796 0.759017 0.105439
0.925816 0.759802 0.106579
0.982911 0.760588 0.107720
0.089393 0.806945 0.093632
0.143471 0.807690 0.094712
0.198262 0.808444 0.095807
0.253484 0.809204 0.096911
0.309018 0.809968 0.098021
0.364798 0.810735 0.099136
0.420780 0.811506 0.100254
0.476934 0.812279 0.101377
0.533238 0.813053 0.102502
0.589676 0.813830 0.103630
0.646233 0.814608 0.104760
0.702898 0.815388 0.105893
0.759662 0.816169 0.107027
0.816519 0.816952 0.108164
0.873460 0.817735 0.109302
0.930480 0.818520 0.110441
0.987575 0.819306 0.111582
0.094064 0.865753 0.097500
0.148142 0.866497 0.098580
0.202933 0.867251 0.099675
0.258155 0.868011 0.100779
0.313690 0.868775 0.101889
0.369469 0.869543 0.103004
0.425451 0.870313 0.104123
0.481605 0.871086 0.105245
0.537910 0.871861 0.106370
0.594347 0.872637 0.107498
0.650904 0.873416 0.108628
0.707569 0.874195 0.109761
0.764333 0.874976 0.110895
0.821190 0.875759 0.112032
0.878131 0.876542 0.113170
0.935152 0.877327 0.114309
0.992247 0.878113 0.115450
0.098742 0.924643 0.101373
0.152820 0.925387 0.102454
0.207611 0.926141 0.103549
0.262833 0.926901 0.104653
0.318367 0.927665 0.105762
0.374147 0.928433 0.106877
0.430129 0.929203 0.107996
0.486283 0.929976 0.109118
0.542587 0.930751 0.110244
0.599025 0.931527 0.111371
0.655581 0.932306 0.112502
0.712247 0.933085 0.113634
0.769011 0.933867 0.114769
0.825867 0.934649 0.115905
0.882809 0.935433 0.117043
0.939829 0.936217 0.118183
0.996924 0.937003 0.119324
0.103426 0.983610 0.105252
0.157504 0.984355 0.106332
0.212295 0.985109 0.107427
0.267517 0.985868 0.108531
0.323051 0.986633 0.109641
0.378831 0.987400 0.110756
0.434813 0.988171 0.111875
0.490967 0.988943 0.112997
0.547271 0.989718 0.114122
0.603708 0.990495 0.115250
0.660265 0.991273 0.116380
0.716930 0.992053 0.117513
0.773695 0.992834 0.118647
0.830551 0.993617 0.119784
0.887493 0.994400 0.120922
0.944513 0.995185 0.122061
1.000000 0.995971 0.123202
0.059895 0.043684 0.104016
0.113193 0.044770 0.104990
0.167194 0.045871 0.105978
0.221620 0.046981 0.106972
0.276354 0.048096 0.107973
0.331329 0.049217 0.108978
0.386504 0.050342 0.109986
0.441848 0.051470 0.110998
0.497341 0.052601 0.112013
0.552965 0.053735 0.113029
0.608706 0.054871 0.114048
0.664554 0.056010 0.115069
0.720500 0.057150 0.116092
0.776537 0.058293 0.117116
0.832657 0.059437 0.118142
0.888856 0.060582 0.119169
0.945128 0.061729 0.120198
0.061675 0.100511 0.107317
0.114973 0.101597 0.108291
0.168974 0.102698 0.109278
0.223400 0.103808 0.110273
0.278134 0.104924 0.111274
0.333109 0.106044 0.112279
0.388284 0.107169 0.113287
0.443629 0.108297 0.114299
0.499121 0.109428 0.115313
0.554745 0.110562 0.116330
0.610486 0.111699 0.117349
0.666335 0.112837 0.118370
0.722281 0.113977 0.119393
0.778317 0.115120 0.120417
0.834438 0.116264 0.121443
0.890636 0.117409 0.122470
0.946908 0.118556 0.123499
0.063482 0.158191 0.110667
0.116780 0.159278 0.111641
0.170781 0.160378 0.112629
0.225207 0.161488 0.113623
0.279941 0.162604 0.114624
0.334916 0.163724 0.115629
0.390091 0.164849 0.116638
0.445436 0.165977 0.117649
0.500928 0.167109 0.118664
0.556552 0.168242 0.119680
0.612293 0.169379 0.120699
0.668142 0.170517 0.121720
0.724088 0.171658 0.122743
0.780124 0.172800 0.123767
0.836245 0.173944 0.124793
0.892443 0.175090 0.125821
0.948715 0.176237 0.126849
0.065305 0.216359 0.114046
0.118603 0.217445 0.115020
0.172604 0.218546 0.116007
0.227030 0.219655 0.117002
0.281763 0.220771 0.118003
0.336739 0.221892 0.119008
0.391914 0.223017 0.120016
0.447258 0.224145 0.121028
0.502751 0.225276 0.122042
0.558374 0.226410 0.123059
0.614116 0.227546 0.124078
0.669964 0.228685 0.125099
0.725910 0.229825 0.126122
0.781947 0.230967 0.127146
0.838067 0.232111 0.128172
0.894266 0.233257 0.129199
0.950537 0.234404 0.130228
0.067138 0.274872 0.117444
0.120436 0.275958 0.118419
0.174437 0.277059 0.119406
0.228863 0.278168 0.120401
0.283597 0.279284 0.121401
0.338572 0.280405 0.122406
0.393747 0.281529 0.123415
0.449091 0.282658 0.124427
0.504584 0.283789 0.125441
0.560207 0.284923 0.126458
0.615949 0.286059 0.127477
0.671797 0.287198 0.128498
0.727743 0.288338 0.129520
0.783780 0.289480 0.130545
0.839900 0.290624 0.131571
0.896099 0.291770 0.132598
0.952371 0.292917 0.133626
0.068979 0.333653 0.120859
0.122277 0.334739 0.121833
0.176278 0.335840 0.122820
0.230704 0.336950 0.123815
0.285438 0.338065 0.124816
0.340414 0.339186 0.125821
0.395588 0.340311 0.126829
0.450933 0.341439 0.127841
0.506425 0.342570 0.128855
0.562049 0.343704 0.129872
0.617790 0.344840 0.130891
0.673639 0.345979 0.131912
0.729585 0.347119 0.132935
0.785621 0.348262 0.133959
0.841742 0.349406 0.134985
0.897940 0.350551 0.136012
0.954212 0.351698 0.137041
0.070828 0.392654 0.124286
0.124126 0.393741 0.125260
0.178127 0.394842 0.126247
0.232553 0.395951 0.127242
0.287287 0.397067 0.128243
0.342262 0.398187 0.129248
0.397437 0.399312 0.130256
0.452781 0.400440 0.131268
0.508274 0.401572 0.132282
0.563898 0.402705 0.133299
0.619639 0.403842 0.134318
0.675487 0.404980 0.135339
0.731433 0.406121 0.136362
0.787470 0.407263 0.137386
0.843590 0.408407 0.138412
0.899789 0.409553 0.139439
0.956061 0.410700 0.140468
0.072682 0.451842 0.127724
0.125980 0.452928 0.128698
0.179981 0.454029 0.129685
0.234407 0.455139 0.130680
0.289141 0.456254 0.131681
0.344116 0.457375 0.132685
0.399291 0.458500 0.133694
0.454636 0.459628 0.134706
0.510128 0.460759 0.135720
0.565752 0.461893 0.136737
0.621493 0.463029 0.137756
0.677342 0.464168 0.138777
0.733288 0.465308 0.139800
0.789324 0.466451 0.140824
0.846070 0.467320 0.141935
0.903090 0.468105 0.143075
0.960185 0.468891 0.144216
0.074542 0.511192 0.131171
0.127840 0.512278 0.132145
0.181841 0.513379 0.133132
0.236267 0.514488 0.134127
0.291000 0.515604 0.135128
0.345976 0.516725 0.136133
0.401150 0.517849 0.137141
0.456495 0.518978 0.138153
0.511988 0.520109 0.139167
0.567611 0.521243 0.140184
0.623460 0.522332 0.141218
0.680125 0.523112 0.142350
0.736890 0.523893 0.143485
0.793746 0.524675 0.144621
0.850688 0.525459 0.145759
0.907708 0.526244 0.146899
0.964803 0.527029 0.148040
0.076405 0.570684 0.134627
0.129704 0.571771 0.135601
0.183704 0.572872 0.136588
0.238130 0.573981 0.137583
0.292864 0.575097 0.138583
0.347840 0.576217 0.139588
0.403014 0.577342 0.140597
0.458791 0.578281 0.141668
0.515095 0.579056 0.142793
0.571533 0.579832 0.143921
0.628089 0.580610 0.145051
0.684755 0.581390 0.146184
0.741519 0.582171 0.147318
0.798375 0.582954 0.148454
0.855317 0.583737 0.149592
0.912337 0.584522 0.150732
0.969432 0.585308 0.151873
0.078273 0.630305 0.138090
0.131571 0.631392 0.139064
0.185572 0.632492 0.140051
0.239998 0.633602 0.141046
0.295514 0.634374 0.142153
0.351294 0.635142 0.143268
0.407276 0.635912 0.144387
0.463430 0.636685 0.145509
0.519734 0.637460 0.146634
0.576172 0.638236 0.147762
0.632728 0.639015 0.148893
0.689394 0.639795 0.150025
0.746158 0.640576 0.151160
0.803015 0.641358 0.152296
0.859956 0.642142 0.153434
0.916976 0.642926 0.154574
0.974071 0.643712 0.155715
0.080537 0.689870 0.141613
0.134615 0.690614 0.142694
0.189406 0.691368 0.143789
0.244628 0.692128 0.144892
0.300163 0.692892 0.146002
0.355942 0.693660 0.147117
0.411924 0.694430 0.148236
0.468078 0.695203 0.149358
0.524383 0.695978 0.150483
0.580820 0.696755 0.151611
0.637377 0.697533 0.152742
0.694042 0.698313 0.153874
0.750806 0.699094 0.155009
0.807663 0.699876 0.156145
0.864604 0.700660 0.157283
0.921625 0.701445 0.158423
0.978720 0.702230 0.159564
0.085194 0.748492 0.145469
0.139272 0.749236 0.146550
0.194062 0.749990 0.147645
0.249285 0.750750 0.148748
0.304819 0.751515 0.149858
0.360599 0.752282 0.150973
0.416580 0.753053 0.152092
0.472735 0.753825 0.153214
0.529039 0.754600 0.154339
0.585476 0.755377 0.155467
0.642033 0.756155 0.156598
0.698698 0.756935 0.157730
0.755463 0.757716 0.158865
0.812319 0.758499 0.160001
0.869260 0.759282 0.161139
0.926281 0.760067 0.162278
0.983376 0.760852 0.163420
0.089858 0.807210 0.149331
0.143936 0.807955 0.150412
0.198727 0.808709 0.151507
0.253949 0.809469 0.152611
0.309483 0.810233 0.153720
0.365263 0.811000 0.154835
0.421245 0.811771 0.155954
0.477399 0.812544 0.157076
0.533703 0.813318 0.158202
0.590140 0.814095 0.159329
0.646697 0.814873 0.160460
0.703362 0.815653 0.161592
0.760127 0.816434 0.162727
0.816983 0.817217 0.163863
0.873924 0.818000 0.165001
0.930945 0.818785 0.166141
0.988040 0.819571 0.167282
0.094529 0.866018 0.153199
0.148607 0.866762 0.154280
0.203398 0.867516 0.155375
0.258620 0.868276 0.156479
0.314154 0.869040 0.157588
0.369934 0.869807 0.158703
0.425916 0.870578 0.159822
0.482070 0.871351 0.160944
0.538374 0.872125 0.162070
0.594811 0.872902 0.163198
0.651368 0.873680 0.164328
0.708033 0.874460 0.165460
0.764798 0.875241 0.166595
0.821654 0.876024 0.167731
0.878596 0.876807 0.168869
0.935616 0.877592 0.170009
0.992711 0.878378 0.171150
0.099207 0.924908 0.157073
0.153284 0.925652 0.158153
0.208075 0.926406 0.159248
0.263298 0.927166 0.160352
0.318832 0.927930 0.161462
0.374611 0.928698 0.162577
0.430593 0.929468 0.163696
0.486748 0.930241 0.164818
0.543052 0.931015 0.165943
0.599489 0.931792 0.167071
0.656046 0.932570 0.168201
0.712711 0.933350 0.169334
0.769476 0.934131 0.170468
0.826332 0.934914 0.171605
0.883273 0.935697 0.172743
0.940294 0.936482 0.173882
0.997389 0.937268 0.175023
0.103891 0.983875 0.160951
0.157968 0.984619 0.162032
0.212759 0.985373 0.163127
0.267981 0.986133 0.164231
0.323516 0.986898 0.165341
0.379295 0.987665 0.166455
0.435277 0.988436 0.167574
0.491431 0.989208 0.168696
0.547736 0.989983 0.169822
0.604173 0.990760 0.170950
0.660730 0.991538 0.172080
0.717395 0.992318 0.173212
0.774160 0.993099 0.174347
0.831016 0.993882 0.175483
0.887957 0.994665 0.176621
0.944978 0.995450 0.177761
1.000000 0.996236 0.178902
0.060084 0.044075 0.160275
0.113382 0.045161 0.161249
0.167383 0.046262 0.162236
0.221809 0.047371 0.163231
0.276543 0.048487 0.164232
0.331518 0.049608 0.165237
0.386693 0.050733 0.166245
0.442037 0.051861 0.167257
0.497530 0.052992 0.168271
0.553154 0.054126 0.169288
