assets/luts/generated_genre/bs_horror_warm_dread_a370da22eb5960cc.cube
# V4 spec-generated LUT — bs_horror_warm_dread
# Genre: horror
# Look: Domestic-wrong horror — warm shadow with sickly green mid. Gioulakis/Hereditary, Midsommar.
# Spec hash: a370da22eb5960cc
TITLE "V4 Spec LUT — bs_horror_warm_dread"
LUT_3D_SIZE 9
DOMAIN_MIN 0.0 0.0 0.0
DOMAIN_MAX 1.0 1.0 1.0
0.059526 0.042921 0.000000
0.166825 0.045108 0.000000
0.275985 0.047334 0.000000
0.386135 0.049579 0.000206
0.496972 0.051838 0.002232
0.608337 0.054109 0.004268
0.720131 0.056387 0.006311
0.832288 0.058674 0.008362
0.944759 0.060966 0.010418
0.063113 0.157428 0.000887
0.170412 0.159616 0.002848
0.279572 0.161841 0.004844
0.389722 0.164086 0.006857
0.500559 0.166346 0.008883
0.611924 0.168616 0.010919
0.723719 0.170895 0.012962
0.835876 0.173181 0.015013
0.948346 0.175474 0.017069
0.066769 0.274109 0.007664
0.174068 0.276296 0.009625
0.283228 0.278521 0.011621
0.393378 0.280767 0.013634
0.504215 0.283026 0.015660
0.615580 0.285296 0.017696
0.727374 0.287575 0.019740
0.839531 0.289862 0.021790
0.952002 0.292154 0.023846
0.070459 0.391891 0.014505
0.177758 0.394079 0.016467
0.286918 0.396304 0.018462
0.397068 0.398549 0.020476
0.507905 0.400809 0.022502
0.619270 0.403079 0.024538
0.731065 0.405358 0.026581
0.843221 0.407644 0.028631
0.955692 0.409937 0.030687
0.074173 0.510429 0.021390
0.181472 0.512616 0.023352
0.290631 0.514841 0.025347
0.400782 0.517087 0.027361
0.511619 0.519346 0.029387
0.622984 0.521616 0.031423
0.735974 0.523370 0.033630
0.849771 0.524936 0.035904
0.963887 0.526507 0.038185
0.077904 0.629542 0.028309
0.185203 0.631730 0.030271
0.294598 0.633852 0.032298
0.406360 0.635390 0.034532
0.518818 0.636937 0.036779
0.631812 0.638492 0.039037
0.745242 0.640053 0.041304
0.859039 0.641619 0.043579
0.973155 0.643190 0.045859
0.084278 0.747970 0.035614
0.193146 0.749468 0.037789
0.303903 0.750992 0.040003
0.415664 0.752530 0.042237
0.528123 0.754078 0.044484
0.641117 0.755633 0.046742
0.754547 0.757194 0.049009
0.868344 0.758760 0.051284
0.982460 0.760330 0.053564
0.093613 0.865495 0.043344
0.202481 0.866993 0.045520
0.313238 0.868517 0.047733
0.424999 0.870055 0.049967
0.537458 0.871603 0.052214
0.650452 0.873158 0.054473
0.763882 0.874719 0.056740
0.877679 0.876285 0.059014
0.991795 0.877855 0.061294
0.102974 0.983353 0.051096
0.211843 0.984851 0.053272
0.322599 0.986375 0.055485
0.434361 0.987913 0.057719
0.546819 0.989461 0.059966
0.659813 0.991016 0.062225
0.773243 0.992577 0.064492
0.887041 0.994143 0.066766
1.000000 0.995713 0.069047
0.059895 0.043684 0.104016
0.167194 0.045871 0.105978
0.276354 0.048096 0.107973
0.386504 0.050342 0.109986
0.497341 0.052601 0.112013
0.608706 0.054871 0.114048
0.720500 0.057150 0.116092
0.832657 0.059437 0.118142
0.945128 0.061729 0.120198
0.063482 0.158191 0.110667
0.170781 0.160378 0.112629
0.279941 0.162604 0.114624
0.390091 0.164849 0.116638
0.500928 0.167109 0.118664
0.612293 0.169379 0.120699
0.724088 0.171658 0.122743
0.836245 0.173944 0.124793
0.948715 0.176237 0.126849
0.067138 0.274872 0.117444
0.174437 0.277059 0.119406
0.283597 0.279284 0.121401
0.393747 0.281529 0.123415
0.504584 0.283789 0.125441
0.615949 0.286059 0.127477
0.727743 0.288338 0.129520
0.839900 0.290624 0.131571
0.952371 0.292917 0.133626
0.070828 0.392654 0.124286
0.178127 0.394842 0.126247
0.287287 0.397067 0.128243
0.397437 0.399312 0.130256
0.508274 0.401572 0.132282
0.619639 0.403842 0.134318
0.731433 0.406121 0.136362
0.843590 0.408407 0.138412
0.956061 0.410700 0.140468
0.074542 0.511192 0.131171
0.181841 0.513379 0.133132
0.291000 0.515604 0.135128
0.401150 0.517849 0.137141
0.511988 0.520109 0.139167
0.623460 0.522332 0.141218
0.736890 0.523893 0.143485
0.850688 0.525459 0.145759
0.964803 0.527029 0.148040
0.078273 0.630305 0.138090
0.185572 0.632492 0.140051
0.295514 0.634374 0.142153
0.407276 0.635912 0.144387
0.519734 0.637460 0.146634
0.632728 0.639015 0.148893
0.746158 0.640576 0.151160
0.859956 0.642142 0.153434
0.974071 0.643712 0.155715
0.085194 0.748492 0.145469
0.194062 0.749990 0.147645
0.304819 0.751515 0.149858
0.416580 0.753053 0.152092
0.529039 0.754600 0.154339
0.642033 0.756155 0.156598
0.755463 0.757716 0.158865
0.869260 0.759282 0.161139
0.983376 0.760852 0.163420
0.094529 0.866018 0.153199
0.203398 0.867516 0.155375
0.314154 0.869040 0.157588
0.425916 0.870578 0.159822
0.538374 0.872125 0.162070
0.651368 0.873680 0.164328
0.764798 0.875241 0.166595
0.878596 0.876807 0.168869
0.992711 0.878378 0.171150
0.103891 0.983875 0.160951
0.212759 0.985373 0.163127
0.323516 0.986898 0.165341
0.435277 0.988436 0.167574
0.547736 0.989983 0.169822
0.660730 0.991538 0.172080
0.774160 0.993099 0.174347
0.887957 0.994665 0.176621
1.000000 0.996236 0.178902
0.060274 0.044468 0.216925
0.167573 0.046656 0.218887
0.276733 0.048881 0.220882
0.386883 0.051126 0.222896
0.497720 0.053386 0.224922
0.609085 0.055656 0.226957
0.720880 0.057935 0.229001
0.833037 0.060221 0.231051
0.945507 0.062514 0.233107
0.063862 0.158976 0.223576
0.171161 0.161163 0.225538
0.280320 0.163388 0.227533
0.390471 0.165634 0.229547
0.501308 0.167893 0.231573
0.612673 0.170163 0.233609
0.724467 0.172442 0.235652
0.836624 0.174728 0.237702
0.949095 0.177021 0.239758
0.067517 0.275656 0.230354
0.174816 0.277843 0.232315
0.283976 0.280069 0.234310
0.394126 0.282314 0.236324
0.504963 0.284573 0.238350
0.616328 0.286844 0.240386
0.728123 0.289122 0.242429
0.840280 0.291409 0.244480
0.952750 0.293701 0.246536
0.071207 0.393439 0.237195
0.178506 0.395626 0.239156
0.287666 0.397851 0.241152
0.397816 0.400097 0.243165
0.508653 0.402356 0.245191
0.620018 0.404626 0.247227
0.731813 0.406905 0.249271
0.843970 0.409191 0.251321
0.956522 0.411448 0.253388
0.074921 0.511976 0.244080
0.182220 0.514163 0.246042
0.291380 0.516389 0.248037
0.401530 0.518634 0.250051
0.512367 0.520893 0.252077
0.624403 0.522869 0.254204
0.737832 0.524430 0.256471
0.851630 0.525996 0.258745
0.965746 0.527567 0.261026
0.078653 0.631090 0.250999
0.185952 0.633277 0.252960
0.296457 0.634912 0.255139
0.408218 0.636450 0.257373
0.520677 0.637997 0.259621
0.633671 0.639552 0.261879
0.747101 0.641113 0.264146
0.860898 0.642679 0.266420
0.975014 0.644249 0.268701
0.086136 0.749030 0.258455
0.195005 0.750528 0.260631
0.305761 0.752052 0.262844
0.417523 0.753590 0.265078
0.529981 0.755138 0.267325
0.642975 0.756692 0.269584
0.756405 0.758253 0.271851
0.870203 0.759819 0.274125
0.984318 0.761390 0.276406
0.095471 0.866555 0.266185
0.204340 0.868053 0.268361
0.315097 0.869577 0.270574
0.426858 0.871115 0.272808
0.539317 0.872663 0.275056
0.652311 0.874218 0.277314
0.765740 0.875779 0.279581
0.879538 0.877345 0.281855
0.993654 0.878915 0.284136
0.104833 0.984413 0.273937
0.213702 0.985911 0.276113
0.324458 0.987435 0.278327
0.436220 0.988973 0.280560
0.548678 0.990521 0.282808
0.661672 0.992076 0.285066
0.775102 0.993636 0.287333
0.888900 0.995202 0.289607
1.000000 0.996773 0.291888
0.060658 0.045261 0.331046
0.167957 0.047449 0.333007
0.277117 0.049674 0.335003
0.387267 0.051919 0.337016
0.498104 0.054179 0.339042
0.609469 0.056449 0.341078
0.721263 0.058728 0.343122
0.833420 0.061014 0.345172
0.945891 0.063307 0.347228
0.064245 0.159769 0.337697
0.171544 0.161956 0.339658
0.280704 0.164181 0.341654
0.390854 0.166427 0.343667
0.501691 0.168686 0.345694
0.613056 0.170956 0.347729
0.724851 0.173235 0.349773
0.837008 0.175521 0.351823
0.949478 0.177814 0.353879
0.067901 0.276449 0.344474
0.175200 0.278636 0.346436
0.284360 0.280861 0.348431
0.394510 0.283107 0.350445
0.505347 0.285366 0.352471
0.616712 0.287636 0.354507
0.728506 0.289915 0.356550
0.840663 0.292202 0.358600
0.953134 0.294494 0.360656
0.071591 0.394232 0.351316
0.178890 0.396419 0.353277
0.288050 0.398644 0.355273
0.398200 0.400890 0.357286
0.509037 0.403149 0.359312
0.620402 0.405419 0.361348
0.732196 0.407698 0.363392
0.844353 0.409984 0.365442
0.957475 0.411991 0.367587
0.075305 0.512769 0.358201
0.182604 0.514956 0.360162
0.291763 0.517182 0.362158
0.401913 0.519427 0.364171
0.512751 0.521686 0.366197
0.625355 0.523412 0.368402
0.738785 0.524973 0.370669
0.852582 0.526539 0.372944
0.966698 0.528110 0.375224
0.079036 0.631883 0.365120
0.186653 0.633931 0.367124
0.297409 0.635455 0.369338
0.409171 0.636993 0.371571
0.521629 0.638540 0.373819
0.634623 0.640095 0.376077
0.748053 0.641656 0.378344
0.861851 0.643222 0.380618
0.975966 0.644793 0.382899
0.087089 0.749573 0.372653
0.195957 0.751071 0.374829
0.306714 0.752595 0.377043
0.418475 0.754133 0.379276
0.530934 0.755681 0.381524
0.643928 0.757236 0.383782
0.757358 0.758797 0.386049
0.871155 0.760363 0.388323
0.985271 0.761933 0.390604
0.096424 0.867098 0.380384
0.205293 0.868596 0.382559
0.316049 0.870120 0.384773
0.427811 0.871658 0.387007
0.540269 0.873206 0.389254
0.653263 0.874761 0.391512
0.766693 0.876322 0.393779
0.880491 0.877888 0.396054
0.994606 0.879458 0.398334
0.105786 0.984956 0.388136
0.214654 0.986454 0.390312
0.325411 0.987978 0.392525
0.437172 0.989516 0.394759
0.549631 0.991064 0.397006
0.662625 0.992619 0.399264
0.776055 0.994180 0.401531
0.889852 0.995746 0.403806
1.000000 0.997316 0.406086
0.061044 0.046060 0.445961
0.168343 0.048247 0.447922
0.277503 0.050472 0.449918
0.387653 0.052718 0.451931
0.498490 0.054977 0.453957
0.609855 0.057247 0.455993
0.721650 0.059526 0.458037
0.833806 0.061812 0.460087
0.946277 0.064105 0.462143
0.064631 0.160567 0.452612
0.171930 0.162754 0.454573
0.281090 0.164980 0.456569
0.391240 0.167225 0.458582
0.502077 0.169484 0.460608
0.613443 0.171755 0.462644
0.725237 0.174034 0.464688
0.837394 0.176320 0.466738
0.949864 0.178613 0.468794
0.068287 0.277247 0.459389
0.175586 0.279435 0.461351
0.284746 0.281660 0.463346
0.394896 0.283905 0.465359
0.505733 0.286165 0.467386
0.617098 0.288435 0.469421
0.728893 0.290714 0.471465
0.841049 0.293000 0.473515
0.953520 0.295293 0.475571
0.071977 0.395030 0.466230
0.179276 0.397217 0.468192
0.288436 0.399443 0.470187
0.398586 0.401688 0.472201
0.509423 0.403947 0.474227
0.620788 0.406218 0.476263
0.732583 0.408497 0.478306
0.844739 0.410783 0.480356
0.958434 0.412538 0.482580
0.075691 0.513567 0.473116
0.182990 0.515755 0.475077
0.292149 0.517980 0.477072
0.402300 0.520225 0.479086
0.513320 0.522404 0.481137
0.626314 0.523959 0.483395
0.739744 0.525520 0.485662
0.853542 0.527086 0.487937
0.967657 0.528657 0.490217
0.079423 0.632681 0.480034
0.187612 0.634477 0.482117
0.298369 0.636002 0.484331
0.410130 0.637540 0.486564
0.522588 0.639087 0.488812
0.635583 0.640642 0.491070
0.749012 0.642203 0.493337
0.862810 0.643769 0.495611
0.976926 0.645340 0.497892
0.088048 0.750120 0.487646
0.196917 0.751618 0.489822
0.307673 0.753142 0.492036
0.419435 0.754680 0.494269
0.531893 0.756228 0.496517
0.644887 0.757783 0.498775
0.758317 0.759343 0.501042
0.872114 0.760909 0.503316
0.986230 0.762480 0.505597
0.097383 0.867645 0.495377
0.206252 0.869143 0.497552
0.317008 0.870667 0.499766
0.428770 0.872205 0.502000
0.541228 0.873753 0.504247
0.654222 0.875308 0.506505
0.767652 0.876869 0.508772
0.881450 0.878435 0.511047
0.995565 0.880005 0.513327
0.106745 0.985503 0.503129
0.215613 0.987001 0.505304
0.326370 0.988525 0.507518
0.438131 0.990063 0.509752
0.550590 0.991611 0.511999
0.663584 0.993166 0.514257
0.777014 0.994727 0.516524
0.890811 0.996293 0.518799
1.000000 0.997863 0.521079
0.061432 0.046862 0.561469
0.168731 0.049050 0.563431
0.277891 0.051275 0.565426
0.388041 0.053520 0.567440
0.498878 0.055780 0.569466
0.610243 0.058050 0.571502
0.722038 0.060329 0.573545
0.834195 0.062615 0.575595
0.946665 0.064908 0.577651
0.065020 0.161370 0.568121
0.172319 0.163557 0.570082
0.281478 0.165782 0.572077
0.391629 0.168028 0.574091
0.502466 0.170287 0.576117
0.613831 0.172557 0.578153
0.725625 0.174836 0.580196
0.837782 0.177122 0.582247
0.950252 0.179415 0.584303
0.068675 0.278050 0.574898
0.175974 0.280237 0.576859
0.285134 0.282463 0.578855
0.395284 0.284708 0.580868
0.506121 0.286967 0.582894
0.617486 0.289238 0.584930
0.729281 0.291516 0.586974
0.841438 0.293803 0.589024
0.953908 0.296095 0.591080
0.072365 0.395833 0.581739
0.179664 0.398020 0.583701
0.288824 0.400245 0.585696
0.398974 0.402491 0.587710
0.509811 0.404750 0.589736
0.621176 0.407020 0.591771
0.732971 0.409299 0.593815
0.845282 0.411518 0.595886
0.959398 0.413088 0.598167
0.076079 0.514370 0.588624
0.183378 0.516557 0.590586
0.292538 0.518783 0.592581
0.402688 0.521028 0.594595
0.514284 0.522954 0.596725
0.627278 0.524509 0.598983
0.740708 0.526070 0.601250
0.854506 0.527636 0.603524
0.968621 0.529206 0.605805
0.079811 0.633484 0.595543
0.188576 0.635027 0.597705
0.299333 0.636551 0.599918
0.411094 0.638089 0.602152
0.523553 0.639637 0.604399
0.636547 0.641192 0.606658
0.749977 0.642753 0.608925
0.863774 0.644319 0.611199
0.977890 0.645889 0.613479
0.089012 0.750669 0.603234
0.197881 0.752168 0.605410
0.308637 0.753692 0.607623
0.420399 0.755230 0.609857
0.532857 0.756777 0.612104
0.645851 0.758332 0.614362
0.759281 0.759893 0.616629
0.873079 0.761459 0.618904
0.987194 0.763030 0.621184
0.098347 0.868195 0.610964
0.207216 0.869693 0.613140
0.317972 0.871217 0.615353
0.429734 0.872755 0.617587
0.542192 0.874303 0.619834
0.655186 0.875858 0.622093
0.768616 0.877418 0.624360
0.882414 0.878985 0.626634
0.996529 0.880555 0.628915
0.107709 0.986052 0.618716
0.216577 0.987551 0.620892
0.327334 0.989075 0.623105
0.439095 0.990613 0.625339
0.551554 0.992160 0.627587
0.664548 0.993715 0.629845
0.777978 0.995276 0.632112
0.891775 0.996842 0.634386
1.000000 0.998413 0.636667
0.061822 0.047668 0.677454
0.169121 0.049855 0.679415
0.278281 0.052081 0.681411
0.388431 0.054326 0.683424
0.499268 0.056585 0.685450
0.610633 0.058856 0.687486
0.722428 0.061135 0.689530
0.834584 0.063421 0.691580
0.947055 0.065714 0.693636
0.065409 0.162176 0.684105
0.172708 0.164363 0.686066
0.281868 0.166588 0.688062
0.392018 0.168833 0.690075
0.502855 0.171093 0.692101
0.614221 0.173363 0.694137
0.726015 0.175642 0.696181
0.838172 0.177928 0.698231
0.950642 0.180221 0.700287
0.069065 0.278856 0.690882
0.176364 0.281043 0.692844
0.285524 0.283268 0.694839
0.395674 0.285514 0.696853
0.506511 0.287773 0.698879
0.617876 0.290043 0.700914
0.729671 0.292322 0.702958
0.841827 0.294609 0.705008
0.954298 0.296901 0.707064
0.072755 0.396639 0.697723
0.180054 0.398826 0.699685
0.289214 0.401051 0.701680
0.399364 0.403297 0.703694
0.510201 0.405556 0.705720
0.621566 0.407826 0.707756
0.733361 0.410105 0.709799
0.846250 0.412070 0.711950
0.960366 0.413640 0.714230
0.076469 0.515176 0.704609
0.183768 0.517363 0.706570
0.292927 0.519588 0.708566
0.403078 0.521834 0.710579
0.515252 0.523506 0.712788
0.628247 0.525061 0.715046
0.741676 0.526622 0.717313
0.855474 0.528188 0.719587
0.969589 0.529758 0.721868
0.080676 0.634081 0.711592
0.189544 0.635579 0.713768
0.300301 0.637103 0.715982
0.412062 0.638641 0.718215
0.524521 0.640189 0.720463
0.637515 0.641744 0.722721
0.750945 0.643305 0.724988
0.864742 0.644871 0.727262
0.978858 0.646441 0.729543
0.089980 0.751221 0.719297
0.198849 0.752720 0.721473
0.309605 0.754244 0.723686
0.421367 0.755782 0.725920
0.533825 0.757329 0.728168
0.646819 0.758884 0.730426
0.760249 0.760445 0.732693
0.874047 0.762011 0.734967
0.988162 0.763582 0.737248
0.099315 0.868747 0.727027
0.208184 0.870245 0.729203
0.318940 0.871769 0.731417
0.430702 0.873307 0.733650
0.543160 0.874855 0.735898
0.656155 0.876410 0.738156
0.769584 0.877970 0.740423
0.883382 0.879536 0.742697
0.997497 0.881107 0.744978
0.108677 0.986604 0.734779
0.217546 0.988103 0.736955
0.328302 0.989627 0.739169
0.440064 0.991165 0.741402
0.552522 0.992712 0.743650
0.665516 0.994267 0.745908
0.778946 0.995828 0.748175
0.892743 0.997394 0.750449
1.000000 0.998965 0.752730
0.062213 0.048477 0.793835
0.169512 0.050664 0.795797
0.278672 0.052889 0.797792
0.388822 0.055135 0.799806
0.499659 0.057394 0.801832
0.611024 0.059664 0.803867
0.722819 0.061943 0.805911
0.834976 0.064230 0.807961
0.947446 0.066522 0.810017
0.065801 0.162984 0.800486
0.173100 0.165171 0.802448
0.282259 0.167397 0.804443
0.392409 0.169642 0.806457
0.503247 0.171902 0.808483
0.614612 0.174172 0.810518
0.726406 0.176451 0.812562
0.838563 0.178737 0.814612
0.951033 0.181030 0.816668
0.069456 0.279665 0.807264
0.176755 0.281852 0.809225
0.285915 0.284077 0.811220
0.396065 0.286322 0.813234
0.506902 0.288582 0.815260
0.618267 0.290852 0.817296
0.730062 0.293131 0.819339
0.842219 0.295417 0.821390
0.954689 0.297710 0.823446
0.073146 0.397447 0.814105
0.180445 0.399635 0.816066
0.289605 0.401860 0.818062
0.399755 0.404105 0.820075
0.510592 0.406365 0.822101
0.621957 0.408635 0.824137
0.733752 0.410914 0.826181
0.847222 0.412623 0.828410
0.961337 0.414194 0.830691
0.076860 0.515985 0.820990
0.184159 0.518172 0.822951
0.293319 0.520397 0.824947
0.403765 0.522512 0.827001
0.516224 0.524060 0.829248
0.629218 0.525615 0.831507
0.742648 0.527176 0.833774
0.856445 0.528742 0.836048
0.970561 0.530312 0.838329
0.081647 0.634635 0.828053
0.190516 0.636133 0.830229
0.301272 0.637657 0.832442
0.413034 0.639195 0.834676
0.525492 0.640743 0.836923
0.638486 0.642298 0.839182
0.751916 0.643859 0.841448
0.865714 0.645425 0.843723
0.979829 0.646995 0.846003
0.090952 0.751775 0.835758
0.199820 0.753273 0.837933
0.310577 0.754798 0.840147
0.422338 0.756336 0.842381
0.534797 0.757883 0.844628
0.647791 0.759438 0.846886
0.761221 0.760999 0.849153
0.875018 0.762565 0.851428
0.989134 0.764135 0.853708
0.100287 0.869300 0.843488
0.209155 0.870799 0.845664
0.319912 0.872323 0.847877
0.431673 0.873861 0.850111
0.544132 0.875408 0.852358
0.657126 0.876963 0.854617
0.770556 0.878524 0.856884
0.884353 0.880090 0.859158
0.998469 0.881661 0.861439
0.109648 0.987158 0.851240
0.218517 0.988656 0.853416
0.329273 0.990181 0.855629
0.441035 0.991719 0.857863
0.553493 0.993266 0.860110
0.666487 0.994821 0.862369
0.779917 0.996382 0.864636
0.893715 0.997948 0.866910
1.000000 0.999519 0.869191
0.062605 0.049288 0.910557
0.169904 0.051475 0.912519
0.279064 0.053700 0.914514
0.389214 0.055946 0.916528
0.500051 0.058205 0.918554
0.611416 0.060475 0.920590
0.723211 0.062754 0.922633
0.835368 0.065041 0.924683
0.947838 0.067333 0.926739
0.066193 0.163795 0.917209
0.173492 0.165983 0.919170
0.282652 0.168208 0.921165
0.392802 0.170453 0.923179
0.503639 0.172713 0.925205
0.615004 0.174983 0.927241
0.726798 0.177262 0.929284
0.838955 0.179548 0.931335
0.951426 0.181841 0.933391
0.069848 0.280476 0.923986
0.177147 0.282663 0.925947
0.286307 0.284888 0.927943
0.396457 0.287133 0.929956
0.507294 0.289393 0.931982
0.618659 0.291663 0.934018
0.730454 0.293942 0.936062
0.842611 0.296228 0.938112
0.955081 0.298521 0.940168
0.073538 0.398258 0.930827
0.180837 0.400446 0.932789
0.289997 0.402671 0.934784
0.400147 0.404916 0.936798
0.510984 0.407176 0.938824
0.622349 0.409446 0.940859
0.734399 0.411613 0.942938
0.848196 0.413179 0.945212
0.962312 0.414749 0.947493
0.077252 0.516796 0.937712
0.184551 0.518983 0.939674
0.293711 0.521208 0.941669
0.404740 0.523068 0.943803
0.517198 0.524615 0.946050
0.630192 0.526170 0.948308
0.743622 0.527731 0.950575
0.857419 0.529297 0.952850
0.971535 0.530868 0.955130
0.082621 0.635190 0.944855
0.191490 0.636689 0.947030
0.302246 0.638213 0.949244
0.414008 0.639751 0.951478
0.526466 0.641298 0.953725
0.639460 0.642853 0.955983
0.752890 0.644414 0.958250
0.866688 0.645980 0.960525
0.980803 0.647551 0.962805
0.091926 0.752331 0.952559
0.200794 0.753829 0.954735
0.311551 0.755353 0.956949
0.423312 0.756891 0.959182
0.535771 0.758439 0.961430
0.648765 0.759994 0.963688
0.762195 0.761555 0.965955
0.875992 0.763121 0.968229
0.990108 0.764691 0.970510
0.101261 0.869856 0.960290
0.210130 0.871354 0.962466
0.320886 0.872878 0.964679
0.432648 0.874416 0.966913
0.545106 0.875964 0.969160
0.658100 0.877519 0.971418
0.771530 0.879080 0.973685
0.885328 0.880646 0.975960
0.999443 0.882216 0.978240
0.110623 0.987714 0.968042
0.219491 0.989212 0.970218
0.330248 0.990736 0.972431
0.442009 0.992274 0.974665
0.554468 0.993822 0.976912
0.667462 0.995377 0.979171
0.780892 0.996938 0.981437
0.894689 0.998504 0.983712
1.000000 1.000000 0.985992
