assets/luts/generated_genre/bs_horror_clinical_pale_acd3330fac7f3553.cube
# V4 spec-generated LUT — bs_horror_clinical_pale
# Genre: horror
# Look: Sickly clinical horror — drained skin, off-kilter green tint. Young/It Comes At Night, Saint Maud.
# Spec hash: acd3330fac7f3553
TITLE "V4 Spec LUT — bs_horror_clinical_pale"
LUT_3D_SIZE 5
DOMAIN_MIN 0.0 0.0 0.0
DOMAIN_MAX 1.0 1.0 1.0
0.000000 0.013987 0.000000
0.187275 0.021465 0.003666
0.412414 0.030119 0.011395
0.641433 0.038922 0.019258
0.872956 0.047821 0.027207
0.015957 0.234127 0.020207
0.210495 0.241605 0.026886
0.435634 0.250259 0.034615
0.664653 0.259062 0.042478
0.896176 0.267961 0.050427
0.041721 0.478383 0.045971
0.236259 0.485861 0.052650
0.461398 0.494515 0.060379
0.690447 0.503283 0.068261
0.923282 0.510642 0.077046
0.068597 0.725960 0.072601
0.264237 0.732143 0.079983
0.490651 0.739299 0.088526
0.720968 0.746579 0.097216
0.953803 0.753938 0.106001
0.099447 0.971879 0.101868
0.295087 0.978063 0.109249
0.521501 0.985219 0.117792
0.751818 0.992499 0.126482
0.984653 0.999858 0.135267
0.000000 0.016569 0.190293
0.189581 0.024047 0.196972
0.414720 0.032701 0.204702
0.643739 0.041504 0.212565
0.875263 0.050403 0.220513
0.018263 0.236709 0.213513
0.212801 0.244187 0.220192
0.437940 0.252841 0.227922
0.666959 0.261644 0.235785
0.898483 0.270543 0.243733
0.044027 0.480965 0.239277
0.238565 0.488443 0.245956
0.463704 0.497097 0.253686
0.693134 0.505418 0.261810
0.925969 0.512777 0.270595
0.071283 0.728095 0.266150
0.266923 0.734278 0.273532
0.493338 0.741434 0.282075
0.723655 0.748714 0.290765
0.956490 0.756073 0.299550
0.102133 0.974014 0.295417
0.297773 0.980198 0.302798
0.524188 0.987354 0.311341
0.754505 0.994634 0.320031
0.987340 1.000000 0.328816
0.000000 0.019494 0.409317
0.192194 0.026972 0.415996
0.417333 0.035626 0.423726
0.646352 0.044429 0.431588
0.877875 0.053329 0.439537
0.020876 0.239635 0.432537
0.215414 0.247112 0.439216
0.440553 0.255766 0.446946
0.669572 0.264569 0.454808
0.901096 0.273469 0.462757
0.046640 0.483891 0.458301
0.241178 0.491368 0.464980
0.466317 0.500022 0.472709
0.696178 0.507837 0.481109
0.929013 0.515196 0.489894
0.074328 0.730514 0.485449
0.269968 0.736697 0.492830
0.496382 0.743854 0.501373
0.726699 0.751133 0.510063
0.959534 0.758492 0.518848
0.105178 0.976434 0.514715
0.300817 0.982617 0.522097
0.527232 0.989773 0.530640
0.757549 0.997053 0.539330
0.990384 1.000000 0.548115
0.000313 0.022470 0.632074
0.194851 0.029947 0.638753
0.419990 0.038601 0.646482
0.649010 0.047404 0.654345
0.880533 0.056304 0.662294
0.023533 0.242610 0.655294
0.218071 0.250088 0.661973
0.443210 0.258742 0.669702
0.672230 0.267545 0.677565
0.903753 0.276444 0.685514
0.049297 0.486866 0.681058
0.243835 0.494344 0.687737
0.468974 0.502998 0.695466
0.699274 0.510297 0.704145
0.932109 0.517656 0.712930
0.077424 0.732974 0.708485
0.273063 0.739158 0.715867
0.499478 0.746314 0.724410
0.729795 0.753593 0.733100
0.962630 0.760952 0.741885
0.108274 0.978894 0.737752
0.303913 0.985077 0.745133
0.530328 0.992234 0.753676
0.760645 0.999513 0.762366
0.993480 1.000000 0.771151
0.003000 0.025477 0.857249
0.197538 0.032955 0.863928
0.422677 0.041609 0.871658
0.651696 0.050412 0.879521
0.883219 0.059311 0.887469
0.026220 0.245617 0.880469
0.220758 0.253095 0.887148
0.445897 0.261749 0.894878
0.674916 0.270552 0.902741
0.906439 0.279452 0.910689
0.051984 0.489873 0.906233
0.246521 0.497351 0.912912
0.472087 0.505505 0.920913
0.702403 0.512784 0.929603
0.935238 0.520143 0.938388
0.080553 0.735461 0.933943
0.276193 0.741645 0.941325
0.502608 0.748801 0.949868
0.732924 0.756080 0.958558
0.965759 0.763439 0.967343
0.111403 0.981381 0.963210
0.307043 0.987564 0.970591
0.533458 0.994721 0.979134
0.763774 1.000000 0.987824
0.996609 1.000000 0.996609
