assets/luts/generated_genre/bs_noir_classic_bw_silver_34c0e45b6a8bed87.cube
# V4 spec-generated LUT — bs_noir_classic_bw_silver
# Genre: noir
# Look: Classic noir — silver desaturated, hard shadow, fated. Kamiński/Schindler's List, Mank.
# Spec hash: 34c0e45b6a8bed87
TITLE "V4 Spec LUT — bs_noir_classic_bw_silver"
LUT_3D_SIZE 9
DOMAIN_MIN 0.0 0.0 0.0
DOMAIN_MAX 1.0 1.0 1.0
0.000000 0.000000 0.000000
0.007718 0.005347 0.005837
0.041980 0.032860 0.033322
0.078658 0.062312 0.062743
0.116725 0.092880 0.093278
0.155790 0.124249 0.124615
0.195640 0.156248 0.156581
0.236139 0.188769 0.189068
0.277194 0.221737 0.222001
0.028187 0.030557 0.028653
0.040219 0.040219 0.038304
0.074481 0.067732 0.065789
0.111159 0.097183 0.095210
0.149226 0.127751 0.125745
0.188291 0.159120 0.157082
0.228141 0.191120 0.189048
0.268640 0.223641 0.221535
0.309695 0.256608 0.254468
0.120742 0.129863 0.121112
0.132774 0.139524 0.130763
0.167037 0.167037 0.158247
0.203714 0.196489 0.187669
0.241781 0.227056 0.218204
0.280846 0.258425 0.249541
0.320696 0.290425 0.281507
0.361196 0.322946 0.313994
0.402251 0.355913 0.346927
0.219820 0.236166 0.220086
0.231852 0.245827 0.229738
0.266114 0.273340 0.257222
0.302792 0.302792 0.286643
0.340859 0.333359 0.317179
0.379924 0.364729 0.348515
0.419774 0.396728 0.380481
0.460273 0.429249 0.412968
0.501328 0.462216 0.445901
0.322652 0.346497 0.322811
0.334683 0.356158 0.332462
0.368946 0.383671 0.359946
0.405623 0.413122 0.389367
0.443690 0.443690 0.419903
0.482755 0.475059 0.451239
0.522605 0.507059 0.483205
0.563105 0.539580 0.515692
0.604160 0.572547 0.548625
0.428179 0.459720 0.428228
0.440211 0.469381 0.437879
0.474474 0.496894 0.465364
0.511151 0.526346 0.494785
0.549218 0.556914 0.525320
0.588283 0.588283 0.556657
0.628133 0.620282 0.588623
0.668632 0.652803 0.621110
0.709688 0.685771 0.654043
0.535828 0.575219 0.535764
0.547859 0.584880 0.545415
0.582122 0.612393 0.572900
0.618799 0.641845 0.602321
0.656866 0.672412 0.632856
0.695931 0.703782 0.664193
0.735781 0.735781 0.696159
0.776281 0.768302 0.728646
0.817336 0.801269 0.761579
0.645231 0.692600 0.645053
0.657262 0.702262 0.654704
0.691525 0.729775 0.682188
0.728202 0.759226 0.711610
0.766269 0.789794 0.742145
0.805334 0.821163 0.773482
0.845184 0.853163 0.805448
0.885684 0.885684 0.837935
0.926739 0.918651 0.870868
0.756134 0.811592 0.755841
0.768166 0.821253 0.765492
0.802429 0.848766 0.792977
0.839106 0.878218 0.822398
0.877173 0.908786 0.852933
0.916238 0.940155 0.884270
0.956088 0.972154 0.916236
0.996587 1.000000 0.948723
1.000000 1.000000 0.981656
0.000000 0.000000 0.001834
0.010999 0.008628 0.011485
0.045261 0.036141 0.038969
0.081939 0.065593 0.068390
0.120006 0.096161 0.098926
0.159071 0.127530 0.130263
0.198921 0.159529 0.162229
0.239420 0.192050 0.194716
0.280475 0.225018 0.227649
0.031468 0.033838 0.034301
0.043500 0.043500 0.043952
0.077762 0.071013 0.071436
0.114440 0.100464 0.100858
0.152507 0.131032 0.131393
0.191572 0.162401 0.162730
0.231422 0.194401 0.194696
0.271921 0.226922 0.227183
0.312976 0.259889 0.260116
0.124023 0.133144 0.126760
0.136055 0.142805 0.136411
0.170318 0.170318 0.163895
0.206995 0.199770 0.193316
0.245062 0.230337 0.223852
0.284127 0.261706 0.255188
0.323977 0.293706 0.287155
0.364477 0.326227 0.319642
0.405532 0.359194 0.352574
0.223101 0.239447 0.225734
0.235133 0.249108 0.235385
0.269395 0.276621 0.262870
0.306073 0.306073 0.292291
0.344140 0.336640 0.322826
0.383205 0.368010 0.354163
0.423055 0.400009 0.386129
0.463554 0.432530 0.418616
0.504609 0.465497 0.451549
0.325933 0.349778 0.328458
0.337964 0.359439 0.338110
0.372227 0.386952 0.365594
0.408904 0.416403 0.395015
0.446971 0.446971 0.425551
0.486036 0.478340 0.456887
0.525886 0.510340 0.488853
0.566386 0.542861 0.521340
0.607441 0.575828 0.554273
0.431460 0.463001 0.433876
0.443492 0.472662 0.443527
0.477755 0.500175 0.471011
0.514432 0.529627 0.500433
0.552499 0.560195 0.530968
0.591564 0.591564 0.562305
0.631414 0.623563 0.594271
0.671913 0.656084 0.626758
0.712969 0.689052 0.659691
0.539109 0.578500 0.541412
0.551140 0.588161 0.551063
0.585403 0.615674 0.578547
0.622080 0.645126 0.607968
0.660147 0.675693 0.638504
0.699212 0.707063 0.669841
0.739062 0.739062 0.701807
0.779562 0.771583 0.734294
0.820617 0.804550 0.767227
0.648512 0.695881 0.650701
0.660543 0.705543 0.660352
0.694806 0.733056 0.687836
0.731483 0.762507 0.717257
0.769550 0.793075 0.747793
0.808615 0.824444 0.779129
0.848465 0.856444 0.811096
0.888965 0.888965 0.843583
0.930020 0.921932 0.876516
0.759415 0.814873 0.761489
0.771447 0.824534 0.771140
0.805710 0.852047 0.798624
0.842387 0.881499 0.828045
0.880454 0.912067 0.858581
0.919519 0.943436 0.889918
0.959369 0.975435 0.921884
0.999868 1.000000 0.954371
1.000000 1.000000 0.987304
0.008311 0.008311 0.017918
0.020342 0.017972 0.027569
0.054605 0.045485 0.055053
0.091282 0.074937 0.084474
0.129349 0.105504 0.115010
0.168414 0.136873 0.146346
0.208264 0.168873 0.178312
0.248764 0.201394 0.210799
0.289819 0.234361 0.243732
0.040812 0.043182 0.050385
0.052843 0.052843 0.060036
0.087106 0.080356 0.087520
0.123783 0.109808 0.116941
0.161850 0.140375 0.147477
0.200915 0.171745 0.178813
0.240765 0.203744 0.210779
0.281265 0.236265 0.243267
0.322320 0.269232 0.276199
0.133367 0.142487 0.142843
0.145398 0.152148 0.152495
0.179661 0.179661 0.179979
0.216339 0.209113 0.209400
0.254405 0.239681 0.239936
0.293470 0.271050 0.271272
0.333320 0.303049 0.303238
0.373820 0.335570 0.335725
0.414875 0.368538 0.368658
0.232445 0.248790 0.241818
0.244476 0.258452 0.251469
0.278739 0.285965 0.278953
0.315416 0.315416 0.308374
0.353483 0.345984 0.338910
0.392548 0.377353 0.370246
0.432398 0.409353 0.402213
0.472898 0.441874 0.434700
0.513953 0.474841 0.467632
0.335276 0.359121 0.344542
0.347308 0.368782 0.354193
0.381570 0.396295 0.381677
0.418248 0.425747 0.411099
0.456315 0.456315 0.441634
0.495380 0.487684 0.472971
0.535230 0.519683 0.504937
0.575729 0.552204 0.537424
0.616784 0.585172 0.570357
0.440804 0.472345 0.449960
0.452835 0.482006 0.459611
0.487098 0.509519 0.487095
0.523775 0.538971 0.516516
0.561842 0.569538 0.547052
0.600907 0.600907 0.578388
0.640757 0.632907 0.610354
0.681257 0.665428 0.642842
0.722312 0.698395 0.675774
0.548452 0.587843 0.557496
0.560484 0.597505 0.567147
0.594746 0.625018 0.594631
0.631424 0.654469 0.624052
0.669491 0.685037 0.654588
0.708556 0.716406 0.685924
0.748406 0.748406 0.717890
0.788905 0.780927 0.750377
0.829960 0.813894 0.783310
0.657855 0.705225 0.666784
0.669887 0.714886 0.676436
0.704149 0.742399 0.703920
0.740827 0.771851 0.733341
0.778894 0.802419 0.763877
0.817959 0.833788 0.795213
0.857809 0.865787 0.827179
0.898308 0.898308 0.859666
0.939363 0.931275 0.892599
0.768759 0.824217 0.777573
0.780790 0.833878 0.787224
0.815053 0.861391 0.814708
0.851730 0.890843 0.844129
0.889797 0.921410 0.874665
0.928862 0.952779 0.906001
0.968712 0.984779 0.937967
1.000000 1.000000 0.970454
1.000000 1.000000 1.000000
0.018313 0.018313 0.035135
0.030344 0.027974 0.044786
0.064607 0.055487 0.072270
0.101284 0.084939 0.101691
0.139351 0.115506 0.132227
0.178416 0.146875 0.163563
0.218266 0.178875 0.195529
0.258766 0.211396 0.228017
0.299821 0.244363 0.260949
0.050814 0.053184 0.067602
0.062845 0.062845 0.077253
0.097108 0.090358 0.104737
0.133785 0.119810 0.134158
0.171852 0.150377 0.164694
0.210917 0.181747 0.196030
0.250767 0.213746 0.227996
0.291267 0.246267 0.260484
0.332322 0.279234 0.293416
0.143369 0.152489 0.160061
0.155400 0.162150 0.169712
0.189663 0.189663 0.197196
0.226341 0.219115 0.226617
0.264407 0.249683 0.257153
0.303472 0.281052 0.288489
0.343322 0.313051 0.320455
0.383822 0.345572 0.352942
0.424877 0.378540 0.385875
0.242447 0.258792 0.259035
0.254478 0.268454 0.268686
0.288741 0.295966 0.296170
0.325418 0.325418 0.325591
0.363485 0.355986 0.356127
0.402550 0.387355 0.387464
0.442400 0.419354 0.419430
0.482900 0.451876 0.451917
0.523955 0.484843 0.484850
0.345278 0.369123 0.361759
0.357310 0.378784 0.371410
0.391572 0.406297 0.398894
0.428250 0.435749 0.428316
0.466317 0.466317 0.458851
0.505382 0.497686 0.490188
0.545232 0.529685 0.522154
0.585731 0.562206 0.554641
0.626786 0.595173 0.587574
0.450806 0.482347 0.467177
0.462837 0.492008 0.476828
0.497100 0.519521 0.504312
0.533777 0.548973 0.533733
0.571844 0.579540 0.564269
0.610909 0.610909 0.595605
0.650759 0.642909 0.627571
0.691259 0.675430 0.660059
0.732314 0.708397 0.692991
0.558454 0.597845 0.574713
0.570486 0.607507 0.584364
0.604748 0.635020 0.611848
0.641426 0.664471 0.641269
0.679493 0.695039 0.671805
0.718558 0.726408 0.703141
0.758408 0.758408 0.735107
0.798907 0.790929 0.767594
0.839962 0.823896 0.800527
0.667857 0.715227 0.684002
0.679889 0.724888 0.693653
0.714151 0.752401 0.721137
0.750829 0.781853 0.750558
0.788896 0.812420 0.781094
0.827961 0.843790 0.812430
0.867811 0.875789 0.844396
0.908310 0.908310 0.876883
0.949365 0.941277 0.909816
0.778761 0.834219 0.794790
0.790792 0.843880 0.804441
0.825055 0.871393 0.831925
0.861732 0.900845 0.861346
0.899799 0.931412 0.891882
0.938864 0.962781 0.923218
0.978714 0.994781 0.955184
1.000000 1.000000 0.987671
1.000000 1.000000 1.000000
0.028694 0.028694 0.053004
0.040725 0.038355 0.062655
0.074988 0.065868 0.090139
0.111665 0.095320 0.119560
0.149732 0.125887 0.150096
0.188797 0.157256 0.181433
0.228647 0.189256 0.213399
0.269147 0.221777 0.245886
0.310202 0.254744 0.278819
0.061195 0.063565 0.085471
0.073226 0.073226 0.095122
0.107489 0.100739 0.122606
0.144166 0.130191 0.152028
0.182233 0.160758 0.182563
0.221298 0.192128 0.213900
0.261148 0.224127 0.245866
0.301648 0.256648 0.278353
0.342703 0.289615 0.311286
0.153750 0.162870 0.177930
0.165781 0.172531 0.187581
0.200044 0.200044 0.215065
0.236721 0.229496 0.244486
0.274788 0.260064 0.275022
0.313853 0.291433 0.306358
0.353703 0.323432 0.338325
0.394203 0.355953 0.370812
0.435258 0.388920 0.403745
0.252828 0.269173 0.276904
0.264859 0.278834 0.286555
0.299122 0.306347 0.314040
0.335799 0.335799 0.343461
0.373866 0.366367 0.373996
0.412931 0.397736 0.405333
0.452781 0.429735 0.437299
0.493281 0.462256 0.469786
0.534336 0.495224 0.502719
0.355659 0.379504 0.379628
0.367691 0.389165 0.389280
0.401953 0.416678 0.416764
0.438631 0.446130 0.446185
0.476698 0.476698 0.476721
0.515763 0.508067 0.508057
0.555613 0.540066 0.540023
0.596112 0.572587 0.572510
0.637167 0.605554 0.605443
0.461187 0.492728 0.485046
0.473218 0.502389 0.494697
0.507481 0.529902 0.522181
0.544158 0.559354 0.551603
0.582225 0.589921 0.582138
0.621290 0.621290 0.613475
0.661140 0.653290 0.645441
0.701640 0.685811 0.677928
0.742695 0.718778 0.710861
0.568835 0.608226 0.592582
0.580866 0.617888 0.602233
0.615129 0.645400 0.629717
0.651807 0.674852 0.659138
0.689873 0.705420 0.689674
0.728938 0.736789 0.721011
0.768788 0.768788 0.752977
0.809288 0.801310 0.785464
0.850343 0.834277 0.818397
0.678238 0.725608 0.701871
0.690269 0.735269 0.711522
0.724532 0.762782 0.739006
0.761210 0.792234 0.768427
0.799276 0.822801 0.798963
0.838341 0.854171 0.830299
0.878191 0.886170 0.862266
0.918691 0.918691 0.894753
0.959746 0.951658 0.927686
0.789142 0.844600 0.812659
0.801173 0.854261 0.822310
0.835436 0.881774 0.849794
0.872113 0.911226 0.879215
0.910180 0.941793 0.909751
0.949245 0.973162 0.941088
0.989095 1.000000 0.973054
1.000000 1.000000 1.000000
1.000000 1.000000 1.000000
0.039347 0.039347 0.071342
0.051378 0.049008 0.080993
0.085641 0.076521 0.108477
0.122318 0.105973 0.137898
0.160385 0.136540 0.168434
0.199450 0.167909 0.199771
0.239300 0.199909 0.231737
0.279800 0.232430 0.264224
0.320855 0.265397 0.297157
0.071848 0.074218 0.103809
0.083879 0.083879 0.113460
0.118142 0.111392 0.140944
0.154819 0.140844 0.170365
0.192886 0.171411 0.200901
0.231951 0.202781 0.232238
0.271801 0.234780 0.264204
0.312301 0.267301 0.296691
0.353356 0.300268 0.329624
0.164403 0.173523 0.196268
0.176434 0.183184 0.205919
0.210697 0.210697 0.233403
0.247375 0.240149 0.262824
0.285441 0.270717 0.293360
0.324506 0.302086 0.324696
0.364356 0.334085 0.356662
0.404856 0.366606 0.389150
0.445911 0.399574 0.422082
0.263481 0.279826 0.295242
0.275512 0.289488 0.304893
0.309775 0.317001 0.332378
0.346452 0.346452 0.361799
0.384519 0.377020 0.392334
0.423584 0.408389 0.423671
0.463434 0.440389 0.455637
0.503934 0.472910 0.488124
0.544989 0.505877 0.521057
0.366312 0.390157 0.397966
0.378344 0.399818 0.407617
0.412606 0.427331 0.435102
0.449284 0.456783 0.464523
0.487351 0.487351 0.495059
0.526416 0.518720 0.526395
0.566266 0.550719 0.558361
0.606765 0.583240 0.590848
0.647820 0.616208 0.623781
0.471840 0.503381 0.503384
0.483871 0.513042 0.513035
0.518134 0.540555 0.540519
0.554811 0.570007 0.569940
0.592878 0.600574 0.600476
0.631943 0.631943 0.631813
0.671793 0.663943 0.663779
0.712293 0.696464 0.696266
0.753348 0.729431 0.729199
0.579488 0.618879 0.610920
0.591520 0.628541 0.620571
0.625782 0.656054 0.648055
0.662460 0.685505 0.677476
0.700527 0.716073 0.708012
0.739592 0.747442 0.739348
0.779442 0.779442 0.771315
0.819941 0.811963 0.803802
0.860996 0.844930 0.836735
0.688891 0.736261 0.720209
0.700923 0.745922 0.729860
0.735185 0.773435 0.757344
0.771863 0.802887 0.786765
0.809930 0.833455 0.817301
0.848995 0.864824 0.848637
0.888845 0.896823 0.880603
0.929344 0.929344 0.913091
0.970399 0.962311 0.946023
0.799795 0.855253 0.830997
0.811826 0.864914 0.840648
0.846089 0.892427 0.868132
0.882766 0.921879 0.897553
0.920833 0.952446 0.928089
0.959898 0.983815 0.959425
0.999748 1.000000 0.991392
1.000000 1.000000 1.000000
1.000000 1.000000 1.000000
0.050214 0.050214 0.090048
0.062245 0.059875 0.099699
0.096508 0.087388 0.127184
0.133185 0.116840 0.156605
0.171252 0.147408 0.187140
0.210317 0.178777 0.218477
0.250167 0.210776 0.250443
0.290667 0.243297 0.282930
0.331722 0.276264 0.315863
0.082715 0.085085 0.122515
0.094746 0.094746 0.132166
0.129009 0.122259 0.159651
0.165686 0.151711 0.189072
0.203753 0.182279 0.219608
0.242818 0.213648 0.250944
0.282668 0.245647 0.282910
0.323168 0.278168 0.315397
0.364223 0.311136 0.348330
0.175270 0.184390 0.214974
0.187302 0.194051 0.224625
0.221564 0.221564 0.252110
0.258242 0.251016 0.281531
0.296309 0.281584 0.312066
0.335374 0.312953 0.343403
0.375224 0.344952 0.375369
0.415723 0.377474 0.407856
0.456778 0.410441 0.440789
0.274348 0.290693 0.313948
0.286379 0.300355 0.323600
0.320642 0.327868 0.351084
0.357319 0.357319 0.380505
0.395386 0.387887 0.411041
0.434451 0.419256 0.442377
0.474301 0.451256 0.474343
0.514801 0.483777 0.506830
0.555856 0.516744 0.539763
0.377179 0.401024 0.416673
0.389211 0.410685 0.426324
0.423474 0.438198 0.453808
0.460151 0.467650 0.483229
0.498218 0.498218 0.513765
0.537283 0.529587 0.545101
0.577133 0.561586 0.577067
0.617632 0.594107 0.609555
0.658688 0.627075 0.642487
0.482707 0.514248 0.522090
0.494739 0.523909 0.531741
0.529001 0.551422 0.559226
0.565679 0.580874 0.588647
0.603746 0.611441 0.619183
0.642811 0.642811 0.650519
0.682661 0.674810 0.682485
0.723160 0.707331 0.714972
0.764215 0.740298 0.747905
0.590355 0.629747 0.629626
0.602387 0.639408 0.639277
0.636650 0.666921 0.666762
0.673327 0.696373 0.696183
0.711394 0.726940 0.726718
0.750459 0.758309 0.758055
0.790309 0.790309 0.790021
0.830808 0.822830 0.822508
0.871863 0.855797 0.855441
0.699758 0.747128 0.738915
0.711790 0.756789 0.748566
0.746053 0.784302 0.776051
0.782730 0.813754 0.805472
0.820797 0.844322 0.836007
0.859862 0.875691 0.867344
0.899712 0.907690 0.899310
0.940211 0.940211 0.931797
0.981267 0.973179 0.964730
0.810662 0.866120 0.849703
0.822694 0.875781 0.859354
0.856956 0.903294 0.886839
0.893634 0.932746 0.916260
0.931701 0.963313 0.946795
0.970766 0.994683 0.978132
1.000000 1.000000 1.000000
1.000000 1.000000 1.000000
1.000000 1.000000 1.000000
0.061258 0.061258 0.109060
0.073290 0.070919 0.118711
0.107552 0.098432 0.146195
0.144230 0.127884 0.175616
0.182297 0.158452 0.206152
0.221362 0.189821 0.237488
0.261212 0.221820 0.269454
0.301711 0.254341 0.301941
0.342766 0.287309 0.334874
0.093759 0.096129 0.141527
0.105791 0.105791 0.151178
0.140053 0.133304 0.178662
0.176731 0.162755 0.208083
0.214798 0.193323 0.238619
0.253863 0.224692 0.269955
0.293713 0.256692 0.301921
0.334212 0.289213 0.334408
0.375267 0.322180 0.367341
0.186315 0.195435 0.233985
0.198346 0.205096 0.243637
0.232609 0.232609 0.271121
0.269286 0.262061 0.300542
0.307353 0.292628 0.331078
0.346418 0.323997 0.362414
0.386268 0.355997 0.394380
0.426768 0.388518 0.426867
0.467823 0.421485 0.459800
0.285392 0.301738 0.332960
0.297424 0.311399 0.342611
0.331686 0.338912 0.370095
0.368364 0.368364 0.399516
0.406431 0.398931 0.430052
0.445496 0.430301 0.461388
0.485346 0.462300 0.493354
0.525845 0.494821 0.525842
0.566900 0.527788 0.558774
0.388224 0.412069 0.435684
0.400255 0.421730 0.445335
0.434518 0.449243 0.472819
0.471195 0.478695 0.502240
0.509262 0.509262 0.532776
0.548327 0.540631 0.564113
0.588177 0.572631 0.596079
0.628677 0.605152 0.628566
0.669732 0.638119 0.661499
0.493751 0.525292 0.541102
0.505783 0.534953 0.550753
0.540046 0.562466 0.578237
0.576723 0.591918 0.607658
0.614790 0.622486 0.638194
0.653855 0.653855 0.669530
0.693705 0.685854 0.701496
0.734204 0.718375 0.733983
0.775260 0.751343 0.766916
0.601400 0.640791 0.648638
0.613431 0.650452 0.658289
0.647694 0.677965 0.685773
0.684371 0.707417 0.715194
0.722438 0.737984 0.745730
0.761503 0.769354 0.777066
0.801353 0.801353 0.809032
0.841853 0.833874 0.841519
0.882908 0.866841 0.874452
0.710803 0.758172 0.757926
0.722834 0.767834 0.767578
0.757097 0.795347 0.795062
0.793774 0.824798 0.824483
0.831841 0.855366 0.855019
0.870906 0.886735 0.886355
0.910756 0.918735 0.918321
0.951256 0.951256 0.950808
0.992311 0.984223 0.983741
0.821706 0.877164 0.868715
0.833738 0.886825 0.878366
0.868001 0.914338 0.905850
0.904678 0.943790 0.935271
0.942745 0.974358 0.965807
0.981810 1.000000 0.997143
1.000000 1.000000 1.000000
1.000000 1.000000 1.000000
1.000000 1.000000 1.000000
0.072454 0.072454 0.128332
0.084485 0.082115 0.137983
0.118748 0.109628 0.165467
0.155426 0.139080 0.194888
0.193492 0.169648 0.225424
0.232557 0.201017 0.256760
0.272407 0.233016 0.288726
0.312907 0.265537 0.321214
0.353962 0.298505 0.354146
0.104955 0.107325 0.160799
0.116986 0.116986 0.170450
0.151249 0.144499 0.197934
0.187927 0.173951 0.227355
0.225993 0.204519 0.257891
0.265058 0.235888 0.289227
0.304908 0.267887 0.321193
0.345408 0.300408 0.353681
0.386463 0.333376 0.386613
0.197510 0.206630 0.253258
0.209542 0.216292 0.262909
0.243805 0.243805 0.290393
0.280482 0.273256 0.319814
0.318549 0.303824 0.350350
0.357614 0.335193 0.381686
0.397464 0.367193 0.413652
0.437963 0.399714 0.446139
0.479019 0.432681 0.479072
0.296588 0.312934 0.352232
0.308620 0.322595 0.361883
0.342882 0.350108 0.389367
0.379560 0.379560 0.418788
0.417626 0.410127 0.449324
0.456692 0.441496 0.480661
0.496541 0.473496 0.512627
0.537041 0.506017 0.545114
0.578096 0.538984 0.578047
0.399420 0.423264 0.454956
0.411451 0.432926 0.464607
0.445714 0.460439 0.492091
0.482391 0.489890 0.521513
0.520458 0.520458 0.552048
0.559523 0.551827 0.583385
0.599373 0.583827 0.615351
0.639873 0.616348 0.647838
0.680928 0.649315 0.680771
0.504947 0.536488 0.560374
0.516979 0.546149 0.570025
0.551241 0.573662 0.597509
0.587919 0.603114 0.626930
0.625986 0.633682 0.657466
0.665051 0.665051 0.688802
0.704901 0.697050 0.720768
0.745400 0.729571 0.753256
0.786455 0.762538 0.786188
0.612595 0.651987 0.667910
0.624627 0.661648 0.677561
0.658890 0.689161 0.705045
0.695567 0.718613 0.734466
0.733634 0.749180 0.765002
0.772699 0.780549 0.796338
0.812549 0.812549 0.828304
0.853048 0.845070 0.860791
0.894104 0.878037 0.893724
0.721998 0.769368 0.777199
0.734030 0.779029 0.786850
0.768293 0.806542 0.814334
0.804970 0.835994 0.843755
0.843037 0.866562 0.874291
0.882102 0.897931 0.905627
0.921952 0.929930 0.937593
0.962451 0.962451 0.970080
1.000000 0.995419 1.000000
0.832902 0.888360 0.887987
0.844934 0.898021 0.897638
0.879196 0.925534 0.925122
0.915874 0.954986 0.954543
0.953941 0.985554 0.985079
0.993006 1.000000 1.000000
1.000000 1.000000 1.000000
1.000000 1.000000 1.000000
1.000000 1.000000 1.000000
