assets/luts/generated_genre/bs_noir_neon_modern_d590bfab77e71ac9.cube
# V4 spec-generated LUT — bs_noir_neon_modern
# Genre: noir
# Look: Neon noir — magenta mids, cyan shadows, sleazy-glamour. Sigel/Drive, Debie/Spring Breakers.
# Spec hash: d590bfab77e71ac9
TITLE "V4 Spec LUT — bs_noir_neon_modern"
LUT_3D_SIZE 5
DOMAIN_MIN 0.0 0.0 0.0
DOMAIN_MAX 1.0 1.0 1.0
0.000000 0.010247 0.031247
0.180250 0.006147 0.030100
0.475042 0.000148 0.028421
0.779468 0.000000 0.026687
1.000000 0.000000 0.024919
0.000000 0.194884 0.027387
0.190581 0.190783 0.026240
0.485373 0.184784 0.024561
0.789800 0.178589 0.022827
1.000000 0.172271 0.021059
0.004194 0.465002 0.021740
0.205696 0.460902 0.020592
0.500488 0.454903 0.018914
0.804915 0.448708 0.017180
1.000000 0.445792 0.013097
0.014331 0.746266 0.014331
0.209907 0.744677 0.011475
0.496028 0.742351 0.007298
0.791501 0.739948 0.002984
1.000000 0.737499 0.000000
0.000000 1.000000 0.000000
0.195105 1.000000 0.000000
0.481227 1.000000 0.000000
0.776700 1.000000 0.000000
1.000000 1.000000 0.000000
0.000000 0.008855 0.229289
0.181292 0.004754 0.228141
0.476085 0.000000 0.226462
0.780511 0.000000 0.224729
1.000000 0.000000 0.222961
0.000000 0.193491 0.225428
0.191624 0.189391 0.224281
0.486416 0.183392 0.222602
0.790843 0.177197 0.220869
1.000000 0.170879 0.219101
0.005237 0.463610 0.219781
0.206739 0.459509 0.218634
0.501531 0.453510 0.216955
0.805044 0.447702 0.214958
1.000000 0.445253 0.210558
0.013361 0.745727 0.211792
0.208937 0.744137 0.208937
0.495058 0.741811 0.204759
0.790531 0.739408 0.200445
1.000000 0.736959 0.196045
0.000000 1.000000 0.196991
0.194136 1.000000 0.194136
0.480257 1.000000 0.189958
0.775730 1.000000 0.185644
1.000000 1.000000 0.181244
0.000000 0.006817 0.519018
0.182818 0.002717 0.517870
0.477611 0.000000 0.516191
0.782037 0.000000 0.514458
1.000000 0.000000 0.512690
0.000000 0.191454 0.515157
0.193150 0.187354 0.514010
0.487942 0.181355 0.512331
0.792369 0.175160 0.510598
1.000000 0.168842 0.508830
0.006763 0.461572 0.509510
0.208265 0.457472 0.508363
0.503057 0.451473 0.506684
0.803625 0.446912 0.503838
1.000000 0.444463 0.499439
0.011943 0.744937 0.500673
0.207518 0.743347 0.497817
0.493640 0.741021 0.493640
0.789112 0.738619 0.489325
1.000000 0.736169 0.484926
0.000000 1.000000 0.485872
0.192717 1.000000 0.483016
0.478839 1.000000 0.478839
0.774311 1.000000 0.474524
1.000000 1.000000 0.470125
0.000000 0.004713 0.818216
0.184394 0.000613 0.817068
0.479186 0.000000 0.815390
0.783613 0.000000 0.813656
1.000000 0.000000 0.811888
0.000000 0.189350 0.814356
0.194726 0.185250 0.813208
0.489518 0.179251 0.811529
0.793945 0.173056 0.809796
1.000000 0.166738 0.808028
0.008338 0.459468 0.808708
0.209841 0.455368 0.807561
0.504633 0.449369 0.805882
0.802160 0.446097 0.802160
1.000000 0.443647 0.797760
0.010477 0.744121 0.798994
0.206053 0.742531 0.796139
0.492175 0.740205 0.791961
0.787647 0.737803 0.787647
1.000000 0.735353 0.783248
0.000000 1.000000 0.784193
0.191252 1.000000 0.781338
0.477373 1.000000 0.777160
0.772846 1.000000 0.772846
1.000000 1.000000 0.768446
0.000000 0.002568 1.000000
0.186001 0.000000 1.000000
0.480793 0.000000 1.000000
0.785220 0.000000 1.000000
1.000000 0.000000 1.000000
0.000000 0.187205 1.000000
0.196333 0.183104 1.000000
0.491125 0.177105 1.000000
0.795552 0.170910 1.000000
1.000000 0.164592 1.000000
0.009945 0.457323 1.000000
0.211448 0.453222 1.000000
0.505193 0.447667 1.000000
0.800666 0.445265 1.000000
1.000000 0.442815 1.000000
0.008983 0.743289 1.000000
0.204559 0.741699 1.000000
0.490680 0.739373 1.000000
0.786153 0.736971 1.000000
1.000000 0.734521 1.000000
0.000000 1.000000 1.000000
0.189758 1.000000 1.000000
0.475879 1.000000 1.000000
0.771352 1.000000 1.000000
1.000000 1.000000 1.000000
