assets/luts/generated_genre/bs_noir_neon_modern_d590bfab77e71ac9.cube
# V4 spec-generated LUT — bs_noir_neon_modern
# Genre: noir
# Look: Neon noir — magenta mids, cyan shadows, sleazy-glamour. Sigel/Drive, Debie/Spring Breakers.
# Spec hash: d590bfab77e71ac9
TITLE "V4 Spec LUT — bs_noir_neon_modern"
LUT_3D_SIZE 9
DOMAIN_MIN 0.0 0.0 0.0
DOMAIN_MAX 1.0 1.0 1.0
0.000000 0.010247 0.031247
0.040031 0.009000 0.030898
0.180250 0.006147 0.030100
0.326035 0.003180 0.029270
0.475042 0.000148 0.028421
0.626353 0.000000 0.027559
0.779468 0.000000 0.026687
0.934071 0.000000 0.025807
1.000000 0.000000 0.024919
0.000000 0.066401 0.030073
0.043173 0.065154 0.029724
0.183392 0.062301 0.028926
0.329177 0.059334 0.028096
0.478184 0.056302 0.027247
0.629495 0.053223 0.026385
0.782611 0.050107 0.025513
0.937213 0.046961 0.024633
1.000000 0.043789 0.023745
0.000000 0.194884 0.027387
0.050362 0.193637 0.027038
0.190581 0.190783 0.026240
0.336367 0.187817 0.025409
0.485373 0.184784 0.024561
0.636685 0.181705 0.023699
0.789800 0.178589 0.022827
0.944402 0.175443 0.021947
1.000000 0.172271 0.021059
0.000000 0.328467 0.024594
0.057837 0.327220 0.024245
0.198056 0.324367 0.023447
0.343842 0.321400 0.022617
0.492848 0.318368 0.021768
0.644159 0.315289 0.020906
0.797275 0.312173 0.020035
0.951877 0.309027 0.019154
1.000000 0.305855 0.018267
0.004194 0.465002 0.021740
0.065477 0.463755 0.021391
0.205696 0.460902 0.020592
0.351482 0.457935 0.019762
0.500488 0.454903 0.018914
0.651799 0.451824 0.018052
0.804915 0.448708 0.017180
0.956069 0.447022 0.015306
1.000000 0.445792 0.013097
0.011952 0.603649 0.018841
0.073236 0.602402 0.018492
0.213454 0.599548 0.017694
0.358704 0.596809 0.016709
0.503328 0.595633 0.014597
0.650188 0.594439 0.012453
0.798800 0.593231 0.010283
0.948855 0.592011 0.008092
1.000000 0.590781 0.005884
0.014331 0.746266 0.014331
0.073812 0.745783 0.013463
0.209907 0.744677 0.011475
0.351404 0.743526 0.009409
0.496028 0.742351 0.007298
0.642889 0.741157 0.005154
0.791501 0.739948 0.002984
0.941556 0.738729 0.000793
1.000000 0.737499 0.000000
0.006961 0.894409 0.006961
0.066442 0.893925 0.006092
0.202536 0.892819 0.004105
0.344034 0.891668 0.002039
0.488658 0.890493 0.000000
0.635518 0.889299 0.000000
0.784131 0.888091 0.000000
0.934186 0.886871 0.000000
1.000000 0.885641 0.000000
0.000000 1.000000 0.000000
0.059011 1.000000 0.000000
0.195105 1.000000 0.000000
0.336603 1.000000 0.000000
0.481227 1.000000 0.000000
0.628088 1.000000 0.000000
0.776700 1.000000 0.000000
0.926755 1.000000 0.000000
1.000000 1.000000 0.000000
0.000000 0.009824 0.091478
0.040348 0.008577 0.091129
0.180567 0.005723 0.090331
0.326352 0.002756 0.089501
0.475359 0.000000 0.088652
0.626670 0.000000 0.087790
0.779786 0.000000 0.086918
0.934388 0.000000 0.086038
1.000000 0.000000 0.085150
0.000000 0.065978 0.090304
0.043490 0.064731 0.089955
0.183709 0.061877 0.089157
0.329495 0.058911 0.088327
0.478501 0.055878 0.087478
0.629812 0.052799 0.086616
0.782928 0.049683 0.085744
0.937530 0.046537 0.084864
1.000000 0.043365 0.083976
0.000000 0.194460 0.087618
0.050680 0.193213 0.087269
0.190898 0.190360 0.086471
0.336684 0.187393 0.085640
0.485691 0.184361 0.084792
0.637002 0.181282 0.083930
0.790117 0.178166 0.083058
0.944720 0.175020 0.082178
1.000000 0.171848 0.081290
0.000000 0.328044 0.084825
0.058155 0.326797 0.084476
0.198373 0.323943 0.083678
0.344159 0.320977 0.082848
0.493165 0.317944 0.081999
0.644477 0.314865 0.081137
0.797592 0.311749 0.080265
0.952194 0.308603 0.079385
1.000000 0.305431 0.078498
0.004511 0.464579 0.081971
0.065795 0.463332 0.081622
0.206013 0.460478 0.080823
0.351799 0.457511 0.079993
0.500805 0.454479 0.079145
0.652117 0.451400 0.078283
0.805232 0.448284 0.077411
0.955774 0.446858 0.075360
1.000000 0.445628 0.073151
0.012269 0.603225 0.079072
0.073553 0.601978 0.078723
0.213771 0.599125 0.077925
0.358409 0.596644 0.076764
0.503033 0.595469 0.074652
0.649893 0.594275 0.072508
0.798505 0.593067 0.070338
0.948560 0.591847 0.068147
1.000000 0.590617 0.065938
0.014036 0.746102 0.074386
0.073517 0.745619 0.073517
0.209612 0.744512 0.071530
0.351109 0.743362 0.069464
0.495733 0.742186 0.067352
0.642594 0.740992 0.065208
0.791206 0.739784 0.063038
0.941261 0.738564 0.060847
1.000000 0.737334 0.058639
0.006666 0.894244 0.067015
0.066147 0.893761 0.066147
0.202241 0.892654 0.064160
0.343739 0.891504 0.062094
0.488363 0.890328 0.059982
0.635224 0.889135 0.057838
0.783836 0.887926 0.055668
0.933891 0.886707 0.053477
1.000000 0.885477 0.051268
0.000000 1.000000 0.059584
0.058716 1.000000 0.058716
0.194811 1.000000 0.056729
0.336308 1.000000 0.054663
0.480932 1.000000 0.052551
0.627793 1.000000 0.050407
0.776405 1.000000 0.048237
0.926460 1.000000 0.046046
1.000000 1.000000 0.043838
0.000000 0.008855 0.229289
0.041074 0.007608 0.228940
0.181292 0.004754 0.228141
0.327078 0.001787 0.227311
0.476085 0.000000 0.226462
0.627396 0.000000 0.225601
0.780511 0.000000 0.224729
0.935114 0.000000 0.223848
1.000000 0.000000 0.222961
0.000000 0.065009 0.228115
0.044216 0.063762 0.227766
0.184435 0.060908 0.226967
0.330220 0.057942 0.226137
0.479227 0.054909 0.225288
0.630538 0.051830 0.224427
0.783654 0.048714 0.223555
0.938256 0.045568 0.222674
1.000000 0.042396 0.221787
0.000000 0.193491 0.225428
0.051405 0.192244 0.225079
0.191624 0.189391 0.224281
0.337410 0.186424 0.223451
0.486416 0.183392 0.222602
0.637728 0.180313 0.221741
0.790843 0.177197 0.220869
0.945445 0.174051 0.219988
1.000000 0.170879 0.219101
0.000000 0.327075 0.222636
0.058880 0.325828 0.222287
0.199099 0.322974 0.221488
0.344885 0.320008 0.220658
0.493891 0.316975 0.219809
0.645202 0.313896 0.218948
0.798318 0.310780 0.218076
0.952920 0.307634 0.217196
1.000000 0.304462 0.216308
0.005237 0.463610 0.219781
0.066520 0.462362 0.219432
0.206739 0.459509 0.218634
0.352525 0.456542 0.217804
0.501531 0.453510 0.216955
0.652842 0.450431 0.216093
0.805044 0.447702 0.214958
0.955099 0.446482 0.212767
1.000000 0.445253 0.210558
0.012995 0.602256 0.216883
0.074279 0.601009 0.216534
0.214497 0.598156 0.215735
0.357734 0.596269 0.214170
0.502358 0.595093 0.212059
0.649219 0.593899 0.209914
0.797831 0.592691 0.207745
0.947886 0.591471 0.205554
1.000000 0.590241 0.203345
0.013361 0.745727 0.211792
0.072842 0.745243 0.210924
0.208937 0.744137 0.208937
0.350434 0.742986 0.206871
0.495058 0.741811 0.204759
0.641919 0.740617 0.202615
0.790531 0.739408 0.200445
0.940586 0.738189 0.198254
1.000000 0.736959 0.196045
0.005991 0.893869 0.204422
0.065472 0.893385 0.203554
0.201566 0.892279 0.201566
0.343064 0.891128 0.199500
0.487688 0.889953 0.197389
0.634549 0.888759 0.195245
0.783161 0.887551 0.193075
0.933216 0.886331 0.190884
1.000000 0.885101 0.188675
0.000000 1.000000 0.196991
0.058041 1.000000 0.196123
0.194136 1.000000 0.194136
0.335633 1.000000 0.192070
0.480257 1.000000 0.189958
0.627118 1.000000 0.187814
0.775730 1.000000 0.185644
0.925785 1.000000 0.183453
1.000000 1.000000 0.181244
0.000000 0.007847 0.372570
0.041828 0.006600 0.372221
0.182047 0.003747 0.371423
0.327833 0.000780 0.370593
0.476839 0.000000 0.369744
0.628150 0.000000 0.368882
0.781266 0.000000 0.368011
0.935868 0.000000 0.367130
1.000000 0.000000 0.366243
0.000000 0.064001 0.371396
0.044971 0.062754 0.371047
0.185189 0.059901 0.370249
0.330975 0.056934 0.369419
0.479981 0.053902 0.368570
0.631293 0.050823 0.367708
0.784408 0.047707 0.366837
0.939010 0.044561 0.365956
1.000000 0.041389 0.365069
0.000000 0.192484 0.368710
0.052160 0.191237 0.368361
0.192379 0.188383 0.367563
0.338164 0.185417 0.366733
0.487171 0.182384 0.365884
0.638482 0.179305 0.365022
0.791598 0.176189 0.364150
0.946200 0.173043 0.363270
1.000000 0.169871 0.362382
0.000000 0.326067 0.365917
0.059635 0.324820 0.365568
0.199854 0.321967 0.364770
0.345639 0.319000 0.363940
0.494646 0.315968 0.363091
0.645957 0.312889 0.362230
0.799073 0.309773 0.361358
0.953675 0.306627 0.360477
1.000000 0.303455 0.359590
0.005991 0.462602 0.363063
0.067275 0.461355 0.362714
0.207494 0.458502 0.361915
0.353279 0.455535 0.361085
0.502286 0.452503 0.360237
0.653597 0.449423 0.359375
0.804342 0.447312 0.357820
0.954397 0.446092 0.355629
1.000000 0.444862 0.353420
0.013750 0.601249 0.360164
0.075033 0.600002 0.359815
0.215252 0.597148 0.359017
0.357032 0.595878 0.357032
0.501656 0.594702 0.354921
0.648517 0.593508 0.352776
0.797129 0.592300 0.350607
0.947184 0.591080 0.348416
1.000000 0.589851 0.346207
0.012660 0.745336 0.354654
0.072141 0.744852 0.353786
0.208235 0.743746 0.351799
0.349733 0.742596 0.349733
0.494357 0.741420 0.347621
0.641217 0.740226 0.345477
0.789829 0.739018 0.343307
0.939884 0.737798 0.341116
1.000000 0.736568 0.338907
0.005289 0.893478 0.347284
0.064770 0.892994 0.346416
0.200865 0.891888 0.344428
0.342363 0.890738 0.342363
0.486986 0.889562 0.340251
0.633847 0.888368 0.338107
0.782459 0.887160 0.335937
0.932514 0.885940 0.333746
1.000000 0.884710 0.331537
0.000000 1.000000 0.339853
0.057340 1.000000 0.338985
0.193434 1.000000 0.336998
0.334932 1.000000 0.334932
0.479556 1.000000 0.332820
0.626416 1.000000 0.330676
0.775028 1.000000 0.328506
0.925083 1.000000 0.326315
1.000000 1.000000 0.324106
0.000000 0.006817 0.519018
0.042600 0.005570 0.518669
0.182818 0.002717 0.517870
0.328604 0.000000 0.517040
0.477611 0.000000 0.516191
0.628922 0.000000 0.515330
0.782037 0.000000 0.514458
0.936640 0.000000 0.513577
1.000000 0.000000 0.512690
0.000000 0.062971 0.517844
0.045742 0.061724 0.517495
0.185961 0.058871 0.516696
0.331746 0.055904 0.515866
0.480753 0.052872 0.515017
0.632064 0.049793 0.514156
0.785179 0.046677 0.513284
0.939782 0.043531 0.512403
1.000000 0.040359 0.511516
0.000000 0.191454 0.515157
0.052931 0.190207 0.514808
0.193150 0.187354 0.514010
0.338936 0.184387 0.513180
0.487942 0.181355 0.512331
0.639253 0.178275 0.511470
0.792369 0.175160 0.510598
0.946971 0.172013 0.509717
1.000000 0.168842 0.508830
0.000000 0.325038 0.512365
0.060406 0.323790 0.512016
0.200625 0.320937 0.511217
0.346411 0.317970 0.510387
0.495417 0.314938 0.509538
0.646728 0.311859 0.508677
0.799844 0.308743 0.507805
0.954446 0.305597 0.506925
1.000000 0.302425 0.506037
0.006763 0.461572 0.509510
0.068046 0.460325 0.509161
0.208265 0.457472 0.508363
0.354051 0.454505 0.507533
0.503057 0.451473 0.506684
0.654368 0.448394 0.505822
0.803625 0.446912 0.503838
0.953680 0.445692 0.501647
1.000000 0.444463 0.499439
0.014521 0.600219 0.506612
0.075804 0.598972 0.506263
0.214818 0.596629 0.505117
0.356315 0.595479 0.503051
0.500939 0.594303 0.500939
0.647800 0.593109 0.498795
0.796412 0.591901 0.496625
0.946467 0.590681 0.494434
1.000000 0.589451 0.492225
0.011943 0.744937 0.500673
0.071424 0.744453 0.499804
0.207518 0.743347 0.497817
0.349016 0.742196 0.495751
0.493640 0.741021 0.493640
0.640500 0.739827 0.491495
0.789112 0.738619 0.489325
0.939167 0.737399 0.487135
1.000000 0.736169 0.484926
0.004572 0.893079 0.493302
0.064053 0.892595 0.492434
0.200148 0.891489 0.490447
0.341645 0.890339 0.488381
0.486269 0.889163 0.486269
0.633130 0.887969 0.484125
0.781742 0.886761 0.481955
0.931797 0.885541 0.479764
1.000000 0.884311 0.477555
0.000000 1.000000 0.485872
0.056622 1.000000 0.485003
0.192717 1.000000 0.483016
0.334215 1.000000 0.480950
0.478839 1.000000 0.478839
0.625699 1.000000 0.476694
0.774311 1.000000 0.474524
0.924366 1.000000 0.472334
1.000000 1.000000 0.470125
0.000000 0.005772 0.667730
0.043383 0.004525 0.667381
0.183602 0.001671 0.666583
0.329387 0.000000 0.665752
0.478394 0.000000 0.664904
0.629705 0.000000 0.664042
0.782820 0.000000 0.663170
0.937423 0.000000 0.662290
1.000000 0.000000 0.661402
0.000000 0.061926 0.666556
0.046525 0.060679 0.666207
0.186744 0.057825 0.665409
0.332529 0.054859 0.664578
0.481536 0.051826 0.663730
0.632847 0.048747 0.662868
0.785963 0.045631 0.661996
0.940565 0.042485 0.661116
1.000000 0.039313 0.660228
0.000000 0.190408 0.663870
0.053714 0.189161 0.663521
0.193933 0.186308 0.662722
0.339719 0.183341 0.661892
0.488725 0.180309 0.661044
0.640037 0.177230 0.660182
0.793152 0.174114 0.659310
0.947754 0.170968 0.658430
1.000000 0.167796 0.657542
0.000000 0.323992 0.661077
0.061189 0.322745 0.660728
0.201408 0.319891 0.659930
0.347194 0.316925 0.659099
0.496200 0.313892 0.658251
0.647511 0.310813 0.657389
0.800627 0.307697 0.656517
0.955229 0.304551 0.655637
1.000000 0.301379 0.654749
0.007546 0.460527 0.658223
0.068829 0.459280 0.657874
0.209048 0.456426 0.657075
0.354834 0.453459 0.656245
0.503840 0.450427 0.655396
0.654285 0.447715 0.654285
0.802897 0.446507 0.652115
0.952952 0.445287 0.649924
1.000000 0.444057 0.647715
0.015304 0.599173 0.655324
0.076588 0.597926 0.654975
0.214089 0.596224 0.653393
0.355587 0.595073 0.651327
0.500211 0.593898 0.649216
0.647072 0.592704 0.647072
0.795684 0.591496 0.644902
0.945739 0.590276 0.642711
1.000000 0.589046 0.640502
0.011214 0.744531 0.648950
0.070695 0.744048 0.648081
0.206790 0.742941 0.646094
0.348288 0.741791 0.644028
0.492911 0.740615 0.641916
0.639772 0.739421 0.639772
0.788384 0.738213 0.637602
0.938439 0.736993 0.635411
1.000000 0.735763 0.633203
0.003844 0.892673 0.641579
0.063325 0.892190 0.640711
0.199420 0.891083 0.638724
0.340917 0.889933 0.636658
0.485541 0.888757 0.634546
0.632402 0.887563 0.632402
0.781014 0.886355 0.630232
0.931069 0.885135 0.628041
1.000000 0.883906 0.625832
0.000000 1.000000 0.634148
0.055894 1.000000 0.633280
0.191989 1.000000 0.631293
0.333487 1.000000 0.629227
0.478110 1.000000 0.627115
0.624971 1.000000 0.624971
0.773583 1.000000 0.622801
0.923638 1.000000 0.620610
1.000000 1.000000 0.618402
0.000000 0.004713 0.818216
0.044175 0.003466 0.817867
0.184394 0.000613 0.817068
0.330180 0.000000 0.816238
0.479186 0.000000 0.815390
0.630497 0.000000 0.814528
0.783613 0.000000 0.813656
0.938215 0.000000 0.812776
1.000000 0.000000 0.811888
0.000000 0.060868 0.817042
0.047318 0.059621 0.816693
0.187536 0.056767 0.815894
0.333322 0.053800 0.815064
0.482328 0.050768 0.814216
0.633640 0.047689 0.813354
0.786755 0.044573 0.812482
0.941357 0.041427 0.811602
1.000000 0.038255 0.810714
0.000000 0.189350 0.814356
0.054507 0.188103 0.814007
0.194726 0.185250 0.813208
0.340511 0.182283 0.812378
0.489518 0.179251 0.811529
0.640829 0.176172 0.810668
0.793945 0.173056 0.809796
0.948547 0.169910 0.808915
1.000000 0.166738 0.808028
0.000698 0.322934 0.811563
0.061982 0.321687 0.811214
0.202201 0.318833 0.810415
0.347986 0.315866 0.809585
0.496993 0.312834 0.808737
0.648304 0.309755 0.807875
0.801420 0.306639 0.807003
0.956022 0.303493 0.806123
1.000000 0.300867 0.804864
0.008338 0.459468 0.808708
0.069622 0.458221 0.808359
0.209841 0.455368 0.807561
0.355626 0.452401 0.806731
0.504633 0.449369 0.805882
0.653548 0.447305 0.804330
0.802160 0.446097 0.802160
0.952215 0.444877 0.799969
1.000000 0.443647 0.797760
0.016097 0.598115 0.805810
0.077258 0.596920 0.805425
0.213352 0.595813 0.803438
0.354850 0.594663 0.801372
0.499474 0.593487 0.799261
0.646335 0.592293 0.797117
0.794947 0.591085 0.794947
0.945002 0.589865 0.792756
1.000000 0.588635 0.790547
0.010477 0.744121 0.798994
0.069958 0.743637 0.798126
0.206053 0.742531 0.796139
0.347551 0.741381 0.794073
0.492175 0.740205 0.791961
0.639035 0.739011 0.789817
0.787647 0.737803 0.787647
0.937702 0.736583 0.785456
1.000000 0.735353 0.783248
0.003107 0.892263 0.791624
0.062588 0.891779 0.790756
0.198683 0.890673 0.788769
0.340180 0.889523 0.786703
0.484804 0.888347 0.784591
0.631665 0.887153 0.782447
0.780277 0.885945 0.780277
0.930332 0.884725 0.778086
1.000000 0.883495 0.775877
0.000000 1.000000 0.784193
0.055157 1.000000 0.783325
0.191252 1.000000 0.781338
0.332750 1.000000 0.779272
0.477373 1.000000 0.777160
0.624234 1.000000 0.775016
0.772846 1.000000 0.772846
0.922901 1.000000 0.770655
1.000000 1.000000 0.768446
0.000000 0.003645 0.970163
0.044976 0.002398 0.969814
0.185194 0.000000 0.969015
0.330980 0.000000 0.968185
0.479986 0.000000 0.967336
0.631298 0.000000 0.966475
0.784413 0.000000 0.965603
0.939016 0.000000 0.964723
1.000000 0.000000 0.963835
0.000000 0.059799 0.968989
0.048118 0.058552 0.968640
0.188337 0.055699 0.967841
0.334122 0.052732 0.967011
0.483129 0.049700 0.966162
0.634440 0.046621 0.965301
0.787555 0.043505 0.964429
0.942158 0.040359 0.963549
1.000000 0.037187 0.962661
0.000000 0.188282 0.966303
0.055307 0.187035 0.965954
0.195526 0.184181 0.965155
0.341312 0.181215 0.964325
0.490318 0.178182 0.963476
0.641629 0.175103 0.962615
0.794745 0.171987 0.961743
0.949347 0.168841 0.960862
1.000000 0.165669 0.959975
0.001499 0.321865 0.963510
0.062782 0.320618 0.963161
0.203001 0.317765 0.962362
0.348786 0.314798 0.961532
0.497793 0.311766 0.960684
0.649104 0.308687 0.959822
0.802220 0.305571 0.958950
0.956822 0.302425 0.958070
1.000000 0.300452 0.956366
0.009139 0.458400 0.960655
0.070422 0.457153 0.960306
0.210641 0.454300 0.959508
0.356427 0.451333 0.958678
0.505433 0.448301 0.957829
0.652804 0.446890 0.955832
0.801416 0.445682 0.953662
0.951471 0.444462 0.951471
1.000000 0.443233 0.949262
0.016897 0.597047 0.957757
0.076514 0.596505 0.956927
0.212608 0.595399 0.954940
0.354106 0.594249 0.952874
0.498730 0.593073 0.950763
0.645591 0.591879 0.948618
0.794203 0.590671 0.946449
0.944258 0.589451 0.944258
1.000000 0.588221 0.942049
0.009733 0.743707 0.950496
0.069214 0.743223 0.949628
0.205309 0.742117 0.947641
0.346807 0.740966 0.945575
0.491430 0.739791 0.943463
0.638291 0.738597 0.941319
0.786903 0.737389 0.939149
0.936958 0.736169 0.936958
1.000000 0.734939 0.934749
0.002363 0.891849 0.943126
0.061844 0.891365 0.942258
0.197939 0.890259 0.940270
0.339436 0.889108 0.938205
0.484060 0.887933 0.936093
0.630921 0.886739 0.933949
0.779533 0.885531 0.931779
0.929588 0.884311 0.929588
1.000000 0.883081 0.927379
0.000000 1.000000 0.935695
0.054413 1.000000 0.934827
0.190508 1.000000 0.932840
0.332006 1.000000 0.930774
0.476629 1.000000 0.928662
0.623490 1.000000 0.926518
0.772102 1.000000 0.924348
0.922157 1.000000 0.922157
1.000000 1.000000 0.919948
0.000000 0.002568 1.000000
0.045782 0.001321 1.000000
0.186001 0.000000 1.000000
0.331787 0.000000 1.000000
0.480793 0.000000 1.000000
0.632104 0.000000 1.000000
0.785220 0.000000 1.000000
0.939822 0.000000 1.000000
1.000000 0.000000 1.000000
0.000000 0.058722 1.000000
0.048925 0.057475 1.000000
0.189143 0.054621 1.000000
0.334929 0.051655 1.000000
0.483935 0.048623 1.000000
0.635247 0.045543 1.000000
0.788362 0.042428 1.000000
0.942964 0.039281 1.000000
1.000000 0.036110 1.000000
0.000000 0.187205 1.000000
0.056114 0.185957 1.000000
0.196333 0.183104 1.000000
0.342118 0.180137 1.000000
0.491125 0.177105 1.000000
0.642436 0.174026 1.000000
0.795552 0.170910 1.000000
0.950154 0.167764 1.000000
1.000000 0.164592 1.000000
0.002305 0.320788 1.000000
0.063589 0.319541 1.000000
0.203808 0.316688 1.000000
0.349593 0.313721 1.000000
0.498600 0.310689 1.000000
0.649911 0.307609 1.000000
0.803027 0.304494 1.000000
0.957629 0.301347 1.000000
1.000000 0.300035 1.000000
0.009945 0.457323 1.000000
0.071229 0.456076 1.000000
0.211448 0.453222 1.000000
0.357233 0.450256 1.000000
0.505193 0.447667 1.000000
0.652054 0.446473 1.000000
0.800666 0.445265 1.000000
0.950721 0.444045 1.000000
1.000000 0.442815 1.000000
0.016283 0.596571 1.000000
0.075764 0.596088 1.000000
0.211858 0.594981 1.000000
0.353356 0.593831 1.000000
0.497980 0.592655 1.000000
0.644841 0.591461 1.000000
0.793453 0.590253 1.000000
0.943508 0.589033 1.000000
1.000000 0.587804 1.000000
0.008983 0.743289 1.000000
0.068464 0.742805 1.000000
0.204559 0.741699 1.000000
0.346056 0.740549 1.000000
0.490680 0.739373 1.000000
0.637541 0.738179 1.000000
0.786153 0.736971 1.000000
0.936208 0.735751 1.000000
1.000000 0.734521 1.000000
0.001613 0.891431 1.000000
0.061094 0.890948 1.000000
0.197188 0.889841 1.000000
0.338686 0.888691 1.000000
0.483310 0.887515 1.000000
0.630171 0.886321 1.000000
0.778783 0.885113 1.000000
0.928838 0.883893 1.000000
1.000000 0.882663 1.000000
0.000000 1.000000 1.000000
0.053663 1.000000 1.000000
0.189758 1.000000 1.000000
0.331255 1.000000 1.000000
0.475879 1.000000 1.000000
0.622740 1.000000 1.000000
0.771352 1.000000 1.000000
0.921407 1.000000 1.000000
1.000000 1.000000 1.000000
