assets/luts/generated_genre/bs_noir_neon_modern_d590bfab77e71ac9.cube
# V4 spec-generated LUT — bs_noir_neon_modern
# Genre: noir
# Look: Neon noir — magenta mids, cyan shadows, sleazy-glamour. Sigel/Drive, Debie/Spring Breakers.
# Spec hash: d590bfab77e71ac9
TITLE "V4 Spec LUT — bs_noir_neon_modern"
LUT_3D_SIZE 17
DOMAIN_MIN 0.0 0.0 0.0
DOMAIN_MAX 1.0 1.0 1.0
0.000000 0.010247 0.031247
0.000000 0.010247 0.031247
0.040031 0.009000 0.030898
0.109151 0.007593 0.030505
0.180250 0.006147 0.030100
0.252652 0.004673 0.029687
0.326035 0.003180 0.029270
0.400208 0.001671 0.028847
0.475042 0.000148 0.028421
0.550446 0.000000 0.027992
0.626353 0.000000 0.027559
0.702708 0.000000 0.027125
0.779468 0.000000 0.026687
0.856599 0.000000 0.026248
0.934071 0.000000 0.025807
1.000000 0.000000 0.025364
1.000000 0.000000 0.024919
0.000000 0.010247 0.031247
0.000000 0.010247 0.031247
0.040031 0.009000 0.030898
0.109151 0.007593 0.030505
0.180250 0.006147 0.030100
0.252652 0.004673 0.029687
0.326035 0.003180 0.029270
0.400208 0.001671 0.028847
0.475042 0.000148 0.028421
0.550446 0.000000 0.027992
0.626353 0.000000 0.027559
0.702708 0.000000 0.027125
0.779468 0.000000 0.026687
0.856599 0.000000 0.026248
0.934071 0.000000 0.025807
1.000000 0.000000 0.025364
1.000000 0.000000 0.024919
0.000000 0.066401 0.030073
0.000000 0.066401 0.030073
0.043173 0.065154 0.029724
0.112293 0.063748 0.029331
0.183392 0.062301 0.028926
0.255794 0.060827 0.028513
0.329177 0.059334 0.028096
0.403350 0.057825 0.027673
0.478184 0.056302 0.027247
0.553588 0.054767 0.026818
0.629495 0.053223 0.026385
0.705850 0.051669 0.025951
0.782611 0.050107 0.025513
0.859741 0.048537 0.025074
0.937213 0.046961 0.024633
1.000000 0.045378 0.024190
1.000000 0.043789 0.023745
0.000000 0.129736 0.028749
0.000000 0.129736 0.028749
0.046717 0.128489 0.028400
0.115837 0.127082 0.028006
0.186936 0.125635 0.027602
0.259338 0.124162 0.027189
0.332721 0.122669 0.026771
0.406894 0.121159 0.026349
0.481728 0.119636 0.025923
0.557132 0.118102 0.025494
0.633039 0.116557 0.025061
0.709394 0.115004 0.024626
0.786155 0.113441 0.024189
0.863285 0.111872 0.023750
0.940757 0.110295 0.023309
1.000000 0.108712 0.022866
1.000000 0.107123 0.022421
0.000000 0.194884 0.027387
0.000000 0.194884 0.027387
0.050362 0.193637 0.027038
0.119482 0.192230 0.026644
0.190581 0.190783 0.026240
0.262984 0.189310 0.025827
0.336367 0.187817 0.025409
0.410539 0.186307 0.024987
0.485373 0.184784 0.024561
0.560778 0.183250 0.024131
0.636685 0.181705 0.023699
0.713040 0.180151 0.023264
0.789800 0.178589 0.022827
0.866931 0.177020 0.022388
0.944402 0.175443 0.021947
1.000000 0.173860 0.021504
1.000000 0.172271 0.021059
0.000000 0.261226 0.026000
0.000000 0.261226 0.026000
0.054075 0.259979 0.025651
0.123195 0.258573 0.025257
0.194293 0.257126 0.024853
0.266696 0.255652 0.024440
0.340079 0.254159 0.024022
0.414251 0.252650 0.023600
0.489086 0.251127 0.023174
0.564490 0.249592 0.022744
0.640397 0.248048 0.022312
0.716752 0.246494 0.021877
0.793512 0.244932 0.021440
0.870643 0.243362 0.021001
0.948115 0.241786 0.020560
1.000000 0.240203 0.020117
1.000000 0.238614 0.019672
0.000000 0.328467 0.024594
0.000000 0.328467 0.024594
0.057837 0.327220 0.024245
0.126957 0.325814 0.023852
0.198056 0.324367 0.023447
0.270458 0.322893 0.023035
0.343842 0.321400 0.022617
0.418014 0.319891 0.022194
0.492848 0.318368 0.021768
0.568253 0.316833 0.021339
0.644159 0.315289 0.020906
0.720514 0.313735 0.020472
0.797275 0.312173 0.020035
0.874406 0.310603 0.019595
0.951877 0.309027 0.019154
1.000000 0.307444 0.018711
1.000000 0.305855 0.018267
0.000357 0.396432 0.023173
0.000357 0.396432 0.023173
0.061640 0.395184 0.022824
0.130760 0.393778 0.022431
0.201859 0.392331 0.022026
0.274262 0.390858 0.021614
0.347645 0.389364 0.021196
0.421817 0.387855 0.020773
0.496651 0.386332 0.020347
0.572056 0.384798 0.019918
0.647962 0.383253 0.019486
0.724317 0.381699 0.019051
0.801078 0.380137 0.018614
0.878209 0.378568 0.018174
0.955680 0.376991 0.017733
1.000000 0.375408 0.017290
1.000000 0.374085 0.016665
0.004194 0.465002 0.021740
0.004194 0.465002 0.021740
0.065477 0.463755 0.021391
0.134597 0.462348 0.020997
0.205696 0.460902 0.020592
0.278099 0.459428 0.020180
0.351482 0.457935 0.019762
0.425654 0.456426 0.019340
0.500488 0.454903 0.018914
0.575893 0.453368 0.018484
0.651799 0.451824 0.018052
0.728154 0.450270 0.017617
0.804915 0.448708 0.017180
0.880876 0.447634 0.016404
0.956069 0.447022 0.015306
1.000000 0.446409 0.014203
1.000000 0.445792 0.013097
0.008060 0.534095 0.020295
0.008060 0.534095 0.020295
0.069344 0.532848 0.019946
0.138463 0.531442 0.019553
0.209562 0.529995 0.019148
0.281965 0.528522 0.018736
0.355348 0.527028 0.018318
0.429520 0.525519 0.017895
0.504354 0.523996 0.017469
0.579759 0.522462 0.017040
0.653807 0.521704 0.016072
0.727916 0.521102 0.014990
0.802419 0.520496 0.013902
0.877281 0.519887 0.012809
0.952474 0.519276 0.011711
1.000000 0.518662 0.010609
1.000000 0.518046 0.009502
0.011952 0.603649 0.018841
0.011952 0.603649 0.018841
0.073236 0.602402 0.018492
0.142355 0.600995 0.018099
0.213454 0.599548 0.017694
0.285857 0.598075 0.017281
0.358704 0.596809 0.016709
0.430694 0.596223 0.015658
0.503328 0.595633 0.014597
0.576514 0.595038 0.013529
0.650188 0.594439 0.012453
0.724298 0.593837 0.011371
0.798800 0.593231 0.010283
0.873662 0.592622 0.009190
0.948855 0.592011 0.008092
1.000000 0.591397 0.006990
1.000000 0.590781 0.005884
0.015867 0.673613 0.017378
0.015867 0.673613 0.017378
0.077151 0.672366 0.017029
0.144558 0.671684 0.016142
0.213566 0.671123 0.015135
0.283839 0.670552 0.014109
0.355064 0.669973 0.013069
0.427054 0.669388 0.012018
0.499687 0.668797 0.010957
0.572874 0.668202 0.009889
0.646548 0.667604 0.008813
0.720657 0.667001 0.007731
0.795160 0.666395 0.006643
0.870022 0.665787 0.005550
0.945215 0.665176 0.004452
1.000000 0.664562 0.003350
1.000000 0.663946 0.002243
0.014331 0.746266 0.014331
0.014331 0.746266 0.014331
0.073812 0.745783 0.013463
0.140899 0.745238 0.012483
0.209907 0.744677 0.011475
0.280179 0.744105 0.010449
0.351404 0.743526 0.009409
0.423395 0.742941 0.008358
0.496028 0.742351 0.007298
0.569215 0.741756 0.006229
0.642889 0.741157 0.005154
0.716998 0.740554 0.004072
0.791501 0.739948 0.002984
0.866363 0.739340 0.001891
0.941556 0.738729 0.000793
1.000000 0.738115 0.000000
1.000000 0.737499 0.000000
0.010654 0.820174 0.010654
0.010654 0.820174 0.010654
0.070135 0.819691 0.009785
0.137222 0.819145 0.008806
0.206229 0.818584 0.007798
0.276502 0.818013 0.006772
0.347727 0.817434 0.005732
0.419718 0.816849 0.004681
0.492351 0.816258 0.003621
0.565538 0.815663 0.002552
0.639212 0.815064 0.001477
0.713321 0.814462 0.000395
0.787824 0.813856 0.000000
0.862686 0.813248 0.000000
0.937879 0.812636 0.000000
1.000000 0.812023 0.000000
1.000000 0.811407 0.000000
0.006961 0.894409 0.006961
0.006961 0.894409 0.006961
0.066442 0.893925 0.006092
0.133529 0.893380 0.005113
0.202536 0.892819 0.004105
0.272809 0.892247 0.003079
0.344034 0.891668 0.002039
0.416025 0.891083 0.000988
0.488658 0.890493 0.000000
0.561845 0.889898 0.000000
0.635518 0.889299 0.000000
0.709628 0.888696 0.000000
0.784131 0.888091 0.000000
0.858993 0.887482 0.000000
0.934186 0.886871 0.000000
1.000000 0.886257 0.000000
1.000000 0.885641 0.000000
0.003252 0.968946 0.003252
0.003252 0.968946 0.003252
0.062733 0.968462 0.002384
0.129820 0.967917 0.001404
0.198828 0.967356 0.000397
0.269101 0.966784 0.000000
0.340326 0.966205 0.000000
0.412316 0.965620 0.000000
0.484949 0.965030 0.000000
0.558136 0.964435 0.000000
0.631810 0.963836 0.000000
0.705919 0.963233 0.000000
0.780422 0.962627 0.000000
0.855284 0.962019 0.000000
0.930477 0.961408 0.000000
1.000000 0.960794 0.000000
1.000000 0.960178 0.000000
0.000000 1.000000 0.000000
0.000000 1.000000 0.000000
0.059011 1.000000 0.000000
0.126098 1.000000 0.000000
0.195105 1.000000 0.000000
0.265378 1.000000 0.000000
0.336603 1.000000 0.000000
0.408594 1.000000 0.000000
0.481227 1.000000 0.000000
0.554414 1.000000 0.000000
0.628088 1.000000 0.000000
0.702197 1.000000 0.000000
0.776700 1.000000 0.000000
0.851562 1.000000 0.000000
0.926755 1.000000 0.000000
1.000000 1.000000 0.000000
1.000000 1.000000 0.000000
0.000000 0.010247 0.031247
0.000000 0.010247 0.031247
0.040031 0.009000 0.030898
0.109151 0.007593 0.030505
0.180250 0.006147 0.030100
0.252652 0.004673 0.029687
0.326035 0.003180 0.029270
0.400208 0.001671 0.028847
0.475042 0.000148 0.028421
0.550446 0.000000 0.027992
0.626353 0.000000 0.027559
0.702708 0.000000 0.027125
0.779468 0.000000 0.026687
0.856599 0.000000 0.026248
0.934071 0.000000 0.025807
1.000000 0.000000 0.025364
1.000000 0.000000 0.024919
0.000000 0.010247 0.031247
0.000000 0.010247 0.031247
0.040031 0.009000 0.030898
0.109151 0.007593 0.030505
0.180250 0.006147 0.030100
0.252652 0.004673 0.029687
0.326035 0.003180 0.029270
0.400208 0.001671 0.028847
0.475042 0.000148 0.028421
0.550446 0.000000 0.027992
0.626353 0.000000 0.027559
0.702708 0.000000 0.027125
0.779468 0.000000 0.026687
0.856599 0.000000 0.026248
0.934071 0.000000 0.025807
1.000000 0.000000 0.025364
1.000000 0.000000 0.024919
0.000000 0.066401 0.030073
0.000000 0.066401 0.030073
0.043173 0.065154 0.029724
0.112293 0.063748 0.029331
0.183392 0.062301 0.028926
0.255794 0.060827 0.028513
0.329177 0.059334 0.028096
0.403350 0.057825 0.027673
0.478184 0.056302 0.027247
0.553588 0.054767 0.026818
0.629495 0.053223 0.026385
0.705850 0.051669 0.025951
0.782611 0.050107 0.025513
0.859741 0.048537 0.025074
0.937213 0.046961 0.024633
1.000000 0.045378 0.024190
1.000000 0.043789 0.023745
0.000000 0.129736 0.028749
0.000000 0.129736 0.028749
0.046717 0.128489 0.028400
0.115837 0.127082 0.028006
0.186936 0.125635 0.027602
0.259338 0.124162 0.027189
0.332721 0.122669 0.026771
0.406894 0.121159 0.026349
0.481728 0.119636 0.025923
0.557132 0.118102 0.025494
0.633039 0.116557 0.025061
0.709394 0.115004 0.024626
0.786155 0.113441 0.024189
0.863285 0.111872 0.023750
0.940757 0.110295 0.023309
1.000000 0.108712 0.022866
1.000000 0.107123 0.022421
0.000000 0.194884 0.027387
0.000000 0.194884 0.027387
0.050362 0.193637 0.027038
0.119482 0.192230 0.026644
0.190581 0.190783 0.026240
0.262984 0.189310 0.025827
0.336367 0.187817 0.025409
0.410539 0.186307 0.024987
0.485373 0.184784 0.024561
0.560778 0.183250 0.024131
0.636685 0.181705 0.023699
0.713040 0.180151 0.023264
0.789800 0.178589 0.022827
0.866931 0.177020 0.022388
0.944402 0.175443 0.021947
1.000000 0.173860 0.021504
1.000000 0.172271 0.021059
0.000000 0.261226 0.026000
0.000000 0.261226 0.026000
0.054075 0.259979 0.025651
0.123195 0.258573 0.025257
0.194293 0.257126 0.024853
0.266696 0.255652 0.024440
0.340079 0.254159 0.024022
0.414251 0.252650 0.023600
0.489086 0.251127 0.023174
0.564490 0.249592 0.022744
0.640397 0.248048 0.022312
0.716752 0.246494 0.021877
0.793512 0.244932 0.021440
0.870643 0.243362 0.021001
0.948115 0.241786 0.020560
1.000000 0.240203 0.020117
1.000000 0.238614 0.019672
0.000000 0.328467 0.024594
0.000000 0.328467 0.024594
0.057837 0.327220 0.024245
0.126957 0.325814 0.023852
0.198056 0.324367 0.023447
0.270458 0.322893 0.023035
0.343842 0.321400 0.022617
0.418014 0.319891 0.022194
0.492848 0.318368 0.021768
0.568253 0.316833 0.021339
0.644159 0.315289 0.020906
0.720514 0.313735 0.020472
0.797275 0.312173 0.020035
0.874406 0.310603 0.019595
0.951877 0.309027 0.019154
1.000000 0.307444 0.018711
1.000000 0.305855 0.018267
0.000357 0.396432 0.023173
0.000357 0.396432 0.023173
0.061640 0.395184 0.022824
0.130760 0.393778 0.022431
0.201859 0.392331 0.022026
0.274262 0.390858 0.021614
0.347645 0.389364 0.021196
0.421817 0.387855 0.020773
0.496651 0.386332 0.020347
0.572056 0.384798 0.019918
0.647962 0.383253 0.019486
0.724317 0.381699 0.019051
0.801078 0.380137 0.018614
0.878209 0.378568 0.018174
0.955680 0.376991 0.017733
1.000000 0.375408 0.017290
1.000000 0.374085 0.016665
0.004194 0.465002 0.021740
0.004194 0.465002 0.021740
0.065477 0.463755 0.021391
0.134597 0.462348 0.020997
0.205696 0.460902 0.020592
0.278099 0.459428 0.020180
0.351482 0.457935 0.019762
0.425654 0.456426 0.019340
0.500488 0.454903 0.018914
0.575893 0.453368 0.018484
0.651799 0.451824 0.018052
0.728154 0.450270 0.017617
0.804915 0.448708 0.017180
0.880876 0.447634 0.016404
0.956069 0.447022 0.015306
1.000000 0.446409 0.014203
1.000000 0.445792 0.013097
0.008060 0.534095 0.020295
0.008060 0.534095 0.020295
0.069344 0.532848 0.019946
0.138463 0.531442 0.019553
0.209562 0.529995 0.019148
0.281965 0.528522 0.018736
0.355348 0.527028 0.018318
0.429520 0.525519 0.017895
0.504354 0.523996 0.017469
0.579759 0.522462 0.017040
0.653807 0.521704 0.016072
0.727916 0.521102 0.014990
0.802419 0.520496 0.013902
0.877281 0.519887 0.012809
0.952474 0.519276 0.011711
1.000000 0.518662 0.010609
1.000000 0.518046 0.009502
0.011952 0.603649 0.018841
0.011952 0.603649 0.018841
0.073236 0.602402 0.018492
0.142355 0.600995 0.018099
0.213454 0.599548 0.017694
0.285857 0.598075 0.017281
0.358704 0.596809 0.016709
0.430694 0.596223 0.015658
0.503328 0.595633 0.014597
0.576514 0.595038 0.013529
0.650188 0.594439 0.012453
0.724298 0.593837 0.011371
0.798800 0.593231 0.010283
0.873662 0.592622 0.009190
0.948855 0.592011 0.008092
1.000000 0.591397 0.006990
1.000000 0.590781 0.005884
0.015867 0.673613 0.017378
0.015867 0.673613 0.017378
0.077151 0.672366 0.017029
0.144558 0.671684 0.016142
0.213566 0.671123 0.015135
0.283839 0.670552 0.014109
0.355064 0.669973 0.013069
0.427054 0.669388 0.012018
0.499687 0.668797 0.010957
0.572874 0.668202 0.009889
0.646548 0.667604 0.008813
0.720657 0.667001 0.007731
0.795160 0.666395 0.006643
0.870022 0.665787 0.005550
0.945215 0.665176 0.004452
1.000000 0.664562 0.003350
1.000000 0.663946 0.002243
0.014331 0.746266 0.014331
0.014331 0.746266 0.014331
0.073812 0.745783 0.013463
0.140899 0.745238 0.012483
0.209907 0.744677 0.011475
0.280179 0.744105 0.010449
0.351404 0.743526 0.009409
0.423395 0.742941 0.008358
0.496028 0.742351 0.007298
0.569215 0.741756 0.006229
0.642889 0.741157 0.005154
0.716998 0.740554 0.004072
0.791501 0.739948 0.002984
0.866363 0.739340 0.001891
0.941556 0.738729 0.000793
1.000000 0.738115 0.000000
1.000000 0.737499 0.000000
0.010654 0.820174 0.010654
0.010654 0.820174 0.010654
0.070135 0.819691 0.009785
0.137222 0.819145 0.008806
0.206229 0.818584 0.007798
0.276502 0.818013 0.006772
0.347727 0.817434 0.005732
0.419718 0.816849 0.004681
0.492351 0.816258 0.003621
0.565538 0.815663 0.002552
0.639212 0.815064 0.001477
0.713321 0.814462 0.000395
0.787824 0.813856 0.000000
0.862686 0.813248 0.000000
0.937879 0.812636 0.000000
1.000000 0.812023 0.000000
1.000000 0.811407 0.000000
0.006961 0.894409 0.006961
0.006961 0.894409 0.006961
0.066442 0.893925 0.006092
0.133529 0.893380 0.005113
0.202536 0.892819 0.004105
0.272809 0.892247 0.003079
0.344034 0.891668 0.002039
0.416025 0.891083 0.000988
0.488658 0.890493 0.000000
0.561845 0.889898 0.000000
0.635518 0.889299 0.000000
0.709628 0.888696 0.000000
0.784131 0.888091 0.000000
0.858993 0.887482 0.000000
0.934186 0.886871 0.000000
1.000000 0.886257 0.000000
1.000000 0.885641 0.000000
0.003252 0.968946 0.003252
0.003252 0.968946 0.003252
0.062733 0.968462 0.002384
0.129820 0.967917 0.001404
0.198828 0.967356 0.000397
0.269101 0.966784 0.000000
0.340326 0.966205 0.000000
0.412316 0.965620 0.000000
0.484949 0.965030 0.000000
0.558136 0.964435 0.000000
0.631810 0.963836 0.000000
0.705919 0.963233 0.000000
0.780422 0.962627 0.000000
0.855284 0.962019 0.000000
0.930477 0.961408 0.000000
1.000000 0.960794 0.000000
1.000000 0.960178 0.000000
0.000000 1.000000 0.000000
0.000000 1.000000 0.000000
0.059011 1.000000 0.000000
0.126098 1.000000 0.000000
0.195105 1.000000 0.000000
0.265378 1.000000 0.000000
0.336603 1.000000 0.000000
0.408594 1.000000 0.000000
0.481227 1.000000 0.000000
0.554414 1.000000 0.000000
0.628088 1.000000 0.000000
0.702197 1.000000 0.000000
0.776700 1.000000 0.000000
0.851562 1.000000 0.000000
0.926755 1.000000 0.000000
1.000000 1.000000 0.000000
1.000000 1.000000 0.000000
0.000000 0.009824 0.091478
0.000000 0.009824 0.091478
0.040348 0.008577 0.091129
0.109468 0.007170 0.090736
0.180567 0.005723 0.090331
0.252969 0.004250 0.089918
0.326352 0.002756 0.089501
0.400525 0.001247 0.089078
0.475359 0.000000 0.088652
0.550764 0.000000 0.088223
0.626670 0.000000 0.087790
0.703025 0.000000 0.087356
0.779786 0.000000 0.086918
0.856916 0.000000 0.086479
0.934388 0.000000 0.086038
1.000000 0.000000 0.085595
1.000000 0.000000 0.085150
0.000000 0.009824 0.091478
0.000000 0.009824 0.091478
0.040348 0.008577 0.091129
0.109468 0.007170 0.090736
0.180567 0.005723 0.090331
0.252969 0.004250 0.089918
0.326352 0.002756 0.089501
0.400525 0.001247 0.089078
0.475359 0.000000 0.088652
0.550764 0.000000 0.088223
0.626670 0.000000 0.087790
0.703025 0.000000 0.087356
0.779786 0.000000 0.086918
0.856916 0.000000 0.086479
0.934388 0.000000 0.086038
1.000000 0.000000 0.085595
1.000000 0.000000 0.085150
0.000000 0.065978 0.090304
0.000000 0.065978 0.090304
0.043490 0.064731 0.089955
0.112610 0.063324 0.089562
0.183709 0.061877 0.089157
0.256111 0.060404 0.088744
0.329495 0.058911 0.088327
0.403667 0.057401 0.087904
0.478501 0.055878 0.087478
0.553906 0.054344 0.087049
0.629812 0.052799 0.086616
0.706167 0.051245 0.086182
0.782928 0.049683 0.085744
0.860059 0.048114 0.085305
0.937530 0.046537 0.084864
1.000000 0.044954 0.084421
1.000000 0.043365 0.083976
0.000000 0.129312 0.088980
0.000000 0.129312 0.088980
0.047034 0.128065 0.088631
0.116154 0.126659 0.088237
0.187253 0.125212 0.087833
0.259655 0.123739 0.087420
0.333039 0.122245 0.087002
0.407211 0.120736 0.086580
0.482045 0.119213 0.086154
0.557450 0.117678 0.085724
0.633356 0.116134 0.085292
0.709711 0.114580 0.084857
0.786472 0.113018 0.084420
0.863603 0.111448 0.083981
0.941074 0.109872 0.083540
1.000000 0.108289 0.083097
1.000000 0.106700 0.082652
0.000000 0.194460 0.087618
0.000000 0.194460 0.087618
0.050680 0.193213 0.087269
0.119800 0.191807 0.086875
0.190898 0.190360 0.086471
0.263301 0.188886 0.086058
0.336684 0.187393 0.085640
0.410856 0.185884 0.085218
0.485691 0.184361 0.084792
0.561095 0.182826 0.084362
0.637002 0.181282 0.083930
0.713357 0.179728 0.083495
0.790117 0.178166 0.083058
0.867248 0.176596 0.082619
0.944720 0.175020 0.082178
1.000000 0.173437 0.081735
1.000000 0.171848 0.081290
0.000000 0.260803 0.086231
0.000000 0.260803 0.086231
0.054392 0.259556 0.085882
0.123512 0.258149 0.085488
0.194611 0.256702 0.085084
0.267013 0.255229 0.084671
0.340396 0.253736 0.084253
0.414569 0.252226 0.083831
0.489403 0.250703 0.083405
0.564807 0.249169 0.082975
0.640714 0.247624 0.082543
0.717069 0.246070 0.082108
0.793830 0.244508 0.081671
0.870960 0.242939 0.081232
0.948432 0.241362 0.080791
1.000000 0.239779 0.080348
1.000000 0.238190 0.079903
0.000000 0.328044 0.084825
0.000000 0.328044 0.084825
0.058155 0.326797 0.084476
0.127274 0.325390 0.084083
0.198373 0.323943 0.083678
0.270776 0.322470 0.083265
0.344159 0.320977 0.082848
0.418331 0.319467 0.082425
0.493165 0.317944 0.081999
0.568570 0.316410 0.081570
0.644477 0.314865 0.081137
0.720832 0.313311 0.080703
0.797592 0.311749 0.080265
0.874723 0.310180 0.079826
0.952194 0.308603 0.079385
1.000000 0.307020 0.078942
1.000000 0.305431 0.078498
0.000674 0.396008 0.083404
0.000674 0.396008 0.083404
0.061958 0.394761 0.083055
0.131077 0.393354 0.082662
0.202176 0.391908 0.082257
0.274579 0.390434 0.081845
0.347962 0.388941 0.081427
0.422134 0.387431 0.081004
0.496968 0.385909 0.080578
0.572373 0.384374 0.080149
0.648280 0.382829 0.079717
0.724635 0.381276 0.079282
0.801395 0.379714 0.078845
0.878526 0.378144 0.078405
0.955997 0.376567 0.077964
1.000000 0.374985 0.077521
1.000000 0.373921 0.076719
0.004511 0.464579 0.081971
0.004511 0.464579 0.081971
0.065795 0.463332 0.081622
0.134914 0.461925 0.081228
0.206013 0.460478 0.080823
0.278416 0.459005 0.080411
0.351799 0.457511 0.079993
0.425971 0.456002 0.079571
0.500805 0.454479 0.079145
0.576210 0.452945 0.078715
0.652117 0.451400 0.078283
0.728472 0.449846 0.077848
0.805232 0.448284 0.077411
0.880581 0.447469 0.076458
0.955774 0.446858 0.075360
1.000000 0.446244 0.074258
1.000000 0.445628 0.073151
0.008377 0.533672 0.080526
0.008377 0.533672 0.080526
0.069661 0.532425 0.080177
0.138781 0.531018 0.079784
0.209880 0.529571 0.079379
0.282282 0.528098 0.078966
0.355665 0.526605 0.078549
0.429838 0.525095 0.078126
0.504672 0.523572 0.077700
0.579838 0.522139 0.077202
0.653512 0.521540 0.076126
0.727621 0.520938 0.075044
0.802124 0.520332 0.073956
0.876986 0.519723 0.072863
0.952179 0.519112 0.071766
1.000000 0.518498 0.070663
1.000000 0.517882 0.069557
0.012269 0.603225 0.079072
0.012269 0.603225 0.079072
0.073553 0.601978 0.078723
0.142673 0.600572 0.078330
0.213771 0.599125 0.077925
0.286174 0.597651 0.077512
0.358409 0.596644 0.076764
0.430400 0.596059 0.075712
0.503033 0.595469 0.074652
0.576219 0.594874 0.073583
0.649893 0.594275 0.072508
0.724003 0.593672 0.071426
0.798505 0.593067 0.070338
0.873368 0.592458 0.069245
0.948560 0.591847 0.068147
1.000000 0.591233 0.067045
1.000000 0.590617 0.065938
0.016184 0.673189 0.077609
0.016184 0.673189 0.077609
0.077176 0.672066 0.077176
0.144263 0.671520 0.076197
0.213271 0.670959 0.075189
0.283544 0.670388 0.074163
0.354769 0.669809 0.073123
0.426759 0.669224 0.072072
0.499393 0.668633 0.071012
0.572579 0.668038 0.069943
0.646253 0.667439 0.068868
0.720363 0.666837 0.067786
0.794865 0.666231 0.066698
0.869727 0.665623 0.065605
0.944920 0.665011 0.064507
1.000000 0.664398 0.063404
1.000000 0.663781 0.062298
0.014036 0.746102 0.074386
0.014036 0.746102 0.074386
0.073517 0.745619 0.073517
0.140604 0.745073 0.072538
0.209612 0.744512 0.071530
0.279884 0.743941 0.070504
0.351109 0.743362 0.069464
0.423100 0.742777 0.068413
0.495733 0.742186 0.067352
0.568920 0.741591 0.066284
0.642594 0.740992 0.065208
0.716703 0.740390 0.064126
0.791206 0.739784 0.063038
0.866068 0.739176 0.061945
0.941261 0.738564 0.060847
1.000000 0.737951 0.059745
1.000000 0.737334 0.058639
0.010359 0.820010 0.070708
0.010359 0.820010 0.070708
0.069840 0.819527 0.069840
0.136927 0.818981 0.068861
0.205935 0.818420 0.067853
0.276207 0.817849 0.066827
0.347432 0.817270 0.065787
0.419423 0.816685 0.064736
0.492056 0.816094 0.063675
0.565243 0.815499 0.062607
0.638917 0.814900 0.061531
0.713026 0.814298 0.060449
0.787529 0.813692 0.059361
0.862391 0.813083 0.058268
0.937584 0.812472 0.057170
1.000000 0.811858 0.056068
1.000000 0.811242 0.054962
0.006666 0.894244 0.067015
0.006666 0.894244 0.067015
0.066147 0.893761 0.066147
0.133234 0.893215 0.065167
0.202241 0.892654 0.064160
0.272514 0.892083 0.063134
0.343739 0.891504 0.062094
0.415730 0.890919 0.061043
0.488363 0.890328 0.059982
0.561550 0.889733 0.058914
0.635224 0.889135 0.057838
0.709333 0.888532 0.056756
0.783836 0.887926 0.055668
0.858698 0.887318 0.054575
0.933891 0.886707 0.053477
1.000000 0.886093 0.052375
1.000000 0.885477 0.051268
0.002957 0.968781 0.063307
0.002957 0.968781 0.063307
0.062438 0.968298 0.062438
0.129525 0.967752 0.061459
0.198533 0.967191 0.060451
0.268806 0.966620 0.059425
0.340031 0.966041 0.058385
0.412021 0.965456 0.057334
0.484654 0.964865 0.056274
0.557841 0.964270 0.055205
0.631515 0.963671 0.054130
0.705624 0.963069 0.053047
0.780127 0.962463 0.051960
0.854989 0.961855 0.050867
0.930182 0.961243 0.049769
1.000000 0.960630 0.048666
1.000000 0.960014 0.047560
0.000000 1.000000 0.059584
0.000000 1.000000 0.059584
0.058716 1.000000 0.058716
0.125803 1.000000 0.057737
0.194811 1.000000 0.056729
0.265083 1.000000 0.055703
0.336308 1.000000 0.054663
0.408299 1.000000 0.053612
0.480932 1.000000 0.052551
0.554119 1.000000 0.051483
0.627793 1.000000 0.050407
0.701902 1.000000 0.049325
0.776405 1.000000 0.048237
0.851267 1.000000 0.047144
0.926460 1.000000 0.046046
1.000000 1.000000 0.044944
1.000000 1.000000 0.043838
0.000000 0.009346 0.159411
0.000000 0.009346 0.159411
0.040706 0.008099 0.159062
0.109826 0.006692 0.158668
0.180924 0.005245 0.158263
0.253327 0.003772 0.157851
0.326710 0.002279 0.157433
0.400883 0.000769 0.157011
0.475717 0.000000 0.156585
0.551121 0.000000 0.156155
0.627028 0.000000 0.155723
