assets/luts/generated_genre/bs_noir_classic_bw_silver_34c0e45b6a8bed87.cube
# V4 spec-generated LUT — bs_noir_classic_bw_silver
# Genre: noir
# Look: Classic noir — silver desaturated, hard shadow, fated. Kamiński/Schindler's List, Mank.
# Spec hash: 34c0e45b6a8bed87
TITLE "V4 Spec LUT — bs_noir_classic_bw_silver"
LUT_3D_SIZE 17
DOMAIN_MIN 0.0 0.0 0.0
DOMAIN_MAX 1.0 1.0 1.0
0.000000 0.000000 0.000000
0.000000 0.000000 0.000000
0.007718 0.005347 0.005837
0.024416 0.018756 0.019232
0.041980 0.032860 0.033322
0.060108 0.047417 0.047863
0.078658 0.062312 0.062743
0.097548 0.077481 0.077896
0.116725 0.092880 0.093278
0.136148 0.108477 0.108859
0.155790 0.124249 0.124615
0.175626 0.140178 0.140527
0.195640 0.156248 0.156581
0.215815 0.172449 0.172765
0.236139 0.188769 0.189068
0.256602 0.205201 0.205483
0.277194 0.221737 0.222001
0.000000 0.000000 0.000000
0.000000 0.000000 0.000000
0.007718 0.005347 0.005837
0.024416 0.018756 0.019232
0.041980 0.032860 0.033322
0.060108 0.047417 0.047863
0.078658 0.062312 0.062743
0.097548 0.077481 0.077896
0.116725 0.092880 0.093278
0.136148 0.108477 0.108859
0.155790 0.124249 0.124615
0.175626 0.140178 0.140527
0.195640 0.156248 0.156581
0.215815 0.172449 0.172765
0.236139 0.188769 0.189068
0.256602 0.205201 0.205483
0.277194 0.221737 0.222001
0.028187 0.030557 0.028653
0.028187 0.030557 0.028653
0.040219 0.040219 0.038304
0.056917 0.053627 0.051699
0.074481 0.067732 0.065789
0.092609 0.082288 0.080330
0.111159 0.097183 0.095210
0.130049 0.112352 0.110363
0.149226 0.127751 0.125745
0.168649 0.143348 0.141326
0.188291 0.159120 0.157082
0.208127 0.175049 0.172994
0.228141 0.191120 0.189048
0.248316 0.207320 0.205232
0.268640 0.223641 0.221535
0.289103 0.240072 0.237950
0.309695 0.256608 0.254468
0.073295 0.078955 0.073714
0.073295 0.078955 0.073714
0.085327 0.088616 0.083365
0.102025 0.102025 0.096760
0.119589 0.116129 0.110850
0.137717 0.130685 0.125391
0.156267 0.145581 0.140271
0.175157 0.160750 0.155424
0.194334 0.176149 0.170806
0.213757 0.191746 0.186387
0.233399 0.207518 0.202143
0.253235 0.223447 0.218055
0.273249 0.239517 0.234109
0.293424 0.255718 0.250293
0.313748 0.272038 0.266596
0.334211 0.288470 0.283011
0.354803 0.305006 0.299529
0.120742 0.129863 0.121112
0.120742 0.129863 0.121112
0.132774 0.139524 0.130763
0.149472 0.152933 0.144158
0.167037 0.167037 0.158247
0.185164 0.181593 0.172788
0.203714 0.196489 0.187669
0.222604 0.211658 0.202822
0.241781 0.227056 0.218204
0.261204 0.242653 0.233785
0.280846 0.258425 0.249541
0.300683 0.274354 0.265453
0.320696 0.290425 0.281507
0.340871 0.306625 0.297690
0.361196 0.322946 0.313994
0.381658 0.339378 0.330408
0.402251 0.355913 0.346927
0.169710 0.182402 0.170029
0.169710 0.182402 0.170029
0.181742 0.192063 0.179680
0.198440 0.205472 0.193075
0.216005 0.219576 0.207164
0.234132 0.234132 0.221705
0.252682 0.249028 0.236585
0.271572 0.264197 0.251739
0.290749 0.279595 0.267121
0.310172 0.295192 0.282702
0.329814 0.310964 0.298458
0.349650 0.326893 0.314370
0.369664 0.342964 0.330424
0.389839 0.359164 0.346607
0.410163 0.375485 0.362911
0.430626 0.391917 0.379325
0.451219 0.408452 0.395844
0.219820 0.236166 0.220086
0.219820 0.236166 0.220086
0.231852 0.245827 0.229738
0.248550 0.259236 0.243132
0.266114 0.273340 0.257222
0.284242 0.287896 0.271763
0.302792 0.302792 0.286643
0.321682 0.317961 0.301796
0.340859 0.333359 0.317179
0.360282 0.348956 0.332759
0.379924 0.364729 0.348515
0.399760 0.380657 0.364427
0.419774 0.396728 0.380481
0.439949 0.412929 0.396665
0.460273 0.429249 0.412968
0.480736 0.445681 0.429383
0.501328 0.462216 0.445901
0.270850 0.290917 0.271063
0.270850 0.290917 0.271063
0.282881 0.300578 0.280714
0.299580 0.313987 0.294109
0.317144 0.328091 0.308198
0.335271 0.342647 0.322739
0.353821 0.357543 0.337619
0.372712 0.372712 0.352772
0.391888 0.388110 0.368155
0.411312 0.403707 0.383736
0.430953 0.419479 0.399491
0.450790 0.435408 0.415403
0.470803 0.451479 0.431457
0.490978 0.467680 0.447641
0.511303 0.484000 0.463944
0.531766 0.500432 0.480359
0.552358 0.516967 0.496877
0.322652 0.346497 0.322811
0.322652 0.346497 0.322811
0.334683 0.356158 0.332462
0.351382 0.369567 0.345857
0.368946 0.383671 0.359946
0.387073 0.398227 0.374487
0.405623 0.413122 0.389367
0.424514 0.428291 0.404520
0.443690 0.443690 0.419903
0.463114 0.459287 0.435484
0.482755 0.475059 0.451239
0.502592 0.490988 0.467151
0.522605 0.507059 0.483205
0.542780 0.523259 0.499389
0.563105 0.539580 0.515692
0.583568 0.556011 0.532107
0.604160 0.572547 0.548625
0.375121 0.402793 0.375225
0.375121 0.402793 0.375225
0.387153 0.412454 0.384877
0.403851 0.425863 0.398271
0.421415 0.439967 0.412361
0.439543 0.454523 0.426902
0.458093 0.469419 0.441782
0.476983 0.484587 0.456935
0.496160 0.499986 0.472318
0.515583 0.515583 0.487898
0.535225 0.531355 0.503654
0.555061 0.547284 0.519566
0.575075 0.563355 0.535620
0.595250 0.579555 0.551804
0.615574 0.595876 0.568107
0.636037 0.612307 0.584522
0.656629 0.628843 0.601040
0.428179 0.459720 0.428228
0.428179 0.459720 0.428228
0.440211 0.469381 0.437879
0.456909 0.482790 0.451274
0.474474 0.496894 0.465364
0.492601 0.511450 0.479905
0.511151 0.526346 0.494785
0.530041 0.541515 0.509938
0.549218 0.556914 0.525320
0.568641 0.572511 0.540901
0.588283 0.588283 0.556657
0.608119 0.604212 0.572569
0.628133 0.620282 0.588623
0.648308 0.636483 0.604807
0.668632 0.652803 0.621110
0.689095 0.669235 0.637525
0.709688 0.685771 0.654043
0.481765 0.517213 0.481758
0.481765 0.517213 0.481758
0.493796 0.526874 0.491409
0.510495 0.540283 0.504804
0.528059 0.554387 0.518893
0.546186 0.568944 0.533434
0.564736 0.583839 0.548314
0.583627 0.599008 0.563467
0.602803 0.614407 0.578850
0.622227 0.630004 0.594431
0.641868 0.645776 0.610186
0.661705 0.661705 0.626098
0.681718 0.677775 0.642152
0.701893 0.693976 0.658336
0.722218 0.710297 0.674639
0.742681 0.726728 0.691054
0.763273 0.743264 0.707572
0.535828 0.575219 0.535764
0.535828 0.575219 0.535764
0.547859 0.584880 0.545415
0.564557 0.598289 0.558810
0.582122 0.612393 0.572900
0.600249 0.626949 0.587441
0.618799 0.641845 0.602321
0.637690 0.657014 0.617474
0.656866 0.672412 0.632856
0.676290 0.688010 0.648437
0.695931 0.703782 0.664193
0.715768 0.719710 0.680105
0.735781 0.735781 0.696159
0.755956 0.751982 0.712343
0.776281 0.768302 0.728646
0.796744 0.784734 0.745061
0.817336 0.801269 0.761579
0.590328 0.633693 0.590207
0.590328 0.633693 0.590207
0.602359 0.643355 0.599858
0.619057 0.656763 0.613253
0.636622 0.670868 0.627343
0.654749 0.685424 0.641884
0.673299 0.700319 0.656764
0.692190 0.715488 0.671917
0.711366 0.730887 0.687300
0.730790 0.746484 0.702880
0.750431 0.762256 0.718636
0.770268 0.778185 0.734548
0.790281 0.794256 0.750602
0.810456 0.810456 0.766786
0.830781 0.826777 0.783089
0.851244 0.843208 0.799504
0.871836 0.859744 0.816022
0.645231 0.692600 0.645053
0.645231 0.692600 0.645053
0.657262 0.702262 0.654704
0.673960 0.715670 0.668099
0.691525 0.729775 0.682188
0.709652 0.744331 0.696729
0.728202 0.759226 0.711610
0.747093 0.774395 0.726763
0.766269 0.789794 0.742145
0.785693 0.805391 0.757726
0.805334 0.821163 0.773482
0.825171 0.837092 0.789394
0.845184 0.853163 0.805448
0.865359 0.869363 0.821631
0.885684 0.885684 0.837935
0.906147 0.902115 0.854349
0.926739 0.918651 0.870868
0.700508 0.751909 0.700273
0.700508 0.751909 0.700273
0.712539 0.761570 0.709924
0.729238 0.774979 0.723319
0.746802 0.789083 0.737408
0.764929 0.803639 0.751949
0.783479 0.818535 0.766829
0.802370 0.833704 0.781982
0.821546 0.849102 0.797365
0.840970 0.864700 0.812946
0.860611 0.880472 0.828701
0.880448 0.896400 0.844613
0.900461 0.912471 0.860667
0.920636 0.928672 0.876851
0.940961 0.944992 0.893154
0.961424 0.961424 0.909569
0.982016 0.977959 0.926087
0.756134 0.811592 0.755841
0.756134 0.811592 0.755841
0.768166 0.821253 0.765492
0.784864 0.834662 0.778887
0.802429 0.848766 0.792977
0.820556 0.863322 0.807518
0.839106 0.878218 0.822398
0.857996 0.893387 0.837551
0.877173 0.908786 0.852933
0.896596 0.924383 0.868514
0.916238 0.940155 0.884270
0.936074 0.956084 0.900182
0.956088 0.972154 0.916236
0.976263 0.988355 0.932420
0.996587 1.000000 0.948723
1.000000 1.000000 0.965138
1.000000 1.000000 0.981656
0.000000 0.000000 0.000000
0.000000 0.000000 0.000000
0.007718 0.005347 0.005837
0.024416 0.018756 0.019232
0.041980 0.032860 0.033322
0.060108 0.047417 0.047863
0.078658 0.062312 0.062743
0.097548 0.077481 0.077896
0.116725 0.092880 0.093278
0.136148 0.108477 0.108859
0.155790 0.124249 0.124615
0.175626 0.140178 0.140527
0.195640 0.156248 0.156581
0.215815 0.172449 0.172765
0.236139 0.188769 0.189068
0.256602 0.205201 0.205483
0.277194 0.221737 0.222001
0.000000 0.000000 0.000000
0.000000 0.000000 0.000000
0.007718 0.005347 0.005837
0.024416 0.018756 0.019232
0.041980 0.032860 0.033322
0.060108 0.047417 0.047863
0.078658 0.062312 0.062743
0.097548 0.077481 0.077896
0.116725 0.092880 0.093278
0.136148 0.108477 0.108859
0.155790 0.124249 0.124615
0.175626 0.140178 0.140527
0.195640 0.156248 0.156581
0.215815 0.172449 0.172765
0.236139 0.188769 0.189068
0.256602 0.205201 0.205483
0.277194 0.221737 0.222001
0.028187 0.030557 0.028653
0.028187 0.030557 0.028653
0.040219 0.040219 0.038304
0.056917 0.053627 0.051699
0.074481 0.067732 0.065789
0.092609 0.082288 0.080330
0.111159 0.097183 0.095210
0.130049 0.112352 0.110363
0.149226 0.127751 0.125745
0.168649 0.143348 0.141326
0.188291 0.159120 0.157082
0.208127 0.175049 0.172994
0.228141 0.191120 0.189048
0.248316 0.207320 0.205232
0.268640 0.223641 0.221535
0.289103 0.240072 0.237950
0.309695 0.256608 0.254468
0.073295 0.078955 0.073714
0.073295 0.078955 0.073714
0.085327 0.088616 0.083365
0.102025 0.102025 0.096760
0.119589 0.116129 0.110850
0.137717 0.130685 0.125391
0.156267 0.145581 0.140271
0.175157 0.160750 0.155424
0.194334 0.176149 0.170806
0.213757 0.191746 0.186387
0.233399 0.207518 0.202143
0.253235 0.223447 0.218055
0.273249 0.239517 0.234109
0.293424 0.255718 0.250293
0.313748 0.272038 0.266596
0.334211 0.288470 0.283011
0.354803 0.305006 0.299529
0.120742 0.129863 0.121112
0.120742 0.129863 0.121112
0.132774 0.139524 0.130763
0.149472 0.152933 0.144158
0.167037 0.167037 0.158247
0.185164 0.181593 0.172788
0.203714 0.196489 0.187669
0.222604 0.211658 0.202822
0.241781 0.227056 0.218204
0.261204 0.242653 0.233785
0.280846 0.258425 0.249541
0.300683 0.274354 0.265453
0.320696 0.290425 0.281507
0.340871 0.306625 0.297690
0.361196 0.322946 0.313994
0.381658 0.339378 0.330408
0.402251 0.355913 0.346927
0.169710 0.182402 0.170029
0.169710 0.182402 0.170029
0.181742 0.192063 0.179680
0.198440 0.205472 0.193075
0.216005 0.219576 0.207164
0.234132 0.234132 0.221705
0.252682 0.249028 0.236585
0.271572 0.264197 0.251739
0.290749 0.279595 0.267121
0.310172 0.295192 0.282702
0.329814 0.310964 0.298458
0.349650 0.326893 0.314370
0.369664 0.342964 0.330424
0.389839 0.359164 0.346607
0.410163 0.375485 0.362911
0.430626 0.391917 0.379325
0.451219 0.408452 0.395844
0.219820 0.236166 0.220086
0.219820 0.236166 0.220086
0.231852 0.245827 0.229738
0.248550 0.259236 0.243132
0.266114 0.273340 0.257222
0.284242 0.287896 0.271763
0.302792 0.302792 0.286643
0.321682 0.317961 0.301796
0.340859 0.333359 0.317179
0.360282 0.348956 0.332759
0.379924 0.364729 0.348515
0.399760 0.380657 0.364427
0.419774 0.396728 0.380481
0.439949 0.412929 0.396665
0.460273 0.429249 0.412968
0.480736 0.445681 0.429383
0.501328 0.462216 0.445901
0.270850 0.290917 0.271063
0.270850 0.290917 0.271063
0.282881 0.300578 0.280714
0.299580 0.313987 0.294109
0.317144 0.328091 0.308198
0.335271 0.342647 0.322739
0.353821 0.357543 0.337619
0.372712 0.372712 0.352772
0.391888 0.388110 0.368155
0.411312 0.403707 0.383736
0.430953 0.419479 0.399491
0.450790 0.435408 0.415403
0.470803 0.451479 0.431457
0.490978 0.467680 0.447641
0.511303 0.484000 0.463944
0.531766 0.500432 0.480359
0.552358 0.516967 0.496877
0.322652 0.346497 0.322811
0.322652 0.346497 0.322811
0.334683 0.356158 0.332462
0.351382 0.369567 0.345857
0.368946 0.383671 0.359946
0.387073 0.398227 0.374487
0.405623 0.413122 0.389367
0.424514 0.428291 0.404520
0.443690 0.443690 0.419903
0.463114 0.459287 0.435484
0.482755 0.475059 0.451239
0.502592 0.490988 0.467151
0.522605 0.507059 0.483205
0.542780 0.523259 0.499389
0.563105 0.539580 0.515692
0.583568 0.556011 0.532107
0.604160 0.572547 0.548625
0.375121 0.402793 0.375225
0.375121 0.402793 0.375225
0.387153 0.412454 0.384877
0.403851 0.425863 0.398271
0.421415 0.439967 0.412361
0.439543 0.454523 0.426902
0.458093 0.469419 0.441782
0.476983 0.484587 0.456935
0.496160 0.499986 0.472318
0.515583 0.515583 0.487898
0.535225 0.531355 0.503654
0.555061 0.547284 0.519566
0.575075 0.563355 0.535620
0.595250 0.579555 0.551804
0.615574 0.595876 0.568107
0.636037 0.612307 0.584522
0.656629 0.628843 0.601040
0.428179 0.459720 0.428228
0.428179 0.459720 0.428228
0.440211 0.469381 0.437879
0.456909 0.482790 0.451274
0.474474 0.496894 0.465364
0.492601 0.511450 0.479905
0.511151 0.526346 0.494785
0.530041 0.541515 0.509938
0.549218 0.556914 0.525320
0.568641 0.572511 0.540901
0.588283 0.588283 0.556657
0.608119 0.604212 0.572569
0.628133 0.620282 0.588623
0.648308 0.636483 0.604807
0.668632 0.652803 0.621110
0.689095 0.669235 0.637525
0.709688 0.685771 0.654043
0.481765 0.517213 0.481758
0.481765 0.517213 0.481758
0.493796 0.526874 0.491409
0.510495 0.540283 0.504804
0.528059 0.554387 0.518893
0.546186 0.568944 0.533434
0.564736 0.583839 0.548314
0.583627 0.599008 0.563467
0.602803 0.614407 0.578850
0.622227 0.630004 0.594431
0.641868 0.645776 0.610186
0.661705 0.661705 0.626098
0.681718 0.677775 0.642152
0.701893 0.693976 0.658336
0.722218 0.710297 0.674639
0.742681 0.726728 0.691054
0.763273 0.743264 0.707572
0.535828 0.575219 0.535764
0.535828 0.575219 0.535764
0.547859 0.584880 0.545415
0.564557 0.598289 0.558810
0.582122 0.612393 0.572900
0.600249 0.626949 0.587441
0.618799 0.641845 0.602321
0.637690 0.657014 0.617474
0.656866 0.672412 0.632856
0.676290 0.688010 0.648437
0.695931 0.703782 0.664193
0.715768 0.719710 0.680105
0.735781 0.735781 0.696159
0.755956 0.751982 0.712343
0.776281 0.768302 0.728646
0.796744 0.784734 0.745061
0.817336 0.801269 0.761579
0.590328 0.633693 0.590207
0.590328 0.633693 0.590207
0.602359 0.643355 0.599858
0.619057 0.656763 0.613253
0.636622 0.670868 0.627343
0.654749 0.685424 0.641884
0.673299 0.700319 0.656764
0.692190 0.715488 0.671917
0.711366 0.730887 0.687300
0.730790 0.746484 0.702880
0.750431 0.762256 0.718636
0.770268 0.778185 0.734548
0.790281 0.794256 0.750602
0.810456 0.810456 0.766786
0.830781 0.826777 0.783089
0.851244 0.843208 0.799504
0.871836 0.859744 0.816022
0.645231 0.692600 0.645053
0.645231 0.692600 0.645053
0.657262 0.702262 0.654704
0.673960 0.715670 0.668099
0.691525 0.729775 0.682188
0.709652 0.744331 0.696729
0.728202 0.759226 0.711610
0.747093 0.774395 0.726763
0.766269 0.789794 0.742145
0.785693 0.805391 0.757726
0.805334 0.821163 0.773482
0.825171 0.837092 0.789394
0.845184 0.853163 0.805448
0.865359 0.869363 0.821631
0.885684 0.885684 0.837935
0.906147 0.902115 0.854349
0.926739 0.918651 0.870868
0.700508 0.751909 0.700273
0.700508 0.751909 0.700273
0.712539 0.761570 0.709924
0.729238 0.774979 0.723319
0.746802 0.789083 0.737408
0.764929 0.803639 0.751949
0.783479 0.818535 0.766829
0.802370 0.833704 0.781982
0.821546 0.849102 0.797365
0.840970 0.864700 0.812946
0.860611 0.880472 0.828701
0.880448 0.896400 0.844613
0.900461 0.912471 0.860667
0.920636 0.928672 0.876851
0.940961 0.944992 0.893154
0.961424 0.961424 0.909569
0.982016 0.977959 0.926087
0.756134 0.811592 0.755841
0.756134 0.811592 0.755841
0.768166 0.821253 0.765492
0.784864 0.834662 0.778887
0.802429 0.848766 0.792977
0.820556 0.863322 0.807518
0.839106 0.878218 0.822398
0.857996 0.893387 0.837551
0.877173 0.908786 0.852933
0.896596 0.924383 0.868514
0.916238 0.940155 0.884270
0.936074 0.956084 0.900182
0.956088 0.972154 0.916236
0.976263 0.988355 0.932420
0.996587 1.000000 0.948723
1.000000 1.000000 0.965138
1.000000 1.000000 0.981656
0.000000 0.000000 0.001834
0.000000 0.000000 0.001834
0.010999 0.008628 0.011485
0.027697 0.022037 0.024880
0.045261 0.036141 0.038969
0.063389 0.050698 0.053510
0.081939 0.065593 0.068390
0.100829 0.080762 0.083544
0.120006 0.096161 0.098926
0.139429 0.111758 0.114507
0.159071 0.127530 0.130263
0.178907 0.143459 0.146175
0.198921 0.159529 0.162229
0.219096 0.175730 0.178412
0.239420 0.192050 0.194716
0.259883 0.208482 0.211130
0.280475 0.225018 0.227649
0.000000 0.000000 0.001834
0.000000 0.000000 0.001834
0.010999 0.008628 0.011485
0.027697 0.022037 0.024880
0.045261 0.036141 0.038969
0.063389 0.050698 0.053510
0.081939 0.065593 0.068390
0.100829 0.080762 0.083544
0.120006 0.096161 0.098926
0.139429 0.111758 0.114507
0.159071 0.127530 0.130263
0.178907 0.143459 0.146175
0.198921 0.159529 0.162229
0.219096 0.175730 0.178412
0.239420 0.192050 0.194716
0.259883 0.208482 0.211130
0.280475 0.225018 0.227649
0.031468 0.033838 0.034301
0.031468 0.033838 0.034301
0.043500 0.043500 0.043952
0.060198 0.056908 0.057347
0.077762 0.071013 0.071436
0.095890 0.085569 0.085977
0.114440 0.100464 0.100858
0.133330 0.115633 0.116011
0.152507 0.131032 0.131393
0.171930 0.146629 0.146974
0.191572 0.162401 0.162730
0.211408 0.178330 0.178642
0.231422 0.194401 0.194696
0.251597 0.210601 0.210879
0.271921 0.226922 0.227183
0.292384 0.243353 0.243597
0.312976 0.259889 0.260116
0.076576 0.082236 0.079362
0.076576 0.082236 0.079362
0.088608 0.091897 0.089013
0.105306 0.105306 0.102408
0.122870 0.119410 0.116497
0.140998 0.133966 0.131038
0.159548 0.148862 0.145919
0.178438 0.164031 0.161072
0.197615 0.179430 0.176454
0.217038 0.195027 0.192035
0.236680 0.210799 0.207791
0.256516 0.226728 0.223703
0.276530 0.242798 0.239757
0.296705 0.258999 0.255940
0.317029 0.275319 0.272244
0.337492 0.291751 0.288658
0.358084 0.308287 0.305177
0.124023 0.133144 0.126760
0.124023 0.133144 0.126760
0.136055 0.142805 0.136411
0.152753 0.156214 0.149806
0.170318 0.170318 0.163895
0.188445 0.184874 0.178436
0.206995 0.199770 0.193316
0.225885 0.214939 0.208469
0.245062 0.230337 0.223852
0.264485 0.245934 0.239433
0.284127 0.261706 0.255188
0.303964 0.277635 0.271101
0.323977 0.293706 0.287155
0.344152 0.309906 0.303338
0.364477 0.326227 0.319642
0.384939 0.342658 0.336056
0.405532 0.359194 0.352574
0.172991 0.185683 0.175677
0.172991 0.185683 0.175677
0.185023 0.195344 0.185328
0.201721 0.208753 0.198723
0.219286 0.222857 0.212812
0.237413 0.237413 0.227353
0.255963 0.252309 0.242233
0.274853 0.267478 0.257386
0.294030 0.282876 0.272769
0.313453 0.298473 0.288350
0.333095 0.314245 0.304105
0.352931 0.330174 0.320017
0.372945 0.346245 0.336071
0.393120 0.362445 0.352255
0.413444 0.378766 0.368559
0.433907 0.395198 0.384973
0.454500 0.411733 0.401491
0.223101 0.239447 0.225734
0.223101 0.239447 0.225734
0.235133 0.249108 0.235385
0.251831 0.262517 0.248780
0.269395 0.276621 0.262870
0.287523 0.291177 0.277411
0.306073 0.306073 0.292291
0.324963 0.321242 0.307444
0.344140 0.336640 0.322826
0.363563 0.352237 0.338407
0.383205 0.368010 0.354163
0.403041 0.383938 0.370075
0.423055 0.400009 0.386129
0.443230 0.416210 0.402313
0.463554 0.432530 0.418616
0.484017 0.448962 0.435031
0.504609 0.465497 0.451549
0.274131 0.294198 0.276710
0.274131 0.294198 0.276710
0.286162 0.303859 0.286362
0.302861 0.317268 0.299756
0.320425 0.331372 0.313846
0.338552 0.345928 0.328387
0.357102 0.360824 0.343267
0.375993 0.375993 0.358420
0.395169 0.391391 0.373803
0.414593 0.406988 0.389383
0.434234 0.422760 0.405139
0.454071 0.438689 0.421051
0.474084 0.454760 0.437105
0.494259 0.470961 0.453289
0.514584 0.487281 0.469592
0.535047 0.503713 0.486007
0.555639 0.520248 0.502525
0.325933 0.349778 0.328458
0.325933 0.349778 0.328458
0.337964 0.359439 0.338110
0.354663 0.372848 0.351504
0.372227 0.386952 0.365594
0.390354 0.401508 0.380135
0.408904 0.416403 0.395015
0.427795 0.431572 0.410168
0.446971 0.446971 0.425551
0.466395 0.462568 0.441131
0.486036 0.478340 0.456887
0.505873 0.494269 0.472799
0.525886 0.510340 0.488853
0.546061 0.526540 0.505037
0.566386 0.542861 0.521340
0.586849 0.559292 0.537755
0.607441 0.575828 0.554273
0.378402 0.406074 0.380873
0.378402 0.406074 0.380873
0.390434 0.415735 0.390524
0.407132 0.429144 0.403919
0.424696 0.443248 0.418009
0.442824 0.457804 0.432550
0.461374 0.472700 0.447430
0.480264 0.487868 0.462583
0.499441 0.503267 0.477965
0.518864 0.518864 0.493546
0.538506 0.534636 0.509302
0.558342 0.550565 0.525214
0.578356 0.566636 0.541268
0.598531 0.582836 0.557452
0.618855 0.599157 0.573755
0.639318 0.615588 0.590170
0.659910 0.632124 0.606688
0.431460 0.463001 0.433876
0.431460 0.463001 0.433876
0.443492 0.472662 0.443527
0.460190 0.486071 0.456922
0.477755 0.500175 0.471011
0.495882 0.514731 0.485552
0.514432 0.529627 0.500433
0.533322 0.544796 0.515586
0.552499 0.560195 0.530968
0.571922 0.575792 0.546549
0.591564 0.591564 0.562305
0.611400 0.607493 0.578217
0.631414 0.623563 0.594271
0.651589 0.639764 0.610454
0.671913 0.656084 0.626758
0.692376 0.672516 0.643172
0.712969 0.689052 0.659691
0.485046 0.520494 0.487405
0.485046 0.520494 0.487405
0.497077 0.530155 0.497057
0.513776 0.543564 0.510451
0.531340 0.557668 0.524541
0.549467 0.572225 0.539082
0.568017 0.587120 0.553962
0.586908 0.602289 0.569115
0.606084 0.617688 0.584498
0.625508 0.633285 0.600078
0.645149 0.649057 0.615834
0.664986 0.664986 0.631746
0.684999 0.681056 0.647800
0.705174 0.697257 0.663984
0.725499 0.713578 0.680287
0.745962 0.730009 0.696702
0.766554 0.746545 0.713220
0.539109 0.578500 0.541412
0.539109 0.578500 0.541412
0.551140 0.588161 0.551063
0.567838 0.601570 0.564458
0.585403 0.615674 0.578547
0.603530 0.630230 0.593088
0.622080 0.645126 0.607968
0.640971 0.660295 0.623122
0.660147 0.675693 0.638504
0.679571 0.691291 0.654085
0.699212 0.707063 0.669841
0.719049 0.722991 0.685753
0.739062 0.739062 0.701807
0.759237 0.755263 0.717990
0.779562 0.771583 0.734294
0.800025 0.788015 0.750708
0.820617 0.804550 0.767227
0.593609 0.636974 0.595855
0.593609 0.636974 0.595855
0.605640 0.646636 0.605506
0.622338 0.660044 0.618901
0.639903 0.674149 0.632990
0.658030 0.688705 0.647531
0.676580 0.703600 0.662412
0.695471 0.718769 0.677565
0.714647 0.734168 0.692947
0.734071 0.749765 0.708528
0.753712 0.765537 0.724284
0.773549 0.781466 0.740196
0.793562 0.797537 0.756250
0.813737 0.813737 0.772434
0.834062 0.830058 0.788737
0.854525 0.846489 0.805151
0.875117 0.863025 0.821670
0.648512 0.695881 0.650701
0.648512 0.695881 0.650701
0.660543 0.705543 0.660352
0.677241 0.718951 0.673747
0.694806 0.733056 0.687836
0.712933 0.747612 0.702377
0.731483 0.762507 0.717257
0.750374 0.777676 0.732410
0.769550 0.793075 0.747793
0.788974 0.808672 0.763374
0.808615 0.824444 0.779129
0.828452 0.840373 0.795042
0.848465 0.856444 0.811096
0.868640 0.872644 0.827279
0.888965 0.888965 0.843583
0.909428 0.905396 0.859997
0.930020 0.921932 0.876516
0.703789 0.755190 0.705920
0.703789 0.755190 0.705920
0.715820 0.764851 0.715572
0.732519 0.778260 0.728966
0.750083 0.792364 0.743056
0.768210 0.806920 0.757597
0.786760 0.821816 0.772477
0.805651 0.836985 0.787630
0.824827 0.852383 0.803013
0.844251 0.867981 0.818593
0.863892 0.883753 0.834349
0.883729 0.899681 0.850261
0.903742 0.915752 0.866315
0.923917 0.931953 0.882499
0.944242 0.948273 0.898802
0.964705 0.964705 0.915217
0.985297 0.981240 0.931735
0.759415 0.814873 0.761489
0.759415 0.814873 0.761489
0.771447 0.824534 0.771140
0.788145 0.837943 0.784535
0.805710 0.852047 0.798624
0.823837 0.866603 0.813165
0.842387 0.881499 0.828045
0.861277 0.896668 0.843199
0.880454 0.912067 0.858581
0.899877 0.927664 0.874162
0.919519 0.943436 0.889918
0.939355 0.959365 0.905830
0.959369 0.975435 0.921884
0.979544 0.991636 0.938067
0.999868 1.000000 0.954371
1.000000 1.000000 0.970785
1.000000 1.000000 0.987304
0.003521 0.003521 0.009673
0.003521 0.003521 0.009673
0.015552 0.013182 0.019324
0.032251 0.026591 0.032719
0.049815 0.040695 0.046808
0.067942 0.055251 0.061349
0.086492 0.070147 0.076229
0.105383 0.085316 0.091382
0.124559 0.100714 0.106765
0.143983 0.116312 0.122346
