assets/luts/generated_genre/bs_noir_classic_bw_silver_34c0e45b6a8bed87.cube
# V4 spec-generated LUT — bs_noir_classic_bw_silver
# Genre: noir
# Look: Classic noir — silver desaturated, hard shadow, fated. Kamiński/Schindler's List, Mank.
# Spec hash: 34c0e45b6a8bed87
TITLE "V4 Spec LUT — bs_noir_classic_bw_silver"
LUT_3D_SIZE 5
DOMAIN_MIN 0.0 0.0 0.0
DOMAIN_MAX 1.0 1.0 1.0
0.000000 0.000000 0.000000
0.041980 0.032860 0.033322
0.116725 0.092880 0.093278
0.195640 0.156248 0.156581
0.277194 0.221737 0.222001
0.120742 0.129863 0.121112
0.167037 0.167037 0.158247
0.241781 0.227056 0.218204
0.320696 0.290425 0.281507
0.402251 0.355913 0.346927
0.322652 0.346497 0.322811
0.368946 0.383671 0.359946
0.443690 0.443690 0.419903
0.522605 0.507059 0.483205
0.604160 0.572547 0.548625
0.535828 0.575219 0.535764
0.582122 0.612393 0.572900
0.656866 0.672412 0.632856
0.735781 0.735781 0.696159
0.817336 0.801269 0.761579
0.756134 0.811592 0.755841
0.802429 0.848766 0.792977
0.877173 0.908786 0.852933
0.956088 0.972154 0.916236
1.000000 1.000000 0.981656
0.008311 0.008311 0.017918
0.054605 0.045485 0.055053
0.129349 0.105504 0.115010
0.208264 0.168873 0.178312
0.289819 0.234361 0.243732
0.133367 0.142487 0.142843
0.179661 0.179661 0.179979
0.254405 0.239681 0.239936
0.333320 0.303049 0.303238
0.414875 0.368538 0.368658
0.335276 0.359121 0.344542
0.381570 0.396295 0.381677
0.456315 0.456315 0.441634
0.535230 0.519683 0.504937
0.616784 0.585172 0.570357
0.548452 0.587843 0.557496
0.594746 0.625018 0.594631
0.669491 0.685037 0.654588
0.748406 0.748406 0.717890
0.829960 0.813894 0.783310
0.768759 0.824217 0.777573
0.815053 0.861391 0.814708
0.889797 0.921410 0.874665
0.968712 0.984779 0.937967
1.000000 1.000000 1.000000
0.028694 0.028694 0.053004
0.074988 0.065868 0.090139
0.149732 0.125887 0.150096
0.228647 0.189256 0.213399
0.310202 0.254744 0.278819
0.153750 0.162870 0.177930
0.200044 0.200044 0.215065
0.274788 0.260064 0.275022
0.353703 0.323432 0.338325
0.435258 0.388920 0.403745
0.355659 0.379504 0.379628
0.401953 0.416678 0.416764
0.476698 0.476698 0.476721
0.555613 0.540066 0.540023
0.637167 0.605554 0.605443
0.568835 0.608226 0.592582
0.615129 0.645400 0.629717
0.689873 0.705420 0.689674
0.768788 0.768788 0.752977
0.850343 0.834277 0.818397
0.789142 0.844600 0.812659
0.835436 0.881774 0.849794
0.910180 0.941793 0.909751
0.989095 1.000000 0.973054
1.000000 1.000000 1.000000
0.050214 0.050214 0.090048
0.096508 0.087388 0.127184
0.171252 0.147408 0.187140
0.250167 0.210776 0.250443
0.331722 0.276264 0.315863
0.175270 0.184390 0.214974
0.221564 0.221564 0.252110
0.296309 0.281584 0.312066
0.375224 0.344952 0.375369
0.456778 0.410441 0.440789
0.377179 0.401024 0.416673
0.423474 0.438198 0.453808
0.498218 0.498218 0.513765
0.577133 0.561586 0.577067
0.658688 0.627075 0.642487
0.590355 0.629747 0.629626
0.636650 0.666921 0.666762
0.711394 0.726940 0.726718
0.790309 0.790309 0.790021
0.871863 0.855797 0.855441
0.810662 0.866120 0.849703
0.856956 0.903294 0.886839
0.931701 0.963313 0.946795
1.000000 1.000000 1.000000
1.000000 1.000000 1.000000
0.072454 0.072454 0.128332
0.118748 0.109628 0.165467
0.193492 0.169648 0.225424
0.272407 0.233016 0.288726
0.353962 0.298505 0.354146
0.197510 0.206630 0.253258
0.243805 0.243805 0.290393
0.318549 0.303824 0.350350
0.397464 0.367193 0.413652
0.479019 0.432681 0.479072
0.399420 0.423264 0.454956
0.445714 0.460439 0.492091
0.520458 0.520458 0.552048
0.599373 0.583827 0.615351
0.680928 0.649315 0.680771
0.612595 0.651987 0.667910
0.658890 0.689161 0.705045
0.733634 0.749180 0.765002
0.812549 0.812549 0.828304
0.894104 0.878037 0.893724
0.832902 0.888360 0.887987
0.879196 0.925534 0.925122
0.953941 0.985554 0.985079
1.000000 1.000000 1.000000
1.000000 1.000000 1.000000
