assets/luts/generated_genre/bs_period_kodachrome_60s_f09f696eb4640cbc.cube
# V4 spec-generated LUT — bs_period_kodachrome_60s
# Genre: period
# Look: Mid-century Kodachrome period — magazine, archival, red-rich. Richardson/Aviator, Mad Men.
# Spec hash: f09f696eb4640cbc
TITLE "V4 Spec LUT — bs_period_kodachrome_60s"
LUT_3D_SIZE 9
DOMAIN_MIN 0.0 0.0 0.0
DOMAIN_MAX 1.0 1.0 1.0
0.033015 0.015494 0.003553
0.170404 0.012569 0.000000
0.306408 0.009674 0.000000
0.441768 0.006793 0.000000
0.576696 0.003920 0.000000
0.711302 0.001055 0.000000
0.845647 0.000000 0.000000
0.979777 0.000000 0.000000
1.000000 0.000000 0.000000
0.026127 0.145846 0.000000
0.163516 0.142921 0.000000
0.299521 0.140026 0.000000
0.434880 0.137145 0.000000
0.569809 0.134272 0.000000
0.704414 0.131407 0.000000
0.838760 0.128547 0.000000
0.972889 0.125692 0.000000
1.000000 0.122841 0.000000
0.019313 0.274807 0.000000
0.156702 0.271883 0.000000
0.292707 0.268987 0.000000
0.428066 0.266106 0.000000
0.562995 0.263234 0.000000
0.697600 0.260368 0.000000
0.831946 0.257509 0.000000
0.966075 0.254653 0.000000
1.000000 0.251802 0.000000
0.012532 0.403144 0.000000
0.149921 0.400219 0.000000
0.285926 0.397324 0.000000
0.421285 0.394442 0.000000
0.556214 0.391570 0.000000
0.690819 0.388705 0.000000
0.825165 0.385845 0.000000
0.959294 0.382990 0.000000
1.000000 0.380139 0.000000
0.005773 0.531066 0.000000
0.143162 0.528142 0.000000
0.279166 0.525247 0.000000
0.414526 0.522365 0.000000
0.549455 0.519493 0.000000
0.683978 0.516629 0.000000
0.816615 0.513800 0.000000
0.949038 0.510975 0.000000
1.000000 0.508155 0.000000
0.000000 0.658679 0.000000
0.136419 0.655755 0.000000
0.271702 0.652872 0.000000
0.405340 0.650022 0.000000
0.538553 0.647180 0.000000
0.671447 0.644346 0.000000
0.804084 0.641517 0.000000
0.936507 0.638692 0.000000
1.000000 0.635871 0.000000
0.000000 0.786098 0.000000
0.124920 0.783205 0.000000
0.259196 0.780341 0.000000
0.392834 0.777490 0.000000
0.526047 0.774649 0.000000
0.658940 0.771814 0.000000
0.791577 0.768985 0.000000
0.924001 0.766160 0.000000
1.000000 0.763340 0.000000
0.000000 0.913360 0.000000
0.112434 0.910466 0.000000
0.246709 0.907602 0.000000
0.380347 0.904752 0.000000
0.513560 0.901910 0.000000
0.646454 0.899076 0.000000
0.779091 0.896246 0.000000
0.911515 0.893422 0.000000
1.000000 0.890601 0.000000
0.000000 1.000000 0.000000
0.099965 1.000000 0.000000
0.234241 1.000000 0.000000
0.367878 1.000000 0.000000
0.501092 1.000000 0.000000
0.633985 1.000000 0.000000
0.766622 1.000000 0.000000
0.899046 1.000000 0.000000
1.000000 1.000000 0.000000
0.032315 0.014489 0.143334
0.169704 0.011564 0.139520
0.305709 0.008669 0.135745
0.441068 0.005787 0.131987
0.575997 0.002915 0.128241
0.710602 0.000050 0.124505
0.844948 0.000000 0.120775
0.979077 0.000000 0.117052
1.000000 0.000000 0.113334
0.025428 0.144841 0.130428
0.162816 0.141916 0.126614
0.298821 0.139021 0.122839
0.434180 0.136139 0.119081
0.569109 0.133267 0.115336
0.703715 0.130402 0.111599
0.838060 0.127542 0.107870
0.972190 0.124687 0.104146
1.000000 0.121836 0.100428
0.018614 0.273802 0.117660
0.156002 0.270877 0.113846
0.292007 0.267982 0.110070
0.427366 0.265101 0.106313
0.562295 0.262229 0.102567
0.696901 0.259363 0.098831
0.831246 0.256503 0.095101
0.965376 0.253648 0.091378
1.000000 0.250797 0.087660
0.011833 0.402139 0.104953
0.149221 0.399214 0.101139
0.285226 0.396319 0.097364
0.420585 0.393437 0.093607
0.555514 0.390565 0.089861
0.690120 0.387700 0.086124
0.824465 0.384840 0.082395
0.958594 0.381985 0.078672
1.000000 0.379133 0.074953
0.005073 0.530061 0.092288
0.142462 0.527137 0.088474
0.278467 0.524242 0.084699
0.413826 0.521360 0.080941
0.548755 0.518488 0.077196
0.682678 0.515635 0.073934
0.815315 0.512806 0.071395
0.947738 0.509981 0.068860
1.000000 0.507160 0.066328
0.000000 0.657674 0.079653
0.135719 0.654750 0.075839
0.270402 0.651878 0.072985
0.404040 0.649028 0.070426
0.537253 0.646186 0.067876
0.670147 0.643351 0.065332
0.802784 0.640522 0.062792
0.935207 0.637698 0.060257
1.000000 0.634877 0.057725
0.000000 0.785104 0.069566
0.123621 0.782211 0.066969
0.257896 0.779346 0.064398
0.391534 0.776496 0.061840
0.524747 0.773655 0.059290
0.657640 0.770820 0.056745
0.790278 0.767991 0.054206
0.922701 0.765166 0.051671
1.000000 0.762345 0.049139
0.000000 0.912365 0.060994
0.111134 0.909472 0.058397
0.245409 0.906608 0.055826
0.379047 0.903757 0.053268
0.512260 0.900916 0.050717
0.645154 0.898081 0.048173
0.777791 0.895252 0.045634
0.910215 0.892428 0.043098
1.000000 0.889607 0.040567
0.000000 1.000000 0.052433
0.098665 1.000000 0.049836
0.232941 1.000000 0.047266
0.366579 1.000000 0.044707
0.499792 1.000000 0.042157
0.632685 1.000000 0.039613
0.765322 1.000000 0.037073
0.897746 1.000000 0.034538
1.000000 1.000000 0.032006
0.031624 0.013495 0.281525
0.169013 0.010570 0.277711
0.305017 0.007675 0.273935
0.440377 0.004794 0.270178
0.575305 0.001922 0.266432
0.709911 0.000000 0.262696
0.844256 0.000000 0.258966
0.978386 0.000000 0.255243
1.000000 0.000000 0.251525
0.024736 0.143847 0.268619
0.162125 0.140922 0.264805
0.298130 0.138027 0.261029
0.433489 0.135146 0.257272
0.568418 0.132274 0.253526
0.703023 0.129408 0.249790
0.837369 0.126548 0.246060
0.971498 0.123693 0.242337
1.000000 0.120842 0.238619
0.017922 0.272808 0.255850
0.155311 0.269884 0.252037
0.291316 0.266989 0.248261
0.426675 0.264107 0.244504
0.561604 0.261235 0.240758
0.696209 0.258370 0.237021
0.830555 0.255510 0.233292
0.964684 0.252655 0.229569
1.000000 0.249803 0.225850
0.011141 0.401145 0.243144
0.148530 0.398220 0.239330
0.284534 0.395325 0.235555
0.419894 0.392444 0.231797
0.554823 0.389571 0.228052
0.689428 0.386706 0.224315
0.823774 0.383846 0.220586
0.957903 0.380991 0.216862
1.000000 0.378150 0.213556
0.004382 0.529068 0.230479
0.141771 0.526143 0.226665
0.277775 0.523248 0.222889
0.413135 0.520367 0.219132
0.548064 0.517494 0.215386
0.681393 0.514652 0.212539
0.814030 0.511823 0.209999
0.946453 0.508998 0.207464
1.000000 0.506177 0.204932
0.000000 0.656680 0.217844
0.134842 0.653759 0.214159
0.269117 0.650895 0.211589
0.402755 0.648045 0.209030
0.535968 0.645203 0.206480
0.668862 0.642368 0.203936
0.801499 0.639539 0.201396
0.933922 0.636715 0.198861
1.000000 0.633894 0.196329
0.000000 0.784121 0.208170
0.122335 0.781228 0.205573
0.256611 0.778363 0.203003
0.390249 0.775513 0.200444
0.523462 0.772672 0.197894
0.656355 0.769837 0.195349
0.788992 0.767008 0.192810
0.921416 0.764183 0.190275
1.000000 0.761362 0.187743
0.000000 0.911382 0.199598
0.109849 0.908489 0.197001
0.244124 0.905625 0.194430
0.377762 0.902774 0.191872
0.510975 0.899933 0.189321
0.643869 0.897098 0.186777
0.776506 0.894269 0.184238
0.908930 0.891445 0.181703
1.000000 0.888624 0.179171
0.000000 1.000000 0.191037
0.097380 1.000000 0.188441
0.231655 1.000000 0.185870
0.365293 1.000000 0.183311
0.498507 1.000000 0.180761
0.631400 1.000000 0.178217
0.764037 1.000000 0.175677
0.896461 1.000000 0.173142
1.000000 1.000000 0.170611
0.030936 0.012506 0.419031
0.168324 0.009582 0.415217
0.304329 0.006687 0.411442
0.439688 0.003805 0.407684
0.574617 0.000933 0.403939
0.709223 0.000000 0.400202
0.843568 0.000000 0.396473
0.977698 0.000000 0.392750
1.000000 0.000000 0.389031
0.024048 0.142858 0.406125
0.161437 0.139934 0.402311
0.297442 0.137039 0.398536
0.432801 0.134157 0.394779
0.567730 0.131285 0.391033
0.702335 0.128420 0.387296
0.836681 0.125560 0.383567
0.970810 0.122704 0.379844
1.000000 0.119853 0.376125
0.017234 0.271820 0.393357
0.154623 0.268895 0.389543
0.290627 0.266000 0.385768
0.425987 0.263118 0.382010
0.560916 0.260246 0.378265
0.695521 0.257381 0.374528
0.829867 0.254521 0.370799
0.963996 0.251666 0.367075
1.000000 0.248815 0.363357
0.010453 0.400156 0.380651
0.147842 0.397232 0.376837
0.283846 0.394336 0.373061
0.419206 0.391455 0.369304
0.554135 0.388583 0.365558
0.688740 0.385717 0.361822
0.823086 0.382858 0.358092
0.957215 0.380002 0.354369
1.000000 0.377172 0.351474
0.003694 0.528079 0.367985
0.141082 0.525154 0.364171
0.277087 0.522259 0.360396
0.412447 0.519378 0.356639
0.547220 0.516508 0.353001
0.680114 0.513674 0.350457
0.812751 0.510845 0.347918
0.945174 0.508020 0.345382
1.000000 0.505199 0.342851
0.000000 0.655692 0.355351
0.133563 0.652781 0.352078
0.267838 0.649917 0.349507
0.401476 0.647066 0.346948
0.534689 0.644225 0.344398
0.667583 0.641390 0.341854
0.800220 0.638561 0.339315
0.932644 0.635737 0.336779
1.000000 0.632916 0.334248
0.000000 0.783143 0.346088
0.121057 0.780249 0.343491
0.255332 0.777385 0.340921
0.388970 0.774535 0.338362
0.522183 0.771693 0.335812
0.655076 0.768859 0.333268
0.787714 0.766030 0.330728
0.920137 0.763205 0.328193
1.000000 0.760384 0.325661
0.000000 0.910404 0.337516
0.108570 0.907511 0.334919
0.242846 0.904647 0.332348
0.376484 0.901796 0.329790
0.509697 0.898955 0.327240
0.642590 0.896120 0.324695
0.775227 0.893291 0.322156
0.907651 0.890466 0.319621
1.000000 0.887646 0.317089
0.000000 1.000000 0.328956
0.096102 1.000000 0.326359
0.230377 1.000000 0.323788
0.364015 1.000000 0.321230
0.497228 1.000000 0.318679
0.630121 1.000000 0.316135
0.762759 1.000000 0.313596
0.895182 1.000000 0.311060
1.000000 1.000000 0.308529
0.030250 0.011521 0.556089
0.167639 0.008596 0.552275
0.303643 0.005701 0.548499
0.439003 0.002820 0.544742
0.573932 0.000000 0.540996
0.708537 0.000000 0.537260
0.842883 0.000000 0.533530
0.977012 0.000000 0.529807
1.000000 0.000000 0.526089
0.023362 0.141873 0.543183
0.160751 0.138948 0.539369
0.296756 0.136053 0.535593
0.432115 0.133172 0.531836
0.567044 0.130299 0.528090
0.701649 0.127434 0.524354
0.835995 0.124574 0.520624
0.970124 0.121719 0.516901
1.000000 0.118868 0.513183
0.016548 0.270834 0.530414
0.153937 0.267910 0.526601
0.289942 0.265014 0.522825
0.425301 0.262133 0.519068
0.560230 0.259261 0.515322
0.694835 0.256395 0.511586
0.829181 0.253536 0.507856
0.963310 0.250680 0.504133
1.000000 0.247829 0.500415
0.009767 0.399171 0.517708
0.147156 0.396246 0.513894
0.283161 0.393351 0.510119
0.418520 0.390469 0.506361
0.553449 0.387597 0.502616
0.688054 0.384732 0.498879
0.822400 0.381872 0.495150
0.956461 0.379018 0.491474
1.000000 0.376197 0.488942
0.003008 0.527093 0.505043
0.140397 0.524169 0.501229
0.276401 0.521274 0.497453
0.411761 0.518392 0.493696
0.545946 0.515533 0.490469
0.678839 0.512699 0.487924
0.811476 0.509870 0.485385
0.943900 0.507045 0.482850
1.000000 0.504224 0.480318
0.000000 0.654706 0.492408
0.132289 0.651806 0.489545
0.266564 0.648942 0.486974
0.400202 0.646091 0.484416
0.533415 0.643250 0.481866
0.666308 0.640415 0.479321
0.798946 0.637586 0.476782
0.931369 0.634762 0.474247
1.000000 0.631941 0.471715
0.000000 0.782168 0.483556
0.119782 0.779275 0.480959
0.254057 0.776410 0.478388
0.387695 0.773560 0.475830
0.520908 0.770718 0.473279
0.653802 0.767884 0.470735
0.786439 0.765055 0.468196
0.918862 0.762230 0.465661
1.000000 0.759409 0.463129
0.000000 0.909429 0.474983
0.107296 0.906536 0.472387
0.241571 0.903672 0.469816
0.375209 0.900821 0.467257
0.508422 0.897980 0.464707
0.641315 0.895145 0.462163
0.773953 0.892316 0.459624
0.906376 0.889491 0.457088
1.000000 0.886671 0.454557
0.000000 1.000000 0.466423
0.094827 1.000000 0.463826
0.229102 1.000000 0.461256
0.362740 1.000000 0.458697
0.495953 1.000000 0.456147
0.628847 1.000000 0.453602
0.761484 1.000000 0.451063
0.893907 1.000000 0.448528
1.000000 1.000000 0.445996
0.029566 0.010538 0.692810
0.166954 0.007613 0.688997
0.302959 0.004718 0.685221
0.438318 0.001837 0.681464
0.573247 0.000000 0.677718
0.707853 0.000000 0.673982
0.842198 0.000000 0.670252
0.976328 0.000000 0.666529
1.000000 0.000000 0.662811
0.022678 0.140890 0.679905
0.160067 0.137965 0.676091
0.296072 0.135070 0.672315
0.431431 0.132189 0.668558
0.566360 0.129316 0.664812
0.700965 0.126451 0.661076
0.835311 0.123591 0.657346
0.969440 0.120736 0.653623
1.000000 0.117885 0.649905
0.015864 0.269851 0.667136
0.153253 0.266926 0.663322
0.289257 0.264031 0.659547
0.424617 0.261150 0.655790
0.559546 0.258278 0.652044
0.694151 0.255412 0.648307
0.828497 0.252552 0.644578
0.962626 0.249697 0.640855
1.000000 0.246846 0.637136
0.009083 0.398188 0.654430
0.146472 0.395263 0.650616
0.282476 0.392368 0.646841
0.417836 0.389486 0.643083
0.552765 0.386614 0.639338
0.687370 0.383749 0.635601
0.821716 0.380889 0.631872
0.955190 0.378045 0.628605
1.000000 0.375225 0.626073
0.002324 0.526110 0.641765
0.139712 0.523186 0.637951
0.275717 0.520291 0.634175
0.411076 0.517409 0.630418
0.544674 0.514561 0.627600
0.677568 0.511726 0.625055
0.810205 0.508897 0.622516
0.942628 0.506072 0.619981
1.000000 0.503252 0.617449
0.000000 0.653727 0.629273
0.131017 0.650834 0.626676
0.265292 0.647969 0.624105
0.398930 0.645119 0.621547
0.532143 0.642277 0.618997
0.665037 0.639443 0.616452
0.797674 0.636614 0.613913
0.930098 0.633789 0.611378
1.000000 0.630968 0.608846
0.000000 0.781195 0.620687
0.118511 0.778302 0.618090
0.252786 0.775438 0.615519
0.386424 0.772587 0.612961
0.519637 0.769746 0.610410
0.652530 0.766911 0.607866
0.785168 0.764082 0.605327
0.917591 0.761257 0.602792
1.000000 0.758437 0.600260
0.000000 0.908457 0.612114
0.106024 0.905563 0.609518
0.240299 0.902699 0.606947
0.373937 0.899849 0.604388
0.507150 0.897007 0.601838
0.640044 0.894173 0.599294
0.772681 0.891344 0.596754
0.905105 0.888519 0.594219
1.000000 0.885698 0.591687
0.000000 1.000000 0.603554
0.093555 1.000000 0.600957
0.227831 1.000000 0.598386
0.361469 1.000000 0.595828
0.494682 1.000000 0.593278
0.627575 1.000000 0.590733
0.760212 1.000000 0.588194
0.892636 1.000000 0.585659
1.000000 1.000000 0.583127
0.028883 0.009556 0.829264
0.166272 0.006632 0.825451
0.302276 0.003737 0.821675
0.437636 0.000855 0.817918
0.572564 0.000000 0.814172
0.707170 0.000000 0.810435
0.841516 0.000000 0.806706
0.975645 0.000000 0.802983
1.000000 0.000000 0.799265
0.021995 0.139908 0.816359
0.159384 0.136984 0.812545
0.295389 0.134089 0.808769
0.430748 0.131207 0.805012
0.565677 0.128335 0.801266
0.700282 0.125470 0.797530
0.834628 0.122610 0.793800
0.968757 0.119755 0.790077
1.000000 0.116903 0.786359
0.015181 0.268870 0.803590
0.152570 0.265945 0.799776
0.288575 0.263050 0.796001
0.423934 0.260169 0.792243
0.558863 0.257296 0.788498
0.693468 0.254431 0.784761
0.827814 0.251571 0.781032
0.961943 0.248716 0.777309
1.000000 0.245865 0.773590
0.008400 0.397206 0.790884
0.145789 0.394282 0.787070
0.281794 0.391387 0.783295
0.417153 0.388505 0.779537
0.552082 0.385633 0.775792
0.686687 0.382768 0.772055
0.821033 0.379908 0.768326
0.953921 0.377075 0.765467
1.000000 0.374254 0.762935
0.001641 0.525129 0.778219
0.139030 0.522205 0.774405
0.275034 0.519309 0.770629
0.410192 0.516432 0.767012
0.543405 0.513590 0.764462
0.676299 0.510756 0.761918
0.808936 0.507926 0.759378
0.941359 0.505102 0.756843
1.000000 0.502281 0.754311
0.000000 0.652756 0.766135
0.129748 0.649863 0.763538
0.264023 0.646999 0.760968
0.397661 0.644148 0.758409
0.530874 0.641307 0.755859
0.663768 0.638472 0.753315
0.796405 0.635643 0.750775
0.928829 0.632818 0.748240
1.000000 0.629998 0.745708
0.000000 0.780225 0.757549
0.117242 0.777331 0.754952
0.251517 0.774467 0.752381
0.385155 0.771617 0.749823
0.518368 0.768775 0.747273
0.651261 0.765941 0.744728
0.783899 0.763111 0.742189
0.916322 0.760287 0.739654
1.000000 0.757466 0.737122
0.000000 0.907486 0.748977
0.104755 0.904593 0.746380
0.239030 0.901729 0.743809
0.372668 0.898878 0.741251
0.505882 0.896037 0.738700
0.638775 0.893202 0.736156
0.771412 0.890373 0.733617
0.903836 0.887548 0.731081
1.000000 0.884728 0.728550
0.000000 1.000000 0.740416
0.092287 1.000000 0.737819
0.226562 1.000000 0.735249
0.360200 1.000000 0.732690
0.493413 1.000000 0.730140
0.626306 1.000000 0.727596
0.758943 1.000000 0.725056
0.891367 1.000000 0.722521
1.000000 1.000000 0.719989
0.028201 0.008577 0.965495
0.165590 0.005652 0.961681
0.301595 0.002757 0.957906
0.436954 0.000000 0.954149
0.571883 0.000000 0.950403
0.706488 0.000000 0.946666
0.840834 0.000000 0.942937
0.974963 0.000000 0.939214
1.000000 0.000000 0.935495
0.021313 0.138929 0.952589
0.158702 0.136004 0.948776
0.294707 0.133109 0.945000
0.430066 0.130228 0.941243
0.564995 0.127356 0.937497
0.699600 0.124490 0.933760
0.833946 0.121630 0.930031
0.968075 0.118775 0.926308
1.000000 0.115924 0.922590
0.014499 0.267890 0.939821
0.151888 0.264966 0.936007
0.287893 0.262071 0.932232
0.423252 0.259189 0.928474
0.558181 0.256317 0.924729
0.692786 0.253452 0.920992
0.827132 0.250592 0.917263
0.961261 0.247737 0.913540
1.000000 0.244885 0.909821
0.007718 0.396227 0.927115
0.145107 0.393302 0.923301
0.281112 0.390407 0.919526
0.416471 0.387526 0.915768
0.551400 0.384653 0.912022
0.686005 0.381788 0.908286
0.820230 0.378930 0.904641
0.952654 0.376106 0.902105
1.000000 0.373285 0.899574
0.000959 0.524150 0.914449
0.138348 0.521225 0.910636
0.274353 0.518330 0.906860
0.408925 0.515463 0.903651
0.542138 0.512621 0.901100
0.675032 0.509786 0.898556
0.807669 0.506957 0.896017
0.940093 0.504133 0.893481
1.000000 0.501312 0.890950
0.000000 0.651787 0.902774
0.128481 0.648894 0.900177
0.262756 0.646030 0.897606
0.396394 0.643179 0.895048
0.529607 0.640338 0.892497
0.662501 0.637503 0.889953
0.795138 0.634674 0.887414
0.927562 0.631849 0.884879
1.000000 0.629029 0.882347
0.000000 0.779256 0.894187
0.115975 0.776362 0.891591
0.250250 0.773498 0.889020
0.383888 0.770648 0.886461
0.517101 0.767806 0.883911
0.649994 0.764972 0.881367
0.782632 0.762142 0.878827
0.915055 0.759318 0.876292
1.000000 0.756497 0.873761
0.000000 0.906517 0.885615
0.103488 0.903624 0.883018
0.237764 0.900760 0.880448
0.371402 0.897909 0.877889
0.504615 0.895068 0.875339
0.637508 0.892233 0.872795
0.770145 0.889404 0.870255
0.902569 0.886579 0.867720
1.000000 0.883758 0.865188
0.000000 1.000000 0.877055
0.091020 1.000000 0.874458
0.225295 1.000000 0.871887
0.358933 1.000000 0.869329
0.492146 1.000000 0.866778
0.625039 1.000000 0.864234
0.757677 1.000000 0.861695
0.890100 1.000000 0.859160
1.000000 1.000000 0.856628
0.027520 0.007599 1.000000
0.164909 0.004674 1.000000
0.300914 0.001779 1.000000
0.436273 0.000000 1.000000
0.571202 0.000000 1.000000
0.705807 0.000000 1.000000
0.840153 0.000000 1.000000
0.974282 0.000000 1.000000
1.000000 0.000000 1.000000
0.020633 0.137951 1.000000
0.158021 0.135026 1.000000
0.294026 0.132131 1.000000
0.429386 0.129250 1.000000
0.564314 0.126377 1.000000
0.698920 0.123512 1.000000
0.833265 0.120652 1.000000
0.967395 0.117797 1.000000
1.000000 0.114946 1.000000
0.013819 0.266912 1.000000
0.151207 0.263988 1.000000
0.287212 0.261092 1.000000
0.422571 0.258211 1.000000
0.557500 0.255339 1.000000
0.692106 0.252473 1.000000
0.826451 0.249614 1.000000
0.960581 0.246758 1.000000
1.000000 0.243907 1.000000
0.007038 0.395249 1.000000
0.144426 0.392324 1.000000
0.280431 0.389429 1.000000
0.415790 0.386547 1.000000
0.550719 0.383675 1.000000
0.685325 0.380810 1.000000
0.818965 0.377963 1.000000
0.951389 0.375138 1.000000
1.000000 0.372317 1.000000
0.000278 0.523171 1.000000
0.137667 0.520247 1.000000
0.273672 0.517352 1.000000
0.407660 0.514495 1.000000
0.540873 0.511653 1.000000
0.673767 0.508819 1.000000
0.806404 0.505990 1.000000
0.938827 0.503165 1.000000
1.000000 0.500344 1.000000
0.000000 0.650819 1.000000
0.127216 0.647926 1.000000
0.261491 0.645062 1.000000
0.395129 0.642212 1.000000
0.528342 0.639370 1.000000
0.661236 0.636535 1.000000
0.793873 0.633706 1.000000
0.926296 0.630882 1.000000
1.000000 0.628061 1.000000
0.000000 0.778288 1.000000
0.114710 0.775395 1.000000
0.248985 0.772530 1.000000
0.382623 0.769680 1.000000
0.515836 0.766838 1.000000
0.648729 0.764004 1.000000
0.781367 0.761175 1.000000
0.913790 0.758350 1.000000
1.000000 0.755529 1.000000
0.000000 0.905549 1.000000
0.102223 0.902656 1.000000
0.236498 0.899792 1.000000
0.370136 0.896941 1.000000
0.503349 0.894100 1.000000
0.636243 0.891265 1.000000
0.768880 0.888436 1.000000
0.901304 0.885611 1.000000
1.000000 0.882791 1.000000
0.000000 1.000000 1.000000
0.089754 1.000000 1.000000
0.224030 1.000000 1.000000
0.357668 1.000000 1.000000
0.490881 1.000000 1.000000
0.623774 1.000000 1.000000
0.756411 1.000000 0.998142
0.888835 1.000000 0.995607
1.000000 1.000000 0.993075
