assets/luts/generated_genre/bs_period_kodachrome_60s_f09f696eb4640cbc.cube
# V4 spec-generated LUT — bs_period_kodachrome_60s
# Genre: period
# Look: Mid-century Kodachrome period — magazine, archival, red-rich. Richardson/Aviator, Mad Men.
# Spec hash: f09f696eb4640cbc
TITLE "V4 Spec LUT — bs_period_kodachrome_60s"
LUT_3D_SIZE 5
DOMAIN_MIN 0.0 0.0 0.0
DOMAIN_MAX 1.0 1.0 1.0
0.033015 0.015494 0.003553
0.306408 0.009674 0.000000
0.576696 0.003920 0.000000
0.845647 0.000000 0.000000
1.000000 0.000000 0.000000
0.019313 0.274807 0.000000
0.292707 0.268987 0.000000
0.562995 0.263234 0.000000
0.831946 0.257509 0.000000
1.000000 0.251802 0.000000
0.005773 0.531066 0.000000
0.279166 0.525247 0.000000
0.549455 0.519493 0.000000
0.816615 0.513800 0.000000
1.000000 0.508155 0.000000
0.000000 0.786098 0.000000
0.259196 0.780341 0.000000
0.526047 0.774649 0.000000
0.791577 0.768985 0.000000
1.000000 0.763340 0.000000
0.000000 1.000000 0.000000
0.234241 1.000000 0.000000
0.501092 1.000000 0.000000
0.766622 1.000000 0.000000
1.000000 1.000000 0.000000
0.031624 0.013495 0.281525
0.305017 0.007675 0.273935
0.575305 0.001922 0.266432
0.844256 0.000000 0.258966
1.000000 0.000000 0.251525
0.017922 0.272808 0.255850
0.291316 0.266989 0.248261
0.561604 0.261235 0.240758
0.830555 0.255510 0.233292
1.000000 0.249803 0.225850
0.004382 0.529068 0.230479
0.277775 0.523248 0.222889
0.548064 0.517494 0.215386
0.814030 0.511823 0.209999
1.000000 0.506177 0.204932
0.000000 0.784121 0.208170
0.256611 0.778363 0.203003
0.523462 0.772672 0.197894
0.788992 0.767008 0.192810
1.000000 0.761362 0.187743
0.000000 1.000000 0.191037
0.231655 1.000000 0.185870
0.498507 1.000000 0.180761
0.764037 1.000000 0.175677
1.000000 1.000000 0.170611
0.030250 0.011521 0.556089
0.303643 0.005701 0.548499
0.573932 0.000000 0.540996
0.842883 0.000000 0.533530
1.000000 0.000000 0.526089
0.016548 0.270834 0.530414
0.289942 0.265014 0.522825
0.560230 0.259261 0.515322
0.829181 0.253536 0.507856
1.000000 0.247829 0.500415
0.003008 0.527093 0.505043
0.276401 0.521274 0.497453
0.545946 0.515533 0.490469
0.811476 0.509870 0.485385
1.000000 0.504224 0.480318
0.000000 0.782168 0.483556
0.254057 0.776410 0.478388
0.520908 0.770718 0.473279
0.786439 0.765055 0.468196
1.000000 0.759409 0.463129
0.000000 1.000000 0.466423
0.229102 1.000000 0.461256
0.495953 1.000000 0.456147
0.761484 1.000000 0.451063
1.000000 1.000000 0.445996
0.028883 0.009556 0.829264
0.302276 0.003737 0.821675
0.572564 0.000000 0.814172
0.841516 0.000000 0.806706
1.000000 0.000000 0.799265
0.015181 0.268870 0.803590
0.288575 0.263050 0.796001
0.558863 0.257296 0.788498
0.827814 0.251571 0.781032
1.000000 0.245865 0.773590
0.001641 0.525129 0.778219
0.275034 0.519309 0.770629
0.543405 0.513590 0.764462
0.808936 0.507926 0.759378
1.000000 0.502281 0.754311
0.000000 0.780225 0.757549
0.251517 0.774467 0.752381
0.518368 0.768775 0.747273
0.783899 0.763111 0.742189
1.000000 0.757466 0.737122
0.000000 1.000000 0.740416
0.226562 1.000000 0.735249
0.493413 1.000000 0.730140
0.758943 1.000000 0.725056
1.000000 1.000000 0.719989
0.027520 0.007599 1.000000
0.300914 0.001779 1.000000
0.571202 0.000000 1.000000
0.840153 0.000000 1.000000
1.000000 0.000000 1.000000
0.013819 0.266912 1.000000
0.287212 0.261092 1.000000
0.557500 0.255339 1.000000
0.826451 0.249614 1.000000
1.000000 0.243907 1.000000
0.000278 0.523171 1.000000
0.273672 0.517352 1.000000
0.540873 0.511653 1.000000
0.806404 0.505990 1.000000
1.000000 0.500344 1.000000
0.000000 0.778288 1.000000
0.248985 0.772530 1.000000
0.515836 0.766838 1.000000
0.781367 0.761175 1.000000
1.000000 0.755529 1.000000
0.000000 1.000000 1.000000
0.224030 1.000000 1.000000
0.490881 1.000000 1.000000
0.756411 1.000000 0.998142
1.000000 1.000000 0.993075
