assets/luts/generated_genre/bs_period_kodachrome_60s_f09f696eb4640cbc.cube
# V4 spec-generated LUT — bs_period_kodachrome_60s
# Genre: period
# Look: Mid-century Kodachrome period — magazine, archival, red-rich. Richardson/Aviator, Mad Men.
# Spec hash: f09f696eb4640cbc
TITLE "V4 Spec LUT — bs_period_kodachrome_60s"
LUT_3D_SIZE 17
DOMAIN_MIN 0.0 0.0 0.0
DOMAIN_MAX 1.0 1.0 1.0
0.033015 0.015494 0.003553
0.101998 0.014025 0.001638
0.170404 0.012569 0.000000
0.238509 0.011119 0.000000
0.306408 0.009674 0.000000
0.374151 0.008232 0.000000
0.441768 0.006793 0.000000
0.509278 0.005355 0.000000
0.576696 0.003920 0.000000
0.644035 0.002487 0.000000
0.711302 0.001055 0.000000
0.778504 0.000000 0.000000
0.845647 0.000000 0.000000
0.912737 0.000000 0.000000
0.979777 0.000000 0.000000
1.000000 0.000000 0.000000
1.000000 0.000000 0.000000
0.029555 0.080969 0.000000
0.098539 0.079501 0.000000
0.166944 0.078044 0.000000
0.235049 0.076595 0.000000
0.302949 0.075149 0.000000
0.370692 0.073707 0.000000
0.438308 0.072268 0.000000
0.505818 0.070831 0.000000
0.573237 0.069396 0.000000
0.640575 0.067962 0.000000
0.707842 0.066530 0.000000
0.775044 0.065100 0.000000
0.842188 0.063670 0.000000
0.909277 0.062242 0.000000
0.976317 0.060815 0.000000
1.000000 0.059389 0.000000
1.000000 0.057964 0.000000
0.026127 0.145846 0.000000
0.095111 0.144377 0.000000
0.163516 0.142921 0.000000
0.231621 0.141471 0.000000
0.299521 0.140026 0.000000
0.367264 0.138584 0.000000
0.434880 0.137145 0.000000
0.502390 0.135707 0.000000
0.569809 0.134272 0.000000
0.637147 0.132839 0.000000
0.704414 0.131407 0.000000
0.771616 0.129976 0.000000
0.838760 0.128547 0.000000
0.905849 0.127119 0.000000
0.972889 0.125692 0.000000
1.000000 0.124266 0.000000
1.000000 0.122841 0.000000
0.022715 0.210426 0.000000
0.091698 0.208958 0.000000
0.160104 0.207502 0.000000
0.228209 0.206052 0.000000
0.296108 0.204607 0.000000
0.363851 0.203165 0.000000
0.431468 0.201725 0.000000
0.498978 0.200288 0.000000
0.566397 0.198853 0.000000
0.633735 0.197420 0.000000
0.701002 0.195988 0.000000
0.768204 0.194557 0.000000
0.835348 0.193128 0.000000
0.902437 0.191700 0.000000
0.969477 0.190273 0.000000
1.000000 0.188847 0.000000
1.000000 0.187421 0.000000
0.019313 0.274807 0.000000
0.088297 0.273339 0.000000
0.156702 0.271883 0.000000
0.224807 0.270433 0.000000
0.292707 0.268987 0.000000
0.360450 0.267545 0.000000
0.428066 0.266106 0.000000
0.495576 0.264669 0.000000
0.562995 0.263234 0.000000
0.630333 0.261800 0.000000
0.697600 0.260368 0.000000
0.764802 0.258938 0.000000
0.831946 0.257509 0.000000
0.899035 0.256080 0.000000
0.966075 0.254653 0.000000
1.000000 0.253227 0.000000
1.000000 0.251802 0.000000
0.015919 0.339036 0.000000
0.084903 0.337568 0.000000
0.153308 0.336112 0.000000
0.221413 0.334662 0.000000
0.289313 0.333217 0.000000
0.357056 0.331775 0.000000
0.424672 0.330335 0.000000
0.492182 0.328898 0.000000
0.559601 0.327463 0.000000
0.626939 0.326029 0.000000
0.694206 0.324598 0.000000
0.761409 0.323167 0.000000
0.828552 0.321738 0.000000
0.895642 0.320310 0.000000
0.962681 0.318883 0.000000
1.000000 0.317456 0.000000
1.000000 0.316031 0.000000
0.012532 0.403144 0.000000
0.081515 0.401675 0.000000
0.149921 0.400219 0.000000
0.218026 0.398769 0.000000
0.285926 0.397324 0.000000
0.353668 0.395882 0.000000
0.421285 0.394442 0.000000
0.488795 0.393005 0.000000
0.556214 0.391570 0.000000
0.623552 0.390137 0.000000
0.690819 0.388705 0.000000
0.758021 0.387274 0.000000
0.825165 0.385845 0.000000
0.892254 0.384417 0.000000
0.959294 0.382990 0.000000
1.000000 0.381564 0.000000
1.000000 0.380139 0.000000
0.009150 0.467149 0.000000
0.078134 0.465680 0.000000
0.146539 0.464224 0.000000
0.214644 0.462774 0.000000
0.282544 0.461329 0.000000
0.350287 0.459887 0.000000
0.417903 0.458448 0.000000
0.485413 0.457011 0.000000
0.552832 0.455575 0.000000
0.620170 0.454142 0.000000
0.687437 0.452710 0.000000
0.754639 0.451280 0.000000
0.821783 0.449850 0.000000
0.888872 0.448422 0.000000
0.955315 0.447006 0.000000
1.000000 0.445595 0.000000
1.000000 0.444185 0.000000
0.005773 0.531066 0.000000
0.074756 0.529598 0.000000
0.143162 0.528142 0.000000
0.211267 0.526692 0.000000
0.279166 0.525247 0.000000
0.346909 0.523805 0.000000
0.414526 0.522365 0.000000
0.482036 0.520928 0.000000
0.549455 0.519493 0.000000
0.616793 0.518060 0.000000
0.683978 0.516629 0.000000
0.750325 0.515214 0.000000
0.816615 0.513800 0.000000
0.882851 0.512387 0.000000
0.949038 0.510975 0.000000
1.000000 0.509565 0.000000
1.000000 0.508155 0.000000
0.002400 0.594907 0.000000
0.071383 0.593439 0.000000
0.139788 0.591982 0.000000
0.207894 0.590533 0.000000
0.275793 0.589087 0.000000
0.343536 0.587645 0.000000
0.411152 0.586206 0.000000
0.478254 0.584776 0.000000
0.544815 0.583356 0.000000
0.611297 0.581938 0.000000
0.677709 0.580522 0.000000
0.744056 0.579107 0.000000
0.810346 0.577693 0.000000
0.876582 0.576280 0.000000
0.942769 0.574868 0.000000
1.000000 0.573457 0.000000
1.000000 0.572047 0.000000
0.000000 0.658679 0.000000
0.068013 0.657211 0.000000
0.136419 0.655755 0.000000
0.204524 0.654305 0.000000
0.271702 0.652872 0.000000
0.338584 0.651446 0.000000
0.405340 0.650022 0.000000
0.471992 0.648600 0.000000
0.538553 0.647180 0.000000
0.605035 0.645762 0.000000
0.671447 0.644346 0.000000
0.737794 0.642931 0.000000
0.804084 0.641517 0.000000
0.870320 0.640104 0.000000
0.936507 0.638692 0.000000
1.000000 0.637281 0.000000
1.000000 0.635871 0.000000
0.000000 0.722392 0.000000
0.063635 0.720939 0.000000
0.131171 0.719499 0.000000
0.198410 0.718065 0.000000
0.265446 0.716635 0.000000
0.332328 0.715208 0.000000
0.399084 0.713784 0.000000
0.465736 0.712362 0.000000
0.532297 0.710943 0.000000
0.598779 0.709525 0.000000
0.665191 0.708108 0.000000
0.731538 0.706693 0.000000
0.797828 0.705279 0.000000
0.864064 0.703866 0.000000
0.930251 0.702454 0.000000
0.996393 0.701043 0.000000
1.000000 0.699634 0.000000
0.000000 0.786098 0.000000
0.057385 0.784645 0.000000
0.124920 0.783205 0.000000
0.192159 0.781771 0.000000
0.259196 0.780341 0.000000
0.326077 0.778914 0.000000
0.392834 0.777490 0.000000
0.459485 0.776069 0.000000
0.526047 0.774649 0.000000
0.592529 0.773231 0.000000
0.658940 0.771814 0.000000
0.725288 0.770399 0.000000
0.791577 0.768985 0.000000
0.857814 0.767572 0.000000
0.924001 0.766160 0.000000
0.990142 0.764750 0.000000
1.000000 0.763340 0.000000
0.000000 0.849753 0.000000
0.051140 0.848300 0.000000
0.118675 0.846859 0.000000
0.185914 0.845425 0.000000
0.252950 0.843995 0.000000
0.319832 0.842569 0.000000
0.386588 0.841145 0.000000
0.453240 0.839723 0.000000
0.519801 0.838303 0.000000
0.586283 0.836885 0.000000
0.652695 0.835469 0.000000
0.719042 0.834054 0.000000
0.785332 0.832640 0.000000
0.851568 0.831227 0.000000
0.917755 0.829815 0.000000
0.983897 0.828404 0.000000
1.000000 0.826994 0.000000
0.000000 0.913360 0.000000
0.044899 0.911907 0.000000
0.112434 0.910466 0.000000
0.179673 0.909032 0.000000
0.246709 0.907602 0.000000
0.313591 0.906176 0.000000
0.380347 0.904752 0.000000
0.446999 0.903330 0.000000
0.513560 0.901910 0.000000
0.580042 0.900492 0.000000
0.646454 0.899076 0.000000
0.712802 0.897660 0.000000
0.779091 0.896246 0.000000
0.845328 0.894834 0.000000
0.911515 0.893422 0.000000
0.977656 0.892011 0.000000
1.000000 0.890601 0.000000
0.000000 0.976922 0.000000
0.038662 0.975470 0.000000
0.106198 0.974029 0.000000
0.173437 0.972595 0.000000
0.240473 0.971165 0.000000
0.307354 0.969738 0.000000
0.374111 0.968314 0.000000
0.440763 0.966893 0.000000
0.507324 0.965473 0.000000
0.573806 0.964055 0.000000
0.640217 0.962638 0.000000
0.706565 0.961223 0.000000
0.772855 0.959809 0.000000
0.839091 0.958396 0.000000
0.905278 0.956985 0.000000
0.971420 0.955574 0.000000
1.000000 0.954164 0.000000
0.000000 1.000000 0.000000
0.032430 1.000000 0.000000
0.099965 1.000000 0.000000
0.167204 1.000000 0.000000
0.234241 1.000000 0.000000
0.301122 1.000000 0.000000
0.367878 1.000000 0.000000
0.434530 1.000000 0.000000
0.501092 1.000000 0.000000
0.567574 1.000000 0.000000
0.633985 1.000000 0.000000
0.700333 1.000000 0.000000
0.766622 1.000000 0.000000
0.832859 1.000000 0.000000
0.899046 1.000000 0.000000
0.965187 1.000000 0.000000
1.000000 1.000000 0.000000
0.032663 0.014989 0.073798
0.101647 0.013520 0.071883
0.170052 0.012064 0.069984
0.238157 0.010614 0.068094
0.306057 0.009169 0.066209
0.373800 0.007727 0.064328
0.441416 0.006287 0.062451
0.508926 0.004850 0.060577
0.576345 0.003415 0.058706
0.643683 0.001982 0.056836
0.710950 0.000550 0.054969
0.778152 0.000000 0.053104
0.845296 0.000000 0.051240
0.912385 0.000000 0.049377
0.979425 0.000000 0.047516
1.000000 0.000000 0.045657
1.000000 0.000000 0.043798
0.029204 0.080464 0.067316
0.098187 0.078995 0.065401
0.166592 0.077539 0.063502
0.234698 0.076090 0.061611
0.302597 0.074644 0.059726
0.370340 0.073202 0.057846
0.437956 0.071763 0.055969
0.505467 0.070326 0.054095
0.572885 0.068891 0.052223
0.640224 0.067457 0.050354
0.707491 0.066025 0.048487
0.774693 0.064595 0.046621
0.841836 0.063165 0.044757
0.908926 0.061737 0.042895
0.975966 0.060310 0.041034
1.000000 0.058884 0.039174
1.000000 0.057459 0.037316
0.025776 0.145341 0.060892
0.094759 0.143872 0.058977
0.163164 0.142416 0.057078
0.231270 0.140966 0.055188
0.299169 0.139521 0.053303
0.366912 0.138079 0.051422
0.434528 0.136639 0.049545
0.502039 0.135202 0.047671
0.569457 0.133767 0.045800
0.636796 0.132334 0.043931
0.704063 0.130902 0.042063
0.771265 0.129471 0.040198
0.838408 0.128042 0.038334
0.905498 0.126614 0.036472
0.972538 0.125187 0.034611
1.000000 0.123761 0.032751
1.000000 0.122336 0.030892
0.022363 0.209921 0.054498
0.091347 0.208453 0.052583
0.159752 0.206997 0.050684
0.227857 0.205547 0.048794
0.295757 0.204102 0.046909
0.363500 0.202660 0.045028
0.431116 0.201220 0.043151
0.498626 0.199783 0.041277
0.566045 0.198348 0.039406
0.633383 0.196915 0.037537
0.700650 0.195483 0.035669
0.767853 0.194052 0.033804
0.834996 0.192623 0.031940
0.902086 0.191195 0.030078
0.969125 0.189768 0.028217
1.000000 0.188341 0.026357
1.000000 0.186916 0.024498
0.018962 0.274302 0.048124
0.087945 0.272834 0.046209
0.156350 0.271377 0.044310
0.224455 0.269928 0.042420
0.292355 0.268482 0.040535
0.360098 0.267040 0.038654
0.427714 0.265601 0.036777
0.495225 0.264164 0.034903
0.562643 0.262729 0.033032
0.629982 0.261295 0.031162
0.697249 0.259863 0.029295
0.764451 0.258433 0.027430
0.831594 0.257003 0.025566
0.898684 0.255575 0.023703
0.965723 0.254148 0.021842
1.000000 0.252722 0.019983
1.000000 0.251297 0.018124
0.015568 0.338531 0.041765
0.084551 0.337063 0.039850
0.152957 0.335607 0.037951
0.221062 0.334157 0.036060
0.288961 0.332711 0.034175
0.356704 0.331269 0.032295
0.424321 0.329830 0.030418
0.491831 0.328393 0.028544
0.559250 0.326958 0.026672
0.626588 0.325524 0.024803
0.693855 0.324092 0.022936
0.761057 0.322662 0.021070
0.828201 0.321233 0.019206
0.895290 0.319805 0.017344
0.962330 0.318377 0.015483
1.000000 0.316951 0.013623
1.000000 0.315526 0.011765
0.012181 0.402638 0.035418
0.081164 0.401170 0.033503
0.149569 0.399714 0.031604
0.217674 0.398264 0.029713
0.285574 0.396819 0.027828
0.353317 0.395377 0.025948
0.420933 0.393937 0.024071
0.488444 0.392500 0.022197
0.555862 0.391065 0.020325
0.623201 0.389632 0.018456
0.690468 0.388200 0.016589
0.757670 0.386769 0.014723
0.824813 0.385340 0.012859
0.891903 0.383912 0.010997
0.958942 0.382485 0.009136
1.000000 0.381059 0.007276
1.000000 0.379633 0.005418
0.008799 0.466644 0.029081
0.077782 0.465175 0.027166
0.146187 0.463719 0.025267
0.214293 0.462269 0.023376
0.282192 0.460824 0.021491
0.349935 0.459382 0.019611
0.417551 0.457943 0.017734
0.485062 0.456506 0.015860
0.552480 0.455070 0.013988
0.619819 0.453637 0.012119
0.687086 0.452205 0.010252
0.754288 0.450774 0.008386
0.821431 0.449345 0.006522
0.888474 0.447918 0.004692
0.954661 0.446506 0.003425
1.000000 0.445095 0.002159
1.000000 0.443685 0.000893
0.005421 0.530561 0.022752
0.074405 0.529093 0.020837
0.142810 0.527637 0.018938
0.210915 0.526187 0.017048
0.278815 0.524742 0.015163
0.346558 0.523300 0.013282
0.414174 0.521860 0.011405
0.481684 0.520423 0.009531
0.549103 0.518988 0.007660
0.616441 0.517554 0.005791
0.683324 0.516129 0.004191
0.749672 0.514714 0.002921
0.815962 0.513300 0.001651
0.882198 0.511887 0.000383
0.948385 0.510476 0.000000
1.000000 0.509065 0.000000
1.000000 0.507655 0.000000
0.002048 0.594402 0.016431
0.071032 0.592934 0.014517
0.139437 0.591477 0.012618
0.207542 0.590028 0.010727
0.275442 0.588582 0.008842
0.343184 0.587140 0.006962
0.410801 0.585701 0.005085
0.477601 0.584276 0.003706
0.544162 0.582857 0.002431
0.610644 0.581439 0.001158
0.677055 0.580022 0.000000
0.743403 0.578607 0.000000
0.809693 0.577193 0.000000
0.875929 0.575780 0.000000
0.942116 0.574368 0.000000
1.000000 0.572957 0.000000
1.000000 0.571548 0.000000
0.000000 0.658174 0.010117
0.067662 0.656706 0.008203
0.136067 0.655250 0.006304
0.204013 0.653803 0.004524
0.271049 0.652373 0.003241
0.337930 0.650946 0.001960
0.404687 0.649522 0.000682
0.471339 0.648101 0.000000
0.537900 0.646681 0.000000
0.604382 0.645263 0.000000
0.670793 0.643846 0.000000
0.737141 0.642431 0.000000
0.803431 0.641017 0.000000
0.869667 0.639604 0.000000
0.935854 0.638192 0.000000
1.000000 0.636782 0.000000
1.000000 0.635372 0.000000
0.000000 0.721892 0.004113
0.062982 0.720440 0.002809
0.130518 0.718999 0.001517
0.197757 0.717565 0.000229
0.264793 0.716135 0.000000
0.331674 0.714708 0.000000
0.398431 0.713285 0.000000
0.465082 0.711863 0.000000
0.531644 0.710443 0.000000
0.598126 0.709025 0.000000
0.664537 0.707608 0.000000
0.730885 0.706193 0.000000
0.797175 0.704779 0.000000
0.863411 0.703366 0.000000
0.929598 0.701955 0.000000
0.995739 0.700544 0.000000
1.000000 0.699134 0.000000
0.000000 0.785599 0.000000
0.056732 0.784146 0.000000
0.124267 0.782705 0.000000
0.191506 0.781271 0.000000
0.258542 0.779841 0.000000
0.325424 0.778415 0.000000
0.392180 0.776991 0.000000
0.458832 0.775569 0.000000
0.525393 0.774149 0.000000
0.591875 0.772731 0.000000
0.658287 0.771314 0.000000
0.724635 0.769899 0.000000
0.790924 0.768485 0.000000
0.857161 0.767072 0.000000
0.923348 0.765661 0.000000
0.989489 0.764250 0.000000
1.000000 0.762840 0.000000
0.000000 0.849253 0.000000
0.050486 0.847800 0.000000
0.118022 0.846360 0.000000
0.185261 0.844926 0.000000
0.252297 0.843496 0.000000
0.319178 0.842069 0.000000
0.385935 0.840645 0.000000
0.452587 0.839223 0.000000
0.519148 0.837804 0.000000
0.585630 0.836386 0.000000
0.652041 0.834969 0.000000
0.718389 0.833554 0.000000
0.784679 0.832140 0.000000
0.850915 0.830727 0.000000
0.917102 0.829315 0.000000
0.983244 0.827904 0.000000
1.000000 0.826495 0.000000
0.000000 0.912860 0.000000
0.044246 0.911407 0.000000
0.111781 0.909967 0.000000
0.179020 0.908532 0.000000
0.246056 0.907103 0.000000
0.312938 0.905676 0.000000
0.379694 0.904252 0.000000
0.446346 0.902830 0.000000
0.512907 0.901411 0.000000
0.579389 0.899993 0.000000
0.645801 0.898576 0.000000
0.712148 0.897161 0.000000
0.778438 0.895747 0.000000
0.844674 0.894334 0.000000
0.910861 0.892922 0.000000
0.977003 0.891511 0.000000
1.000000 0.890101 0.000000
0.000000 0.976423 0.000000
0.038009 0.974970 0.000000
0.105545 0.973529 0.000000
0.172784 0.972095 0.000000
0.239820 0.970665 0.000000
0.306701 0.969239 0.000000
0.373458 0.967815 0.000000
0.440109 0.966393 0.000000
0.506671 0.964973 0.000000
0.573153 0.963555 0.000000
0.639564 0.962139 0.000000
0.705912 0.960723 0.000000
0.772202 0.959309 0.000000
0.838438 0.957897 0.000000
0.904625 0.956485 0.000000
0.970766 0.955074 0.000000
1.000000 0.953664 0.000000
0.000000 1.000000 0.000000
0.031777 1.000000 0.000000
0.099312 1.000000 0.000000
0.166551 1.000000 0.000000
0.233587 1.000000 0.000000
0.300469 1.000000 0.000000
0.367225 1.000000 0.000000
0.433877 1.000000 0.000000
0.500438 1.000000 0.000000
0.566920 1.000000 0.000000
0.633332 1.000000 0.000000
0.699679 1.000000 0.000000
0.765969 1.000000 0.000000
0.832205 1.000000 0.000000
0.898393 1.000000 0.000000
0.964534 1.000000 0.000000
1.000000 1.000000 0.000000
0.032315 0.014489 0.143334
0.101299 0.013020 0.141419
0.169704 0.011564 0.139520
0.237809 0.010114 0.137629
0.305709 0.008669 0.135745
0.373452 0.007227 0.133864
0.441068 0.005787 0.131987
0.508578 0.004350 0.130113
0.575997 0.002915 0.128241
0.643335 0.001482 0.126372
0.710602 0.000050 0.124505
0.777805 0.000000 0.122639
0.844948 0.000000 0.120775
0.912038 0.000000 0.118913
0.979077 0.000000 0.117052
1.000000 0.000000 0.115192
1.000000 0.000000 0.113334
0.028856 0.079964 0.136851
0.097839 0.078495 0.134936
0.166244 0.077039 0.133037
0.234350 0.075590 0.131147
0.302249 0.074144 0.129262
0.369992 0.072702 0.127381
0.437608 0.071263 0.125504
0.505119 0.069826 0.123630
0.572537 0.068391 0.121759
0.639876 0.066957 0.119890
0.707143 0.065525 0.118022
0.774345 0.064095 0.116157
0.841488 0.062665 0.114293
0.908578 0.061237 0.112431
0.975618 0.059810 0.110570
1.000000 0.058384 0.108710
1.000000 0.056959 0.106851
0.025428 0.144841 0.130428
0.094411 0.143372 0.128513
0.162816 0.141916 0.126614
0.230922 0.140466 0.124723
0.298821 0.139021 0.122839
0.366564 0.137579 0.120958
0.434180 0.136139 0.119081
0.501691 0.134702 0.117207
0.569109 0.133267 0.115336
0.636448 0.131834 0.113466
0.703715 0.130402 0.111599
0.770917 0.128971 0.109733
0.838060 0.127542 0.107870
0.905150 0.126114 0.106007
0.972190 0.124687 0.104146
1.000000 0.123261 0.102287
1.000000 0.121836 0.100428
0.022015 0.209421 0.124034
0.090999 0.207953 0.122119
0.159404 0.206497 0.120220
0.227509 0.205047 0.118329
0.295409 0.203602 0.116445
0.363152 0.202160 0.114564
0.430768 0.200720 0.112687
0.498278 0.199283 0.110813
0.565697 0.197848 0.108942
0.633036 0.196415 0.107072
0.700302 0.194983 0.105205
0.767505 0.193552 0.103339
0.834648 0.192123 0.101476
0.901738 0.190695 0.099613
0.968777 0.189268 0.097752
1.000000 0.187842 0.095892
1.000000 0.186416 0.094034
0.018614 0.273802 0.117660
0.087597 0.272334 0.115745
0.156002 0.270877 0.113846
0.224108 0.269428 0.111955
0.292007 0.267982 0.110070
0.359750 0.266540 0.108190
0.427366 0.265101 0.106313
0.494877 0.263664 0.104439
0.562295 0.262229 0.102567
0.629634 0.260795 0.100698
0.696901 0.259363 0.098831
0.764103 0.257933 0.096965
0.831246 0.256503 0.095101
0.898336 0.255075 0.093239
0.965376 0.253648 0.091378
1.000000 0.252222 0.089518
1.000000 0.250797 0.087660
0.015220 0.338031 0.111300
0.084203 0.336563 0.109385
0.152609 0.335107 0.107487
0.220714 0.333657 0.105596
0.288613 0.332211 0.103711
0.356356 0.330769 0.101831
0.423973 0.329330 0.099954
0.491483 0.327893 0.098080
0.558902 0.326458 0.096208
0.626240 0.325024 0.094339
0.693507 0.323592 0.092472
0.760709 0.322162 0.090606
0.827853 0.320733 0.088742
0.894942 0.319305 0.086880
0.961982 0.317877 0.085019
1.000000 0.316451 0.083159
1.000000 0.315026 0.081301
0.011833 0.402139 0.104953
0.080816 0.400670 0.103038
0.149221 0.399214 0.101139
0.217326 0.397764 0.099249
0.285226 0.396319 0.097364
0.352969 0.394877 0.095484
0.420585 0.393437 0.093607
0.488096 0.392000 0.091732
0.555514 0.390565 0.089861
0.622853 0.389132 0.087992
0.690120 0.387700 0.086124
0.757322 0.386269 0.084259
0.824465 0.384840 0.082395
0.891555 0.383412 0.080533
0.958594 0.381985 0.078672
1.000000 0.380559 0.076812
1.000000 0.379133 0.074953
0.008451 0.466144 0.098616
0.077434 0.464675 0.096701
0.145839 0.463219 0.094802
0.213945 0.461769 0.092912
0.281844 0.460324 0.091027
0.349587 0.458882 0.089146
0.417203 0.457443 0.087269
0.484714 0.456006 0.085395
0.552132 0.454570 0.083524
0.619471 0.453137 0.081655
0.686738 0.451705 0.079787
0.753940 0.450274 0.077922
0.821083 0.448845 0.076058
0.887828 0.447423 0.074436
0.954015 0.446011 0.073169
1.000000 0.444601 0.071903
1.000000 0.443191 0.070637
0.005073 0.530061 0.092288
0.074057 0.528593 0.090373
0.142462 0.527137 0.088474
0.210567 0.525687 0.086583
0.278467 0.524242 0.084699
0.346210 0.522800 0.082818
0.413826 0.521360 0.080941
0.481336 0.519923 0.079067
0.548755 0.518488 0.077196
0.616093 0.517055 0.075326
0.682678 0.515635 0.073934
0.749025 0.514220 0.072664
0.815315 0.512806 0.071395
0.881551 0.511393 0.070127
0.947738 0.509981 0.068860
1.000000 0.508570 0.067594
1.000000 0.507160 0.066328
0.001700 0.593902 0.085967
0.070684 0.592434 0.084052
0.139089 0.590977 0.082153
0.207194 0.589528 0.080263
0.275094 0.588082 0.078378
0.342837 0.586640 0.076497
0.410302 0.585204 0.074725
0.476954 0.583782 0.073449
0.543515 0.582362 0.072175
0.609997 0.580944 0.070902
0.676409 0.579527 0.069631
0.742757 0.578112 0.068360
0.809046 0.576698 0.067091
0.875282 0.575285 0.065823
0.941470 0.573874 0.064556
1.000000 0.572463 0.063290
1.000000 0.571053 0.062024
0.000000 0.657674 0.079653
0.067314 0.656206 0.077738
0.135719 0.654750 0.075839
0.203366 0.653308 0.074268
0.270402 0.651878 0.072985
0.337284 0.650452 0.071704
0.404040 0.649028 0.070426
0.470692 0.647606 0.069150
0.537253 0.646186 0.067876
0.603735 0.644768 0.066603
0.670147 0.643351 0.065332
0.736494 0.641936 0.064061
0.802784 0.640522 0.062792
0.869020 0.639109 0.061524
0.935207 0.637698 0.060257
1.000000 0.636287 0.058991
1.000000 0.634877 0.057725
0.000000 0.721398 0.073857
0.062336 0.719945 0.072553
0.129871 0.718505 0.071260
0.197110 0.717070 0.069973
0.264146 0.715640 0.068690
0.331028 0.714214 0.067409
0.397784 0.712790 0.066131
0.464436 0.711368 0.064855
0.530997 0.709948 0.063581
0.597479 0.708530 0.062308
0.663891 0.707114 0.061037
0.730238 0.705699 0.059766
0.796528 0.704285 0.058497
0.862764 0.702872 0.057229
0.928951 0.701460 0.055962
0.995093 0.700049 0.054696
1.000000 0.698639 0.053430
0.000000 0.785104 0.069566
0.056085 0.783651 0.068262
0.123621 0.782211 0.066969
0.190860 0.780776 0.065682
0.257896 0.779346 0.064398
0.324777 0.777920 0.063118
0.391534 0.776496 0.061840
0.458185 0.775074 0.060564
0.524747 0.773655 0.059290
0.591229 0.772236 0.058017
0.657640 0.770820 0.056745
0.723988 0.769405 0.055475
0.790278 0.767991 0.054206
0.856514 0.766578 0.052938
0.922701 0.765166 0.051671
0.988842 0.763755 0.050404
1.000000 0.762345 0.049139
0.000000 0.848758 0.065278
0.049840 0.847306 0.063974
0.117375 0.845865 0.062681
0.184614 0.844431 0.061394
0.251650 0.843001 0.060111
0.318532 0.841574 0.058830
0.385288 0.840151 0.057552
0.451940 0.838729 0.056276
0.518501 0.837309 0.055002
0.584983 0.835891 0.053729
0.651395 0.834474 0.052458
0.717742 0.833059 0.051187
0.784032 0.831645 0.049918
0.850268 0.830232 0.048650
0.916456 0.828821 0.047383
0.982597 0.827410 0.046117
1.000000 0.826000 0.044851
0.000000 0.912365 0.060994
0.043599 0.910913 0.059690
0.111134 0.909472 0.058397
0.178373 0.908038 0.057109
0.245409 0.906608 0.055826
0.312291 0.905181 0.054546
0.379047 0.903757 0.053268
0.445699 0.902336 0.051992
0.512260 0.900916 0.050717
0.578743 0.899498 0.049444
0.645154 0.898081 0.048173
0.711502 0.896666 0.046903
0.777791 0.895252 0.045634
0.844028 0.893839 0.044366
0.910215 0.892428 0.043098
0.976356 0.891017 0.041832
1.000000 0.889607 0.040567
0.000000 0.975928 0.056712
0.037362 0.974475 0.055408
0.104898 0.973035 0.054115
0.172137 0.971601 0.052828
0.239173 0.970171 0.051544
0.306054 0.968744 0.050264
0.372811 0.967320 0.048986
0.439463 0.965898 0.047710
0.506024 0.964479 0.046436
0.572506 0.963061 0.045163
0.638918 0.961644 0.043891
0.705265 0.960229 0.042621
0.771555 0.958815 0.041352
0.837791 0.957402 0.040084
0.903978 0.955990 0.038817
0.970120 0.954579 0.037551
1.000000 0.953170 0.036285
0.000000 1.000000 0.052433
0.031130 1.000000 0.051129
0.098665 1.000000 0.049836
0.165905 1.000000 0.048549
0.232941 1.000000 0.047266
0.299822 1.000000 0.045985
0.366579 1.000000 0.044707
0.433230 1.000000 0.043431
0.499792 1.000000 0.042157
0.566274 1.000000 0.040884
0.632685 1.000000 0.039613
0.699033 1.000000 0.038342
0.765322 1.000000 0.037073
0.831559 1.000000 0.035805
0.897746 1.000000 0.034538
0.963887 1.000000 0.033272
1.000000 1.000000 0.032006
0.031969 0.013991 0.212539
0.100952 0.012523 0.210624
0.169358 0.011066 0.208725
0.237463 0.009617 0.206835
0.305362 0.008171 0.204950
0.373105 0.006729 0.203069
0.440722 0.005290 0.201192
0.508232 0.003853 0.199318
0.575651 0.002418 0.197447
0.642989 0.000984 0.195578
