assets/luts/generated_genre/bs_period_silver_painterly_67c37d7c7e6e8854.cube
# V4 spec-generated LUT — bs_period_silver_painterly
# Genre: period
# Look: Bleach-bypass period — austere, mythic, silver. Blaschke/The Lighthouse, The Northman.
# Spec hash: 67c37d7c7e6e8854
TITLE "V4 Spec LUT — bs_period_silver_painterly"
LUT_3D_SIZE 17
DOMAIN_MIN 0.0 0.0 0.0
DOMAIN_MAX 1.0 1.0 1.0
0.000000 0.000000 0.000000
0.013598 0.000000 0.003607
0.049418 0.006680 0.010908
0.086029 0.014327 0.018371
0.123103 0.022070 0.025927
0.160507 0.029882 0.033551
0.198169 0.037748 0.041227
0.236043 0.045659 0.048947
0.274098 0.053607 0.056703
0.312309 0.061588 0.064492
0.350660 0.069598 0.072309
0.389136 0.077633 0.080151
0.427725 0.085693 0.088016
0.466417 0.093774 0.095903
0.505206 0.101876 0.103809
0.544083 0.109996 0.111733
0.583043 0.118133 0.119674
0.008288 0.022554 0.012377
0.026489 0.026355 0.016087
0.062308 0.033837 0.023388
0.098920 0.041483 0.030850
0.135993 0.049226 0.038407
0.173397 0.057039 0.046030
0.211059 0.064905 0.053707
0.248934 0.072815 0.061427
0.286988 0.080763 0.069183
0.325200 0.088744 0.076971
0.363551 0.096754 0.084788
0.402026 0.104790 0.092630
0.440615 0.112849 0.100496
0.479308 0.120931 0.108382
0.518096 0.129032 0.116288
0.556973 0.137152 0.124212
0.595933 0.145289 0.132153
0.033658 0.075999 0.036938
0.051858 0.079801 0.040647
0.087678 0.087282 0.047948
0.124289 0.094929 0.055411
0.161363 0.102672 0.062967
0.198767 0.110484 0.070591
0.236429 0.118350 0.078267
0.274303 0.126260 0.085987
0.312358 0.134208 0.093744
0.350570 0.142189 0.101532
0.388920 0.150199 0.109349
0.427396 0.158235 0.117191
0.465985 0.166295 0.125056
0.504677 0.174376 0.132943
0.543466 0.182477 0.140849
0.582343 0.190597 0.148773
0.621303 0.198734 0.156714
0.059589 0.130627 0.062042
0.077789 0.134428 0.065751
0.113608 0.141909 0.073052
0.150220 0.149556 0.080514
0.187294 0.157299 0.088071
0.224698 0.165111 0.095695
0.262360 0.172977 0.103371
0.300234 0.180888 0.111091
0.338289 0.188836 0.118847
0.376500 0.196817 0.126636
0.414851 0.204827 0.134453
0.453327 0.212863 0.142295
0.491915 0.220922 0.150160
0.530608 0.229004 0.158047
0.569396 0.237105 0.165953
0.608273 0.245225 0.173877
0.647233 0.253362 0.181818
0.085846 0.185944 0.087462
0.104047 0.189745 0.091172
0.139866 0.197226 0.098473
0.176478 0.204873 0.105935
0.213551 0.212616 0.113491
0.250955 0.220428 0.121115
0.288617 0.228294 0.128792
0.326492 0.236205 0.136511
0.364546 0.244153 0.144268
0.402758 0.252134 0.152056
0.441109 0.260143 0.159873
0.479584 0.268179 0.167715
0.518173 0.276239 0.175581
0.556866 0.284320 0.183467
0.595654 0.292422 0.191373
0.634531 0.300541 0.199297
0.673491 0.308679 0.207238
0.112338 0.241753 0.113109
0.130538 0.245555 0.116819
0.166358 0.253036 0.124120
0.202970 0.260682 0.131582
0.240043 0.268426 0.139138
0.277447 0.276238 0.146762
0.315109 0.284104 0.154439
0.352983 0.292014 0.162158
0.391038 0.299962 0.169915
0.429250 0.307943 0.177703
0.467601 0.315953 0.185520
0.506076 0.323989 0.193362
0.544665 0.332049 0.201228
0.583358 0.340130 0.209114
0.622146 0.348231 0.217020
0.661023 0.356351 0.224944
0.699983 0.364488 0.232885
0.139013 0.297948 0.138933
0.157213 0.301749 0.142643
0.193032 0.309231 0.149944
0.229644 0.316877 0.157406
0.266718 0.324620 0.164962
0.304122 0.332433 0.172586
0.341784 0.340299 0.180263
0.379658 0.348209 0.187982
0.417713 0.356157 0.195739
0.455924 0.364138 0.203527
0.494275 0.372148 0.211344
0.532751 0.380184 0.219186
0.571340 0.388243 0.227052
0.610032 0.396325 0.234938
0.648820 0.404426 0.242844
0.687698 0.412546 0.250768
0.726658 0.420683 0.258709
0.165838 0.354459 0.164903
0.184038 0.358261 0.168612
0.219857 0.365742 0.175913
0.256469 0.373389 0.183375
0.293543 0.381132 0.190932
0.330947 0.388944 0.198556
0.368609 0.396810 0.206232
0.406483 0.404720 0.213952
0.444538 0.412668 0.221708
0.482749 0.420649 0.229497
0.521100 0.428659 0.237314
0.559576 0.436695 0.245156
0.598164 0.444755 0.253021
0.636857 0.452836 0.260908
0.675645 0.460937 0.268814
0.714490 0.469055 0.276795
0.753379 0.477186 0.284861
0.192790 0.411240 0.190996
0.210991 0.415041 0.194705
0.246810 0.422522 0.202006
0.283422 0.430169 0.209469
0.320495 0.437912 0.217025
0.357899 0.445724 0.224649
0.395561 0.453590 0.232325
0.433436 0.461501 0.240045
0.471490 0.469449 0.247802
0.509702 0.477430 0.255590
0.548053 0.485440 0.263407
0.586528 0.493476 0.271249
0.625064 0.501531 0.279209
0.663686 0.509607 0.287220
0.702404 0.517703 0.295250
0.741210 0.525817 0.303300
0.780099 0.533949 0.311366
0.219854 0.468255 0.217197
0.238054 0.472056 0.220906
0.273874 0.479537 0.228207
0.310486 0.487184 0.235670
0.347559 0.494927 0.243226
0.384963 0.502739 0.250850
0.422625 0.510605 0.258526
0.460499 0.518516 0.266246
0.498546 0.526463 0.274016
0.536689 0.534439 0.281927
0.574970 0.542443 0.289868
0.613375 0.550474 0.297834
0.651894 0.558528 0.305823
0.690516 0.566604 0.313834
0.729234 0.574700 0.321865
0.768040 0.582814 0.329914
0.806929 0.590946 0.337980
0.247016 0.525477 0.243493
0.265217 0.529278 0.247202
0.301036 0.536759 0.254503
0.337648 0.544406 0.261966
0.374722 0.552149 0.269522
0.412090 0.559959 0.277209
0.449683 0.567819 0.285007
0.487489 0.575725 0.292848
0.525474 0.583667 0.300727
0.563616 0.591643 0.308639
0.601897 0.599647 0.316579
0.640303 0.607678 0.324545
0.678822 0.615732 0.332534
0.717444 0.623808 0.340545
0.756162 0.631904 0.348576
0.794968 0.640018 0.356625
0.833857 0.648150 0.364691
0.274267 0.582885 0.269875
0.292463 0.586686 0.273591
0.328218 0.594163 0.281007
0.364763 0.601804 0.288588
0.401769 0.609542 0.296263
0.439105 0.617349 0.304007
0.476699 0.625210 0.311805
0.514504 0.633115 0.319647
0.552490 0.641058 0.327525
0.590632 0.649033 0.335437
0.628913 0.657038 0.343377
0.667318 0.665068 0.351343
0.705837 0.673123 0.359332
0.744459 0.681198 0.367343
0.783177 0.689294 0.375374
0.821983 0.697409 0.383423
0.860873 0.705540 0.391490
0.301391 0.640447 0.296700
0.319558 0.644246 0.300468
0.355313 0.651722 0.307885
0.391858 0.659364 0.315465
0.428864 0.667102 0.323140
0.466200 0.674909 0.330885
0.503794 0.682769 0.338682
0.541599 0.690674 0.346524
0.579585 0.698617 0.354402
0.617727 0.706593 0.362314
0.656008 0.714597 0.370254
0.694413 0.722628 0.378220
0.732932 0.730682 0.386209
0.771554 0.738758 0.394220
0.810272 0.746854 0.402251
0.849078 0.754968 0.410300
0.887968 0.763100 0.418367
0.328559 0.698161 0.323650
0.346726 0.701960 0.327418
0.382481 0.709436 0.334834
0.419026 0.717078 0.342414
0.456032 0.724816 0.350090
0.493368 0.732623 0.357834
0.530961 0.740483 0.365631
0.568767 0.748389 0.373473
0.606752 0.756331 0.381352
0.644895 0.764307 0.389263
0.683176 0.772311 0.397203
0.721581 0.780342 0.405169
0.760100 0.788396 0.413159
0.798722 0.796472 0.421170
0.837440 0.804568 0.429201
0.876246 0.812682 0.437250
0.915135 0.820814 0.445316
0.355794 0.756018 0.350666
0.373961 0.759817 0.354434
0.409716 0.767293 0.361850
0.446261 0.774935 0.369430
0.483267 0.782673 0.377106
0.520603 0.790480 0.384850
0.558196 0.798340 0.392647
0.596002 0.806245 0.400489
0.633987 0.814188 0.408368
0.672130 0.822164 0.416279
0.710410 0.830168 0.424219
0.748816 0.838199 0.432185
0.787335 0.846253 0.440175
0.825957 0.854329 0.448186
0.864675 0.862425 0.456216
0.903481 0.870539 0.464266
0.942370 0.878671 0.472332
0.383091 0.814008 0.377743
0.401259 0.817806 0.381512
0.437013 0.825282 0.388928
0.473558 0.832924 0.396508
0.510564 0.840662 0.404184
0.547900 0.848469 0.411928
0.585494 0.856330 0.419725
0.623299 0.864235 0.427567
0.661285 0.872178 0.435446
0.699427 0.880153 0.443357
0.737708 0.888158 0.451297
0.776113 0.896188 0.459263
0.814632 0.904242 0.467253
0.853254 0.912318 0.475264
0.891972 0.920414 0.483294
0.930779 0.928529 0.491343
0.969668 0.936660 0.499410
0.410447 0.872121 0.404879
0.428614 0.875919 0.408647
0.464368 0.883395 0.416063
0.500914 0.891037 0.423643
0.537920 0.898775 0.431319
0.575256 0.906582 0.439063
0.612849 0.914443 0.446861
0.650655 0.922348 0.454702
0.688640 0.930291 0.462581
0.726782 0.938266 0.470493
0.765063 0.946271 0.478433
0.803469 0.954301 0.486399
0.841988 0.962355 0.494388
0.880610 0.970431 0.502399
0.919328 0.978527 0.510430
0.958134 0.986642 0.518479
0.997023 0.994773 0.526545
0.000000 0.000000 0.015526
0.014899 0.000490 0.019236
0.050719 0.007971 0.026537
0.087331 0.015618 0.033999
0.124404 0.023361 0.041555
0.161808 0.031173 0.049179
0.199470 0.039039 0.056856
0.237344 0.046950 0.064575
0.275399 0.054898 0.072332
0.313611 0.062879 0.080120
0.351962 0.070888 0.087937
0.390437 0.078924 0.095779
0.429026 0.086984 0.103645
0.467719 0.095065 0.111531
0.506507 0.103167 0.119437
0.545384 0.111286 0.127361
0.584344 0.119424 0.135302
0.009590 0.023845 0.028006
0.027790 0.027646 0.031715
0.063609 0.035127 0.039016
0.100221 0.042774 0.046478
0.137295 0.050517 0.054035
0.174699 0.058329 0.061659
0.212361 0.066196 0.069335
0.250235 0.074106 0.077055
0.288290 0.082054 0.084811
0.326501 0.090035 0.092600
0.364852 0.098045 0.100416
0.403328 0.106081 0.108259
0.441917 0.114140 0.116124
0.480609 0.122222 0.124011
0.519397 0.130323 0.131916
0.558275 0.138443 0.139841
0.597234 0.146580 0.147782
0.034959 0.077290 0.052566
0.053159 0.081092 0.056276
0.088979 0.088573 0.063577
0.125591 0.096220 0.071039
0.162664 0.103963 0.078595
0.200068 0.111775 0.086219
0.237730 0.119641 0.093896
0.275605 0.127551 0.101615
0.313659 0.135499 0.109372
0.351871 0.143480 0.117160
0.390222 0.151490 0.124977
0.428697 0.159526 0.132819
0.467286 0.167586 0.140685
0.505979 0.175667 0.148571
0.544767 0.183768 0.156477
0.583644 0.191888 0.164401
0.622604 0.200025 0.172342
0.060890 0.131918 0.077670
0.079090 0.135719 0.081380
0.114910 0.143200 0.088680
0.151521 0.150847 0.096143
0.188595 0.158590 0.103699
0.225999 0.166402 0.111323
0.263661 0.174268 0.118999
0.301535 0.182179 0.126719
0.339590 0.190127 0.134476
0.377802 0.198108 0.142264
0.416152 0.206118 0.150081
0.454628 0.214154 0.157923
0.493217 0.222213 0.165788
0.531909 0.230295 0.173675
0.570698 0.238396 0.181581
0.609575 0.246516 0.189505
0.648535 0.254653 0.197446
0.087148 0.187235 0.103090
0.105348 0.191036 0.106800
0.141167 0.198517 0.114101
0.177779 0.206164 0.121563
0.214853 0.213907 0.129120
0.252257 0.221719 0.136744
0.289919 0.229585 0.144420
0.327793 0.237496 0.152140
0.365848 0.245444 0.159896
0.404059 0.253424 0.167685
0.442410 0.261434 0.175501
0.480886 0.269470 0.183344
0.519475 0.277530 0.191209
0.558167 0.285611 0.199095
0.596955 0.293713 0.207001
0.635833 0.301832 0.214925
0.674793 0.309970 0.222866
0.113639 0.243044 0.128737
0.131840 0.246846 0.132447
0.167659 0.254327 0.139748
0.204271 0.261973 0.147210
0.241345 0.269717 0.154767
0.278748 0.277529 0.162391
0.316411 0.285395 0.170067
0.354285 0.293305 0.177787
0.392339 0.301253 0.185543
0.430551 0.309234 0.193332
0.468902 0.317244 0.201148
0.507377 0.325280 0.208991
0.545966 0.333340 0.216856
0.584659 0.341421 0.224742
0.623447 0.349522 0.232648
0.662324 0.357642 0.240572
0.701284 0.365779 0.248513
0.140314 0.299239 0.154561
0.158514 0.303040 0.158271
0.194334 0.310521 0.165572
0.230945 0.318168 0.173034
0.268019 0.325911 0.180591
0.305423 0.333723 0.188215
0.343085 0.341590 0.195891
0.380959 0.349500 0.203611
0.419014 0.357448 0.211367
0.457226 0.365429 0.219156
0.495576 0.373439 0.226972
0.534052 0.381475 0.234815
0.572641 0.389534 0.242680
0.611333 0.397616 0.250566
0.650122 0.405717 0.258472
0.688999 0.413837 0.266396
0.727959 0.421974 0.274337
0.167139 0.355750 0.180531
0.185339 0.359552 0.184241
0.221159 0.367033 0.191541
0.257770 0.374679 0.199004
0.294844 0.382423 0.206560
0.332248 0.390235 0.214184
0.369910 0.398101 0.221860
0.407784 0.406011 0.229580
0.445839 0.413959 0.237337
0.484051 0.421940 0.245125
0.522401 0.429950 0.252942
0.560877 0.437986 0.260784
0.599466 0.446046 0.268649
0.638158 0.454127 0.276536
0.676947 0.462228 0.284442
0.715780 0.470345 0.292443
0.754670 0.478476 0.300509
0.194092 0.412531 0.206624
0.212292 0.416332 0.210334
0.248111 0.423813 0.217635
0.284723 0.431460 0.225097
0.321797 0.439203 0.232653
0.359201 0.447015 0.240277
0.396863 0.454881 0.247954
0.434737 0.462792 0.255673
0.472792 0.470740 0.263430
0.511003 0.478721 0.271218
0.549354 0.486731 0.279035
0.587830 0.494767 0.286877
0.626354 0.502821 0.294857
0.664976 0.510897 0.302868
0.703694 0.518993 0.310899
0.742500 0.527107 0.318948
0.781389 0.535239 0.327014
0.221155 0.469546 0.232825
0.239356 0.473347 0.236535
0.275175 0.480828 0.243835
0.311787 0.488475 0.251298
0.348860 0.496218 0.258854
0.386264 0.504030 0.266478
0.423927 0.511896 0.274154
0.461801 0.519807 0.281874
0.499836 0.527753 0.289664
0.537979 0.535729 0.297576
0.576260 0.543733 0.305516
0.614665 0.551764 0.313482
0.653184 0.559818 0.321471
0.691806 0.567894 0.329482
0.730524 0.575990 0.337513
0.769330 0.584104 0.345562
0.808220 0.592236 0.353628
0.248318 0.526768 0.259121
0.266518 0.530569 0.262831
0.302337 0.538050 0.270132
0.338949 0.545697 0.277594
0.376023 0.553440 0.285150
0.413380 0.561249 0.292857
0.450973 0.569110 0.300655
0.488779 0.577015 0.308497
0.526764 0.584957 0.316375
0.564906 0.592933 0.324287
0.603187 0.600937 0.332227
0.641593 0.608968 0.340193
0.680112 0.617022 0.348182
0.718734 0.625098 0.356193
0.757452 0.633194 0.364224
0.796258 0.641308 0.372273
0.835147 0.649440 0.380340
0.275568 0.584176 0.285503
0.293754 0.587977 0.289239
0.329508 0.595453 0.296656
0.366053 0.603094 0.304236
0.403059 0.610832 0.311911
0.440395 0.618639 0.319656
0.477989 0.626500 0.327453
0.515794 0.634405 0.335295
0.553780 0.642348 0.343174
0.591922 0.650323 0.351085
0.630203 0.658328 0.359025
0.668608 0.666358 0.366991
0.707127 0.674413 0.374981
0.745749 0.682489 0.382992
0.784467 0.690584 0.391022
0.823274 0.698699 0.399071
0.862163 0.706831 0.407138
0.302681 0.641737 0.312348
0.320849 0.645536 0.316117
0.356603 0.653012 0.323533
0.393148 0.660654 0.331113
0.430154 0.668392 0.338789
0.467490 0.676199 0.346533
0.505084 0.684059 0.354330
0.542889 0.691964 0.362172
0.580875 0.699907 0.370051
0.619017 0.707883 0.377962
0.657298 0.715887 0.385902
0.695703 0.723918 0.393868
0.734222 0.731972 0.401858
0.772844 0.740048 0.409869
0.811562 0.748144 0.417899
0.850369 0.756258 0.425948
0.889258 0.764390 0.434015
0.329849 0.699451 0.339298
0.348016 0.703250 0.343066
0.383771 0.710726 0.350482
0.420316 0.718368 0.358062
0.457322 0.726106 0.365738
0.494658 0.733913 0.373482
0.532252 0.741774 0.381280
0.570057 0.749679 0.389121
0.608042 0.757621 0.397000
0.646185 0.765597 0.404911
0.684466 0.773601 0.412851
0.722871 0.781632 0.420817
0.761390 0.789686 0.428807
0.800012 0.797762 0.436818
0.838730 0.805858 0.444849
0.877536 0.813972 0.452898
0.916425 0.822104 0.460964
0.357084 0.757308 0.366314
0.375251 0.761107 0.370082
0.411006 0.768583 0.377498
0.447551 0.776225 0.385078
0.484557 0.783963 0.392754
0.521893 0.791770 0.400498
0.559486 0.799630 0.408296
0.597292 0.807536 0.416137
0.635277 0.815478 0.424016
0.673420 0.823454 0.431927
0.711701 0.831458 0.439867
0.750106 0.839489 0.447833
0.788625 0.847543 0.455823
0.827247 0.855619 0.463834
0.865965 0.863715 0.471865
0.904771 0.871829 0.479914
0.943660 0.879961 0.487980
0.384381 0.815298 0.393392
0.402549 0.819096 0.397160
0.438303 0.826573 0.404576
0.474848 0.834214 0.412156
0.511854 0.841952 0.419832
0.549190 0.849759 0.427576
0.586784 0.857620 0.435373
0.624589 0.865525 0.443215
0.662575 0.873468 0.451094
0.700717 0.881443 0.459005
0.738998 0.889448 0.466945
0.777404 0.897478 0.474911
0.815922 0.905532 0.482901
0.854544 0.913608 0.490912
0.893262 0.921704 0.498942
0.932069 0.929819 0.506992
0.970958 0.937950 0.515058
0.411737 0.873411 0.420527
0.429904 0.877209 0.424295
0.465659 0.884686 0.431711
0.502204 0.892327 0.439291
0.539210 0.900065 0.446967
0.576546 0.907872 0.454711
0.614139 0.915733 0.462509
0.651945 0.923638 0.470350
0.689930 0.931581 0.478229
0.728072 0.939556 0.486141
0.766353 0.947561 0.494081
0.804759 0.955591 0.502047
0.843278 0.963646 0.510036
0.881900 0.971721 0.518047
0.920618 0.979817 0.526078
0.959424 0.987932 0.534127
0.998313 0.996063 0.542193
0.000000 0.000000 0.046284
0.017460 0.003031 0.049993
0.053280 0.010512 0.057294
0.089892 0.018159 0.064756
0.126965 0.025902 0.072313
0.164369 0.033714 0.079937
0.202031 0.041580 0.087613
0.239906 0.049490 0.095333
0.277960 0.057438 0.103089
0.316172 0.065419 0.110878
0.354523 0.073429 0.118694
0.392998 0.081465 0.126537
0.431587 0.089525 0.134402
0.470280 0.097606 0.142289
0.509068 0.105707 0.150195
0.547945 0.113827 0.158119
0.586905 0.121964 0.166060
0.012151 0.026386 0.058763
0.030351 0.030187 0.062473
0.066170 0.037668 0.069774
0.102782 0.045315 0.077236
0.139856 0.053058 0.084792
0.177260 0.060870 0.092416
0.214922 0.068736 0.100093
0.252796 0.076647 0.107812
0.290851 0.084595 0.115569
0.329062 0.092575 0.123357
0.367413 0.100585 0.131174
0.405889 0.108621 0.139016
0.444478 0.116681 0.146882
0.483170 0.124762 0.154768
0.521958 0.132864 0.162674
0.560836 0.140983 0.170598
0.599796 0.149121 0.178539
0.037520 0.079831 0.083324
0.055721 0.083632 0.087033
0.091540 0.091114 0.094334
0.128152 0.098760 0.101796
0.165225 0.106503 0.109353
0.202629 0.114316 0.116977
0.240291 0.122182 0.124653
0.278166 0.130092 0.132373
0.316220 0.138040 0.140129
0.354432 0.146021 0.147918
0.392783 0.154031 0.155735
0.431258 0.162067 0.163577
0.469847 0.170126 0.171442
0.508540 0.178208 0.179329
0.547328 0.186309 0.187235
0.586205 0.194429 0.195159
0.625165 0.202566 0.203100
0.063451 0.134459 0.108427
0.081651 0.138260 0.112137
0.117471 0.145741 0.119438
0.154082 0.153388 0.126900
0.191156 0.161131 0.134457
0.228560 0.168943 0.142081
0.266222 0.176809 0.149757
0.304096 0.184719 0.157477
0.342151 0.192668 0.165233
0.380363 0.200648 0.173022
0.418713 0.208658 0.180838
0.457189 0.216694 0.188681
0.495778 0.224754 0.196546
0.534470 0.232835 0.204432
0.573259 0.240936 0.212338
0.612136 0.249056 0.220262
0.651096 0.257193 0.228203
0.089709 0.189775 0.133848
0.107909 0.193577 0.137558
0.143728 0.201058 0.144858
0.180340 0.208704 0.152321
0.217414 0.216448 0.159877
0.254818 0.224260 0.167501
0.292480 0.232126 0.175177
0.330354 0.240036 0.182897
0.368409 0.247984 0.190654
0.406620 0.255965 0.198442
0.444971 0.263975 0.206259
0.483447 0.272011 0.214101
0.522036 0.280071 0.221966
0.560728 0.288152 0.229853
0.599516 0.296253 0.237759
0.638394 0.304373 0.245683
0.677354 0.312510 0.253624
0.116201 0.245585 0.159495
0.134401 0.249386 0.163205
0.170220 0.256867 0.170505
0.206832 0.264514 0.177968
0.243906 0.272257 0.185524
0.281310 0.280069 0.193148
0.318972 0.287935 0.200824
0.356846 0.295846 0.208544
0.394901 0.303794 0.216301
0.433112 0.311775 0.224089
0.471463 0.319785 0.231906
0.509939 0.327821 0.239748
0.548527 0.335880 0.247613
0.587220 0.343962 0.255500
0.626008 0.352063 0.263406
0.664885 0.360183 0.271330
0.703845 0.368320 0.279271
0.142875 0.301780 0.185319
0.161075 0.305581 0.189029
0.196895 0.313062 0.196329
0.233507 0.320709 0.203792
0.270580 0.328452 0.211348
0.307984 0.336264 0.218972
0.345646 0.344130 0.226648
0.383520 0.352041 0.234368
0.421575 0.359989 0.242125
0.459787 0.367969 0.249913
0.498138 0.375979 0.257730
0.536613 0.384015 0.265572
0.575202 0.392075 0.273437
0.613895 0.400156 0.281324
0.652683 0.408258 0.289230
0.691560 0.416377 0.297154
0.730520 0.424515 0.305095
0.169700 0.358291 0.211288
0.187900 0.362092 0.214998
0.223720 0.369573 0.222299
0.260331 0.377220 0.229761
0.297405 0.384963 0.237318
0.334809 0.392775 0.244942
0.372471 0.400642 0.252618
0.410345 0.408552 0.260338
0.448400 0.416500 0.268094
0.486612 0.424481 0.275883
0.524962 0.432491 0.283699
0.563438 0.440527 0.291542
0.602027 0.448586 0.299407
0.640719 0.456668 0.307293
0.679508 0.464769 0.315199
0.718319 0.472884 0.323239
0.757209 0.481015 0.331306
0.196653 0.415071 0.237382
0.214853 0.418873 0.241091
0.250672 0.426354 0.248392
0.287284 0.434001 0.255854
0.324358 0.441744 0.263411
0.361762 0.449556 0.271035
0.399424 0.457422 0.278711
0.437298 0.465332 0.286431
0.475353 0.473281 0.294187
0.513564 0.481261 0.301976
0.551915 0.489271 0.309793
0.590374 0.497306 0.317664
0.628893 0.505360 0.325653
0.667515 0.513436 0.333664
0.706233 0.521532 0.341695
0.745039 0.529646 0.349744
0.783928 0.537778 0.357811
0.223716 0.472086 0.263582
0.241917 0.475888 0.267292
0.277736 0.483369 0.274593
0.314348 0.491015 0.282055
0.351422 0.498759 0.289612
0.388826 0.506571 0.297236
0.426488 0.514437 0.304912
0.464362 0.522347 0.312632
0.502375 0.530292 0.320461
0.540518 0.538268 0.328372
0.578799 0.546272 0.336312
0.617204 0.554303 0.344278
0.655723 0.562357 0.352268
0.694345 0.570433 0.360279
0.733063 0.578529 0.368310
0.771869 0.586643 0.376359
0.810759 0.594775 0.384425
0.250879 0.529309 0.289879
0.269079 0.533110 0.293588
0.304899 0.540591 0.300889
0.341510 0.548238 0.308351
0.378583 0.555981 0.315910
0.415919 0.563788 0.323654
0.453512 0.571649 0.331452
0.491318 0.579554 0.339293
0.529303 0.587496 0.347172
0.567445 0.595472 0.355083
0.605726 0.603476 0.363024
0.644132 0.611507 0.370990
0.682651 0.619561 0.378979
0.721273 0.627637 0.386990
0.759991 0.635733 0.395021
0.798797 0.643847 0.403070
0.837686 0.651979 0.411136
0.278125 0.586717 0.316268
0.296293 0.590515 0.320036
0.332047 0.597992 0.327452
0.368592 0.605633 0.335032
0.405598 0.613371 0.342708
0.442934 0.621178 0.350452
0.480528 0.629039 0.358250
0.518333 0.636944 0.366091
0.556319 0.644887 0.373970
0.594461 0.652862 0.381882
0.632742 0.660867 0.389822
0.671147 0.668897 0.397788
0.709666 0.676952 0.405777
0.748288 0.685028 0.413788
0.787006 0.693123 0.421819
0.825813 0.701238 0.429868
0.864702 0.709369 0.437934
0.305220 0.644276 0.343145
0.323387 0.648075 0.346913
0.359142 0.655551 0.354329
0.395687 0.663193 0.361909
0.432693 0.670931 0.369585
0.470029 0.678738 0.377329
0.507623 0.686598 0.385127
0.545428 0.694503 0.392968
0.583414 0.702446 0.400847
0.621556 0.710422 0.408759
0.659837 0.718426 0.416699
0.698242 0.726457 0.424665
0.736761 0.734511 0.432654
0.775383 0.742587 0.440665
0.814101 0.750683 0.448696
0.852907 0.758797 0.456745
0.891797 0.766929 0.464811
0.332388 0.701990 0.370094
0.350555 0.705789 0.373863
0.386310 0.713265 0.381279
0.422855 0.720907 0.388859
0.459861 0.728645 0.396535
0.497197 0.736452 0.404279
0.534790 0.744313 0.412076
0.572596 0.752218 0.419918
0.610581 0.760160 0.427797
0.648724 0.768136 0.435708
0.687005 0.776140 0.443648
0.725410 0.784171 0.451614
0.763929 0.792225 0.459604
0.802551 0.800301 0.467615
0.841269 0.808397 0.475645
0.880075 0.816511 0.483694
0.918964 0.824643 0.491761
0.359623 0.759847 0.397110
0.377790 0.763646 0.400879
0.413545 0.771122 0.408295
0.450090 0.778764 0.415875
0.487096 0.786502 0.423550
0.524432 0.794309 0.431295
0.562025 0.802169 0.439092
0.599831 0.810074 0.446934
0.637816 0.818017 0.454813
0.675959 0.825993 0.462724
0.714240 0.833997 0.470664
0.752645 0.842028 0.478630
0.791164 0.850082 0.486620
0.829786 0.858158 0.494631
0.868504 0.866254 0.502661
0.907310 0.874368 0.510710
0.946199 0.882500 0.518777
0.386920 0.817837 0.424188
0.405088 0.821635 0.427956
0.440842 0.829112 0.435372
0.477387 0.836753 0.442953
0.514393 0.844491 0.450628
0.551729 0.852298 0.458372
0.589323 0.860159 0.466170
0.627128 0.868064 0.474012
0.665114 0.876007 0.481890
0.703256 0.883982 0.489802
0.741537 0.891987 0.497742
0.779942 0.900017 0.505708
0.818461 0.908071 0.513697
0.857083 0.916147 0.521708
0.895801 0.924243 0.529739
0.934608 0.932358 0.537788
0.973497 0.940489 0.545855
0.414276 0.875950 0.451324
0.432443 0.879748 0.455092
0.468197 0.887225 0.462508
0.504743 0.894866 0.470088
0.541749 0.902604 0.477764
0.579085 0.910411 0.485508
0.616678 0.918272 0.493306
0.654484 0.926177 0.501147
0.692469 0.934120 0.509026
0.730611 0.942095 0.516937
0.768892 0.950100 0.524878
0.807298 0.958130 0.532844
0.845817 0.966184 0.540833
0.884439 0.974260 0.548844
0.923157 0.982356 0.556875
0.961963 0.990471 0.564924
1.000000 0.998602 0.572990
0.001878 0.001826 0.077721
0.020078 0.005628 0.081431
0.055898 0.013109 0.088732
0.092509 0.020755 0.096194
0.129583 0.028499 0.103751
0.166987 0.036311 0.111375
0.204649 0.044177 0.119051
0.242523 0.052087 0.126771
0.280578 0.060035 0.134527
0.318790 0.068016 0.142316
