assets/luts/generated_genre/bs_period_silver_painterly_67c37d7c7e6e8854.cube
# V4 spec-generated LUT — bs_period_silver_painterly
# Genre: period
# Look: Bleach-bypass period — austere, mythic, silver. Blaschke/The Lighthouse, The Northman.
# Spec hash: 67c37d7c7e6e8854
TITLE "V4 Spec LUT — bs_period_silver_painterly"
LUT_3D_SIZE 9
DOMAIN_MIN 0.0 0.0 0.0
DOMAIN_MAX 1.0 1.0 1.0
0.000000 0.000000 0.000000
0.049418 0.006680 0.010908
0.123103 0.022070 0.025927
0.198169 0.037748 0.041227
0.274098 0.053607 0.056703
0.350660 0.069598 0.072309
0.427725 0.085693 0.088016
0.505206 0.101876 0.103809
0.583043 0.118133 0.119674
0.033658 0.075999 0.036938
0.087678 0.087282 0.047948
0.161363 0.102672 0.062967
0.236429 0.118350 0.078267
0.312358 0.134208 0.093744
0.388920 0.150199 0.109349
0.465985 0.166295 0.125056
0.543466 0.182477 0.140849
0.621303 0.198734 0.156714
0.085846 0.185944 0.087462
0.139866 0.197226 0.098473
0.213551 0.212616 0.113491
0.288617 0.228294 0.128792
0.364546 0.244153 0.144268
0.441109 0.260143 0.159873
0.518173 0.276239 0.175581
0.595654 0.292422 0.191373
0.673491 0.308679 0.207238
0.139013 0.297948 0.138933
0.193032 0.309231 0.149944
0.266718 0.324620 0.164962
0.341784 0.340299 0.180263
0.417713 0.356157 0.195739
0.494275 0.372148 0.211344
0.571340 0.388243 0.227052
0.648820 0.404426 0.242844
0.726658 0.420683 0.258709
0.192790 0.411240 0.190996
0.246810 0.422522 0.202006
0.320495 0.437912 0.217025
0.395561 0.453590 0.232325
0.471490 0.469449 0.247802
0.548053 0.485440 0.263407
0.625064 0.501531 0.279209
0.702404 0.517703 0.295250
0.780099 0.533949 0.311366
0.247016 0.525477 0.243493
0.301036 0.536759 0.254503
0.374722 0.552149 0.269522
0.449683 0.567819 0.285007
0.525474 0.583667 0.300727
0.601897 0.599647 0.316579
0.678822 0.615732 0.332534
0.756162 0.631904 0.348576
0.833857 0.648150 0.364691
0.301391 0.640447 0.296700
0.355313 0.651722 0.307885
0.428864 0.667102 0.323140
0.503794 0.682769 0.338682
0.579585 0.698617 0.354402
0.656008 0.714597 0.370254
0.732932 0.730682 0.386209
0.810272 0.746854 0.402251
0.887968 0.763100 0.418367
0.355794 0.756018 0.350666
0.409716 0.767293 0.361850
0.483267 0.782673 0.377106
0.558196 0.798340 0.392647
0.633987 0.814188 0.408368
0.710410 0.830168 0.424219
0.787335 0.846253 0.440175
0.864675 0.862425 0.456216
0.942370 0.878671 0.472332
0.410447 0.872121 0.404879
0.464368 0.883395 0.416063
0.537920 0.898775 0.431319
0.612849 0.914443 0.446861
0.688640 0.930291 0.462581
0.765063 0.946271 0.478433
0.841988 0.962355 0.494388
0.919328 0.978527 0.510430
0.997023 0.994773 0.526545
0.000000 0.000000 0.046284
0.053280 0.010512 0.057294
0.126965 0.025902 0.072313
0.202031 0.041580 0.087613
0.277960 0.057438 0.103089
0.354523 0.073429 0.118694
0.431587 0.089525 0.134402
0.509068 0.105707 0.150195
0.586905 0.121964 0.166060
0.037520 0.079831 0.083324
0.091540 0.091114 0.094334
0.165225 0.106503 0.109353
0.240291 0.122182 0.124653
0.316220 0.138040 0.140129
0.392783 0.154031 0.155735
0.469847 0.170126 0.171442
0.547328 0.186309 0.187235
0.625165 0.202566 0.203100
0.089709 0.189775 0.133848
0.143728 0.201058 0.144858
0.217414 0.216448 0.159877
0.292480 0.232126 0.175177
0.368409 0.247984 0.190654
0.444971 0.263975 0.206259
0.522036 0.280071 0.221966
0.599516 0.296253 0.237759
0.677354 0.312510 0.253624
0.142875 0.301780 0.185319
0.196895 0.313062 0.196329
0.270580 0.328452 0.211348
0.345646 0.344130 0.226648
0.421575 0.359989 0.242125
0.498138 0.375979 0.257730
0.575202 0.392075 0.273437
0.652683 0.408258 0.289230
0.730520 0.424515 0.305095
0.196653 0.415071 0.237382
0.250672 0.426354 0.248392
0.324358 0.441744 0.263411
0.399424 0.457422 0.278711
0.475353 0.473281 0.294187
0.551915 0.489271 0.309793
0.628893 0.505360 0.325653
0.706233 0.521532 0.341695
0.783928 0.537778 0.357811
0.250879 0.529309 0.289879
0.304899 0.540591 0.300889
0.378583 0.555981 0.315910
0.453512 0.571649 0.331452
0.529303 0.587496 0.347172
0.605726 0.603476 0.363024
0.682651 0.619561 0.378979
0.759991 0.635733 0.395021
0.837686 0.651979 0.411136
0.305220 0.644276 0.343145
0.359142 0.655551 0.354329
0.432693 0.670931 0.369585
0.507623 0.686598 0.385127
0.583414 0.702446 0.400847
0.659837 0.718426 0.416699
0.736761 0.734511 0.432654
0.814101 0.750683 0.448696
0.891797 0.766929 0.464811
0.359623 0.759847 0.397110
0.413545 0.771122 0.408295
0.487096 0.786502 0.423550
0.562025 0.802169 0.439092
0.637816 0.818017 0.454813
0.714240 0.833997 0.470664
0.791164 0.850082 0.486620
0.868504 0.866254 0.502661
0.946199 0.882500 0.518777
0.414276 0.875950 0.451324
0.468197 0.887225 0.462508
0.541749 0.902604 0.477764
0.616678 0.918272 0.493306
0.692469 0.934120 0.509026
0.768892 0.950100 0.524878
0.845817 0.966184 0.540833
0.923157 0.982356 0.556875
1.000000 0.998602 0.572990
0.004529 0.004456 0.109556
0.058548 0.015738 0.120566
0.132234 0.031128 0.135585
0.207300 0.046806 0.150885
0.283229 0.062665 0.166362
0.359791 0.078656 0.181967
0.436855 0.094751 0.197674
0.514336 0.110934 0.213467
0.592173 0.127191 0.229332
0.042789 0.085057 0.146596
0.096808 0.096340 0.157606
0.170494 0.111730 0.172625
0.245560 0.127408 0.187925
0.321489 0.143267 0.203402
0.398051 0.159257 0.219007
0.475116 0.175353 0.234714
0.552596 0.191535 0.250507
0.630434 0.207792 0.266372
0.094977 0.195002 0.197120
0.148997 0.206284 0.208131
0.222682 0.221674 0.223150
0.297748 0.237352 0.238450
0.373677 0.253211 0.253926
0.450240 0.269202 0.269531
0.527304 0.285297 0.285239
0.604785 0.301480 0.301031
0.682622 0.317737 0.316896
0.148144 0.307006 0.248591
0.202163 0.318289 0.259602
0.275849 0.333678 0.274621
0.350915 0.349357 0.289921
0.426844 0.365215 0.305397
0.503406 0.381206 0.321002
0.580470 0.397301 0.336710
0.657951 0.413484 0.352502
0.735788 0.429741 0.368367
0.201921 0.420298 0.300654
0.255941 0.431580 0.311664
0.329626 0.446970 0.326683
0.404692 0.462649 0.341983
0.480621 0.478507 0.357460
0.557184 0.494498 0.373065
0.634116 0.510583 0.389006
0.711456 0.526755 0.405048
0.789151 0.543001 0.421163
0.256147 0.534535 0.353151
0.310167 0.545818 0.364161
0.383806 0.561204 0.379263
0.458735 0.576871 0.394804
0.534526 0.592719 0.410525
0.610949 0.608699 0.426376
0.687874 0.624784 0.442332
0.765214 0.640956 0.458374
0.842909 0.657202 0.474489
0.310443 0.649499 0.406498
0.364365 0.660774 0.417682
0.437916 0.676154 0.432938
0.512846 0.691821 0.448480
0.588637 0.707669 0.464200
0.665060 0.723649 0.480052
0.741984 0.739734 0.496007
0.819324 0.755906 0.512049
0.897020 0.772152 0.528164
0.364846 0.765070 0.460463
0.418768 0.776345 0.471647
0.492319 0.791725 0.486903
0.567248 0.807392 0.502445
0.643039 0.823240 0.518165
0.719462 0.839220 0.534017
0.796387 0.855305 0.549972
0.873727 0.871477 0.566014
0.951422 0.887723 0.582130
0.419499 0.881173 0.514677
0.473420 0.892447 0.525861
0.546972 0.907827 0.541117
0.621901 0.923495 0.556658
0.697692 0.939343 0.572379
0.774115 0.955323 0.588230
0.851040 0.971407 0.604186
0.928380 0.987579 0.620227
1.000000 1.000000 0.636343
0.009896 0.009780 0.174014
0.063916 0.021063 0.185024
0.137601 0.036453 0.200043
0.212667 0.052131 0.215343
0.288596 0.067989 0.230819
0.365158 0.083980 0.246425
0.442223 0.100076 0.262132
0.519704 0.116258 0.277925
0.597541 0.132515 0.293790
0.048156 0.090382 0.211054
0.102176 0.101664 0.222064
0.175861 0.117054 0.237083
0.250927 0.132732 0.252383
0.326856 0.148591 0.267859
0.403418 0.164582 0.283465
0.480483 0.180677 0.299172
0.557964 0.196860 0.314965
0.635801 0.213117 0.330830
0.100344 0.200326 0.261578
0.154364 0.211609 0.272589
0.228049 0.226998 0.287607
0.303115 0.242677 0.302908
0.379044 0.258535 0.318384
0.455607 0.274526 0.333989
0.532671 0.290621 0.349697
0.610152 0.306804 0.365489
0.687989 0.323061 0.381354
0.153511 0.312330 0.313049
0.207530 0.323613 0.324060
0.281216 0.339003 0.339078
0.356282 0.354681 0.354379
0.432211 0.370539 0.369855
0.508773 0.386530 0.385460
0.585838 0.402626 0.401168
0.663318 0.418808 0.416960
0.741156 0.435065 0.432825
0.207288 0.425622 0.365112
0.261308 0.436905 0.376122
0.334993 0.452295 0.391141
0.410059 0.467973 0.406441
0.485988 0.483831 0.421917
0.562512 0.499819 0.437591
0.639437 0.515904 0.453546
0.716777 0.532076 0.469588
0.794472 0.548322 0.485703
0.261514 0.539859 0.417609
0.315534 0.551142 0.428619
0.389127 0.566525 0.443803
0.464056 0.582192 0.459344
0.539847 0.598040 0.475065
0.616270 0.614020 0.490916
0.693194 0.630105 0.506872
0.770534 0.646277 0.522913
0.848230 0.662523 0.539029
0.315764 0.654820 0.471038
0.369686 0.666095 0.482222
0.443237 0.681474 0.497478
0.518166 0.697142 0.513020
0.593957 0.712990 0.528740
0.670381 0.728970 0.544591
0.747305 0.745055 0.560547
0.824645 0.761227 0.576589
0.902340 0.777473 0.592704
0.370167 0.770391 0.525003
0.424088 0.781666 0.536187
0.497640 0.797045 0.551443
0.572569 0.812713 0.566985
0.648360 0.828561 0.582705
0.724783 0.844541 0.598557
0.801708 0.860626 0.614512
0.879048 0.876798 0.630554
0.956743 0.893044 0.646669
0.424820 0.886493 0.579216
0.478741 0.897768 0.590401
0.552293 0.913148 0.605657
0.627222 0.928816 0.621198
0.703013 0.944663 0.636919
0.779436 0.960643 0.652770
0.856361 0.976728 0.668726
0.933701 0.992900 0.684767
1.000000 1.000000 0.700883
0.015325 0.015166 0.239213
0.069344 0.026448 0.250223
0.143030 0.041838 0.265242
0.218096 0.057516 0.280542
0.294025 0.073375 0.296018
0.370587 0.089366 0.311623
0.447652 0.105461 0.327331
0.525132 0.121644 0.343123
0.602970 0.137901 0.358989
0.053585 0.095767 0.276253
0.107605 0.107050 0.287263
0.181290 0.122440 0.302282
0.256356 0.138118 0.317582
0.332285 0.153977 0.333058
0.408847 0.169967 0.348664
0.485912 0.186063 0.364371
0.563393 0.202245 0.380164
0.641230 0.218502 0.396029
0.105773 0.205712 0.326777
0.159793 0.216994 0.337787
0.233478 0.232384 0.352806
0.308544 0.248062 0.368106
0.384473 0.263921 0.383583
0.461036 0.279912 0.399188
0.538100 0.296007 0.414895
0.615581 0.312190 0.430688
0.693418 0.328447 0.446553
0.158940 0.317716 0.378248
0.212959 0.328999 0.389258
0.286645 0.344388 0.404277
0.361711 0.360067 0.419577
0.437640 0.375925 0.435054
0.514202 0.391916 0.450659
0.591266 0.408011 0.466366
0.668747 0.424194 0.482159
0.746541 0.440448 0.498101
0.212717 0.431008 0.430311
0.266737 0.442290 0.441321
0.340422 0.457680 0.456340
0.415488 0.473359 0.471640
0.491417 0.489217 0.487116
0.567894 0.505201 0.502872
0.644819 0.521286 0.518828
0.722159 0.537458 0.534870
0.799854 0.553704 0.550985
0.266943 0.545245 0.482808
0.320957 0.556527 0.493829
0.394509 0.571907 0.509084
0.469438 0.587574 0.524626
0.545229 0.603422 0.540346
0.621652 0.619402 0.556198
0.698576 0.635487 0.572153
0.775916 0.651659 0.588195
0.853612 0.667905 0.604311
0.321146 0.660202 0.536319
0.375068 0.671477 0.547504
0.448619 0.686856 0.562760
0.523548 0.702524 0.578301
0.599339 0.718372 0.594022
0.675763 0.734352 0.609873
0.752687 0.750437 0.625829
0.830027 0.766609 0.641870
0.907722 0.782855 0.657986
0.375549 0.775773 0.590285
0.429470 0.787048 0.601469
0.503022 0.802427 0.616725
0.577951 0.818095 0.632267
0.653742 0.833943 0.647987
0.730165 0.849923 0.663839
0.807090 0.866008 0.679794
0.884430 0.882180 0.695836
0.962125 0.898426 0.711951
0.430202 0.891875 0.644498
0.484123 0.903150 0.655682
0.557675 0.918530 0.670938
0.632604 0.934198 0.686480
0.708395 0.950045 0.702200
0.784818 0.966025 0.718052
0.861743 0.982110 0.734007
0.939083 0.998282 0.750049
1.000000 1.000000 0.766165
0.020799 0.020596 0.304955
0.074819 0.031879 0.315966
0.148504 0.047269 0.330985
0.223570 0.062947 0.346285
0.299499 0.078805 0.361761
0.376061 0.094796 0.377366
0.453126 0.110892 0.393074
0.530607 0.127074 0.408866
0.608444 0.143331 0.424731
0.059059 0.101198 0.341995
0.113079 0.112481 0.353006
0.186764 0.127870 0.368025
0.261830 0.143549 0.383325
0.337759 0.159407 0.398801
0.414321 0.175398 0.414406
0.491386 0.191493 0.430114
0.568867 0.207676 0.445906
0.646704 0.223933 0.461771
0.111247 0.211142 0.392520
0.165267 0.222425 0.403530
0.238953 0.237815 0.418549
0.314019 0.253493 0.433849
0.389947 0.269351 0.449325
0.466510 0.285342 0.464931
0.543574 0.301438 0.480638
0.621055 0.317620 0.496431
0.698892 0.333877 0.512296
0.164414 0.323147 0.443991
0.218434 0.334429 0.455001
0.292119 0.349819 0.470020
0.367185 0.365497 0.485320
0.443114 0.381356 0.500796
0.519676 0.397346 0.516402
0.596741 0.413442 0.532109
0.674222 0.429625 0.547902
0.751968 0.445875 0.563927
0.218191 0.436439 0.496053
0.272211 0.447721 0.507064
0.345896 0.463111 0.522083
0.420962 0.478789 0.537383
0.496891 0.494648 0.552859
0.573321 0.510628 0.568699
0.650246 0.526713 0.584654
0.727586 0.542885 0.600696
0.805281 0.559131 0.616811
0.272418 0.550676 0.548550
0.326384 0.561954 0.559655
0.399935 0.577334 0.574911
0.474865 0.593001 0.590452
0.550656 0.608849 0.606173
0.627079 0.624829 0.622024
0.704003 0.640914 0.637980
0.781343 0.657086 0.654022
0.859039 0.673332 0.670137
0.326573 0.665629 0.602146
0.380494 0.676904 0.613330
0.454046 0.692283 0.628586
0.528975 0.707951 0.644128
0.604766 0.723799 0.659848
0.681189 0.739779 0.675700
0.758114 0.755864 0.691655
0.835454 0.772035 0.707697
0.913149 0.788282 0.723812
0.380976 0.781200 0.656111
0.434897 0.792475 0.667295
0.508449 0.807854 0.682551
0.583378 0.823522 0.698093
0.659169 0.839370 0.713813
0.735592 0.855350 0.729665
0.812517 0.871435 0.745620
0.889857 0.887607 0.761662
0.967552 0.903853 0.777778
0.435629 0.897302 0.710325
0.489550 0.908577 0.721509
0.563102 0.923957 0.736765
0.638031 0.939624 0.752306
0.713822 0.955472 0.768027
0.790245 0.971452 0.783878
0.867169 0.987537 0.799834
0.944509 1.000000 0.815876
1.000000 1.000000 0.831991
0.026309 0.026063 0.371129
0.080329 0.037345 0.382140
0.154014 0.052735 0.397158
0.229080 0.068413 0.412459
0.305009 0.084272 0.427935
0.381571 0.100262 0.443540
0.458636 0.116358 0.459248
0.536117 0.132540 0.475040
0.613954 0.148797 0.490905
0.064569 0.106664 0.408169
0.118589 0.117947 0.419180
0.192274 0.133337 0.434199
0.267340 0.149015 0.449499
0.343269 0.164873 0.464975
0.419831 0.180864 0.480580
0.496896 0.196960 0.496288
0.574377 0.213142 0.512080
0.652214 0.229399 0.527945
0.116758 0.216608 0.458693
0.170777 0.227891 0.469704
0.244463 0.243281 0.484723
0.319529 0.258959 0.500023
0.395458 0.274817 0.515499
0.472020 0.290808 0.531104
0.549084 0.306904 0.546812
0.626565 0.323086 0.562604
0.704402 0.339343 0.578470
0.169924 0.328613 0.510164
0.223944 0.339895 0.521175
0.297629 0.355285 0.536194
0.372695 0.370963 0.551494
0.448624 0.386822 0.566970
0.525186 0.402813 0.582575
0.602251 0.418908 0.598283
0.679732 0.435091 0.614075
0.757430 0.451337 0.630185
0.223701 0.441905 0.562227
0.277721 0.453187 0.573238
0.351407 0.468577 0.588257
0.426473 0.484255 0.603557
0.502361 0.500111 0.619105
0.578784 0.516091 0.634957
0.655708 0.532175 0.650912
0.733048 0.548347 0.666954
0.810744 0.564593 0.683069
0.277925 0.556141 0.614729
0.331847 0.567416 0.625913
0.405398 0.582796 0.641169
0.480327 0.598464 0.656711
0.556118 0.614312 0.672431
0.632542 0.630292 0.688282
0.709466 0.646376 0.704238
0.786806 0.662548 0.720280
0.864501 0.678794 0.736395
0.332035 0.671091 0.668404
0.385957 0.682366 0.679588
0.459508 0.697746 0.694844
0.534438 0.713414 0.710386
0.610229 0.729261 0.726106
0.686652 0.745241 0.741958
0.763576 0.761326 0.757913
0.840916 0.777498 0.773955
0.918612 0.793744 0.790070
0.386438 0.786662 0.722369
0.440360 0.797937 0.733553
0.513911 0.813317 0.748809
0.588841 0.828985 0.764351
0.664632 0.844832 0.780071
0.741055 0.860812 0.795923
0.817979 0.876897 0.811878
0.895319 0.893069 0.827920
0.973015 0.909315 0.844036
0.441091 0.902765 0.776583
0.495013 0.914040 0.787767
0.568564 0.929419 0.803023
0.643494 0.945087 0.818564
0.719284 0.960935 0.834285
0.795708 0.976915 0.850136
0.872632 0.993000 0.866092
0.949972 1.000000 0.882134
1.000000 1.000000 0.898249
0.031849 0.031558 0.437661
0.085869 0.042841 0.448671
0.159554 0.058231 0.463690
0.234620 0.073909 0.478990
0.310549 0.089767 0.494466
0.387111 0.105758 0.510072
0.464176 0.121854 0.525779
0.541657 0.138036 0.541572
0.619494 0.154293 0.557437
0.070109 0.112160 0.474701
0.124129 0.123442 0.485711
0.197814 0.138832 0.500730
0.272880 0.154510 0.516030
0.348809 0.170369 0.531506
0.425371 0.186360 0.547112
0.502436 0.202455 0.562819
0.579917 0.218638 0.578612
0.657754 0.234895 0.594477
0.122297 0.222104 0.525225
0.176317 0.233387 0.536235
0.250002 0.248776 0.551254
0.325068 0.264455 0.566555
0.400997 0.280313 0.582031
0.477560 0.296304 0.597636
0.554624 0.312399 0.613343
0.632105 0.328582 0.629136
0.709942 0.344839 0.645001
0.175464 0.334108 0.576696
0.229483 0.345391 0.587706
0.303169 0.360781 0.602725
0.378235 0.376459 0.618026
0.454164 0.392317 0.633502
0.530726 0.408308 0.649107
0.607791 0.424404 0.664814
0.685227 0.440583 0.680686
0.762922 0.456829 0.696801
0.229241 0.447400 0.628759
0.283261 0.458683 0.639769
0.356946 0.474073 0.654788
0.432012 0.489751 0.670088
0.507853 0.505603 0.685721
0.584276 0.521583 0.701573
0.661200 0.537667 0.717528
0.738540 0.553839 0.733570
0.816236 0.570085 0.749686
0.283417 0.561634 0.681345
0.337339 0.572908 0.692529
0.410890 0.588288 0.707785
0.485819 0.603956 0.723327
0.561610 0.619804 0.739047
0.638034 0.635784 0.754899
0.714958 0.651868 0.770854
0.792298 0.668040 0.786896
0.869993 0.684286 0.803011
0.337527 0.676583 0.735020
0.391449 0.687858 0.746204
0.465000 0.703238 0.761460
0.539930 0.718906 0.777002
0.615721 0.734753 0.792722
0.692144 0.750733 0.808574
0.769068 0.766818 0.824529
0.846408 0.782990 0.840571
0.924104 0.799236 0.856686
0.391930 0.792154 0.788985
0.445852 0.803429 0.800170
0.519403 0.818809 0.815425
0.594333 0.834477 0.830967
0.670124 0.850324 0.846688
0.746547 0.866304 0.862539
0.823471 0.882389 0.878495
0.900811 0.898561 0.894536
0.978507 0.914807 0.910652
0.446583 0.908257 0.843199
0.500505 0.919532 0.854383
0.574056 0.934911 0.869639
0.648986 0.950579 0.885181
0.724776 0.966427 0.900901
0.801200 0.982407 0.916752
0.878124 0.998492 0.932708
0.955464 1.000000 0.948750
1.000000 1.000000 0.964865
0.037414 0.037079 0.504498
0.091434 0.048362 0.515508
0.165119 0.063752 0.530527
0.240185 0.079430 0.545827
0.316114 0.095288 0.561304
0.392677 0.111279 0.576909
0.469741 0.127375 0.592616
0.547222 0.143557 0.608409
0.625059 0.159814 0.624274
0.075674 0.117681 0.541538
0.129694 0.128963 0.552548
0.203379 0.144353 0.567567
0.278445 0.160031 0.582868
0.354374 0.175890 0.598344
0.430937 0.191881 0.613949
0.508001 0.207976 0.629656
0.585482 0.224159 0.645449
0.663319 0.240416 0.661314
0.127863 0.227625 0.592062
0.181882 0.238908 0.603073
0.255568 0.254297 0.618092
0.330634 0.269976 0.633392
0.406563 0.285834 0.648868
0.483125 0.301825 0.664473
0.560190 0.317920 0.680181
0.637670 0.334103 0.695973
0.715508 0.350360 0.711838
0.181029 0.339629 0.643533
0.235049 0.350912 0.654544
0.308734 0.366302 0.669563
0.383800 0.381980 0.684863
0.459729 0.397838 0.700339
0.536291 0.413829 0.715944
0.613356 0.429925 0.731652
0.690744 0.446100 0.747608
0.768440 0.462346 0.763724
0.234807 0.452921 0.695596
0.288826 0.464204 0.706606
0.362512 0.479594 0.721625
0.437578 0.495272 0.736926
0.513370 0.511120 0.752644
0.589793 0.527100 0.768495
0.666717 0.543185 0.784451
0.744057 0.559356 0.800493
0.821753 0.575602 0.816608
0.288934 0.567151 0.748267
0.342856 0.578426 0.759451
0.416407 0.593805 0.774707
0.491337 0.609473 0.790249
0.567128 0.625321 0.805969
0.643551 0.641301 0.821821
0.720475 0.657386 0.837776
0.797815 0.673557 0.853818
0.875511 0.689803 0.869934
0.343045 0.682101 0.801942
0.396966 0.693376 0.813127
0.470518 0.708755 0.828383
0.545447 0.724423 0.843924
0.621238 0.740271 0.859645
0.697661 0.756251 0.875496
0.774585 0.772335 0.891452
0.851925 0.788507 0.907493
0.929621 0.804753 0.923609
0.397447 0.797672 0.855908
0.451369 0.808947 0.867092
0.524920 0.824326 0.882348
0.599850 0.839994 0.897890
0.675641 0.855842 0.913610
0.752064 0.871822 0.929461
0.828988 0.887907 0.945417
0.906328 0.904078 0.961459
0.984024 0.920324 0.977574
0.452100 0.913774 0.910121
0.506022 0.925049 0.921305
0.579573 0.940428 0.936561
0.654503 0.956096 0.952103
0.730294 0.971944 0.967823
0.806717 0.987924 0.983675
0.883641 1.000000 0.999630
0.960981 1.000000 1.000000
1.000000 1.000000 1.000000
