assets/luts/generated_genre/bs_period_silver_painterly_67c37d7c7e6e8854.cube
# V4 spec-generated LUT — bs_period_silver_painterly
# Genre: period
# Look: Bleach-bypass period — austere, mythic, silver. Blaschke/The Lighthouse, The Northman.
# Spec hash: 67c37d7c7e6e8854
TITLE "V4 Spec LUT — bs_period_silver_painterly"
LUT_3D_SIZE 5
DOMAIN_MIN 0.0 0.0 0.0
DOMAIN_MAX 1.0 1.0 1.0
0.000000 0.000000 0.000000
0.123103 0.022070 0.025927
0.274098 0.053607 0.056703
0.427725 0.085693 0.088016
0.583043 0.118133 0.119674
0.085846 0.185944 0.087462
0.213551 0.212616 0.113491
0.364546 0.244153 0.144268
0.518173 0.276239 0.175581
0.673491 0.308679 0.207238
0.192790 0.411240 0.190996
0.320495 0.437912 0.217025
0.471490 0.469449 0.247802
0.625064 0.501531 0.279209
0.780099 0.533949 0.311366
0.301391 0.640447 0.296700
0.428864 0.667102 0.323140
0.579585 0.698617 0.354402
0.732932 0.730682 0.386209
0.887968 0.763100 0.418367
0.410447 0.872121 0.404879
0.537920 0.898775 0.431319
0.688640 0.930291 0.462581
0.841988 0.962355 0.494388
0.997023 0.994773 0.526545
0.004529 0.004456 0.109556
0.132234 0.031128 0.135585
0.283229 0.062665 0.166362
0.436855 0.094751 0.197674
0.592173 0.127191 0.229332
0.094977 0.195002 0.197120
0.222682 0.221674 0.223150
0.373677 0.253211 0.253926
0.527304 0.285297 0.285239
0.682622 0.317737 0.316896
0.201921 0.420298 0.300654
0.329626 0.446970 0.326683
0.480621 0.478507 0.357460
0.634116 0.510583 0.389006
0.789151 0.543001 0.421163
0.310443 0.649499 0.406498
0.437916 0.676154 0.432938
0.588637 0.707669 0.464200
0.741984 0.739734 0.496007
0.897020 0.772152 0.528164
0.419499 0.881173 0.514677
0.546972 0.907827 0.541117
0.697692 0.939343 0.572379
0.851040 0.971407 0.604186
1.000000 1.000000 0.636343
0.015325 0.015166 0.239213
0.143030 0.041838 0.265242
0.294025 0.073375 0.296018
0.447652 0.105461 0.327331
0.602970 0.137901 0.358989
0.105773 0.205712 0.326777
0.233478 0.232384 0.352806
0.384473 0.263921 0.383583
0.538100 0.296007 0.414895
0.693418 0.328447 0.446553
0.212717 0.431008 0.430311
0.340422 0.457680 0.456340
0.491417 0.489217 0.487116
0.644819 0.521286 0.518828
0.799854 0.553704 0.550985
0.321146 0.660202 0.536319
0.448619 0.686856 0.562760
0.599339 0.718372 0.594022
0.752687 0.750437 0.625829
0.907722 0.782855 0.657986
0.430202 0.891875 0.644498
0.557675 0.918530 0.670938
0.708395 0.950045 0.702200
0.861743 0.982110 0.734007
1.000000 1.000000 0.766165
0.026309 0.026063 0.371129
0.154014 0.052735 0.397158
0.305009 0.084272 0.427935
0.458636 0.116358 0.459248
0.613954 0.148797 0.490905
0.116758 0.216608 0.458693
0.244463 0.243281 0.484723
0.395458 0.274817 0.515499
0.549084 0.306904 0.546812
0.704402 0.339343 0.578470
0.223701 0.441905 0.562227
0.351407 0.468577 0.588257
0.502361 0.500111 0.619105
0.655708 0.532175 0.650912
0.810744 0.564593 0.683069
0.332035 0.671091 0.668404
0.459508 0.697746 0.694844
0.610229 0.729261 0.726106
0.763576 0.761326 0.757913
0.918612 0.793744 0.790070
0.441091 0.902765 0.776583
0.568564 0.929419 0.803023
0.719284 0.960935 0.834285
0.872632 0.993000 0.866092
1.000000 1.000000 0.898249
0.037414 0.037079 0.504498
0.165119 0.063752 0.530527
0.316114 0.095288 0.561304
0.469741 0.127375 0.592616
0.625059 0.159814 0.624274
0.127863 0.227625 0.592062
0.255568 0.254297 0.618092
0.406563 0.285834 0.648868
0.560190 0.317920 0.680181
0.715508 0.350360 0.711838
0.234807 0.452921 0.695596
0.362512 0.479594 0.721625
0.513370 0.511120 0.752644
0.666717 0.543185 0.784451
0.821753 0.575602 0.816608
0.343045 0.682101 0.801942
0.470518 0.708755 0.828383
0.621238 0.740271 0.859645
0.774585 0.772335 0.891452
0.929621 0.804753 0.923609
0.452100 0.913774 0.910121
0.579573 0.940428 0.936561
0.730294 0.971944 0.967823
0.883641 1.000000 0.999630
1.000000 1.000000 1.000000
