assets/luts/generated_genre/bs_romance_sayombhu_bloom_b20918f5650d7608.cube
# V4 spec-generated LUT — bs_romance_sayombhu_bloom
# Genre: romance
# Look: Dreamy halated romance — sensual, suspended-time. Mukdeeprom/Call Me By Your Name, Suspiria.
# Spec hash: b20918f5650d7608
TITLE "V4 Spec LUT — bs_romance_sayombhu_bloom"
LUT_3D_SIZE 9
DOMAIN_MIN 0.0 0.0 0.0
DOMAIN_MAX 1.0 1.0 1.0
0.059390 0.049412 0.062805
0.168588 0.052736 0.066129
0.274559 0.055961 0.069355
0.378809 0.059135 0.072528
0.481876 0.062272 0.075666
0.584043 0.065382 0.078776
0.685482 0.068470 0.081864
0.786314 0.071540 0.084933
0.886623 0.074593 0.087987
0.072266 0.167718 0.074150
0.181463 0.171042 0.077474
0.287435 0.174268 0.080700
0.391685 0.177441 0.083874
0.494752 0.180579 0.087011
0.596918 0.183689 0.090121
0.698358 0.186777 0.093209
0.799189 0.189846 0.096278
0.899498 0.192900 0.099332
0.084729 0.282237 0.085132
0.193926 0.285561 0.088456
0.299898 0.288787 0.091682
0.404148 0.291960 0.094856
0.507215 0.295098 0.097993
0.609381 0.298208 0.101103
0.710821 0.301296 0.104191
0.811652 0.304365 0.107260
0.911961 0.307419 0.110314
0.096981 0.394821 0.095929
0.206178 0.398145 0.099253
0.312150 0.401371 0.102479
0.416400 0.404544 0.105652
0.519467 0.407682 0.108790
0.621633 0.410792 0.111900
0.723073 0.413880 0.114988
0.823905 0.416949 0.118057
0.924213 0.420003 0.121110
0.109091 0.506093 0.106600
0.218288 0.509417 0.109924
0.324260 0.512643 0.113149
0.428510 0.515817 0.116323
0.531577 0.518954 0.119460
0.633670 0.522062 0.122604
0.734683 0.525140 0.125890
0.835091 0.528200 0.129157
0.934978 0.531243 0.132406
0.121093 0.616373 0.117175
0.230290 0.619697 0.120499
0.336029 0.622917 0.123833
0.439841 0.626081 0.127210
0.542474 0.629208 0.130549
0.644211 0.632308 0.133859
0.745225 0.635386 0.137145
0.845632 0.638445 0.140411
0.945519 0.641489 0.143661
0.132230 0.725837 0.128036
0.240968 0.729151 0.131573
0.346494 0.732366 0.135006
0.450306 0.735529 0.138383
0.552939 0.738656 0.141722
0.654676 0.741756 0.145032
0.755690 0.744834 0.148318
0.856097 0.747894 0.151584
0.955984 0.750937 0.154834
0.142631 0.834620 0.139141
0.251369 0.837934 0.142678
0.356895 0.841149 0.146111
0.460707 0.844312 0.149488
0.563341 0.847439 0.152827
0.665078 0.850539 0.156137
0.766091 0.853617 0.159423
0.866499 0.856677 0.162689
0.966386 0.859720 0.165939
0.152978 0.942833 0.150188
0.261716 0.946146 0.153725
0.367242 0.949361 0.157158
0.471054 0.952524 0.160535
0.573688 0.955652 0.163874
0.675424 0.958752 0.167183
0.776438 0.961829 0.170470
0.876845 0.964889 0.173736
0.976732 0.967932 0.176985
0.060681 0.050549 0.170127
0.169878 0.053873 0.173451
0.275850 0.057098 0.176677
0.380100 0.060272 0.179850
0.483167 0.063409 0.182988
0.585333 0.066519 0.186098
0.686773 0.069607 0.189186
0.787604 0.072677 0.192255
0.887913 0.075730 0.195309
0.073556 0.168855 0.181472
0.182753 0.172179 0.184796
0.288725 0.175405 0.188022
0.392975 0.178578 0.191196
0.496042 0.181716 0.194333
0.598208 0.184826 0.197443
0.699648 0.187914 0.200531
0.800480 0.190983 0.203601
0.900788 0.194037 0.206654
0.086019 0.283374 0.192454
0.195216 0.286698 0.195779
0.301188 0.289924 0.199004
0.405438 0.293097 0.202178
0.508505 0.296235 0.205315
0.610671 0.299345 0.208425
0.712111 0.302433 0.211513
0.812943 0.305502 0.214583
0.913251 0.308556 0.217636
0.098272 0.395958 0.203251
0.207469 0.399282 0.206575
0.313441 0.402508 0.209801
0.417690 0.405681 0.212974
0.520757 0.408819 0.216112
0.622924 0.411929 0.219222
0.724364 0.415017 0.222310
0.825195 0.418086 0.225379
0.925475 0.421139 0.228446
0.110381 0.507230 0.213922
0.219579 0.510554 0.217246
0.325550 0.513780 0.220472
0.429800 0.516954 0.223645
0.532867 0.520091 0.226783
0.634803 0.523196 0.230000
0.735817 0.526274 0.233286
0.836224 0.529333 0.236552
0.936111 0.532377 0.239801
0.122383 0.617510 0.224497
0.231580 0.620834 0.227821
0.337162 0.624051 0.231228
0.440974 0.627214 0.234605
0.543608 0.630341 0.237944
0.645345 0.633441 0.241254
0.746358 0.636519 0.244540
0.846766 0.639578 0.247806
0.946653 0.642622 0.251056
0.133363 0.726971 0.235431
0.242101 0.730284 0.238968
0.347627 0.733499 0.242401
0.451439 0.736662 0.245778
0.554073 0.739790 0.249117
0.655810 0.742890 0.252427
0.756823 0.745968 0.255713
0.857231 0.749027 0.258979
0.957118 0.752071 0.262229
0.143764 0.835754 0.246536
0.252503 0.839067 0.250073
0.358029 0.842282 0.253506
0.461840 0.845445 0.256883
0.564474 0.848573 0.260222
0.666211 0.851673 0.263532
0.767224 0.854751 0.266818
0.867632 0.857810 0.270084
0.967519 0.860854 0.273334
0.154111 0.943966 0.257583
0.262849 0.947279 0.261120
0.368376 0.950494 0.264553
0.472187 0.953658 0.267930
0.574821 0.956785 0.271269
0.676558 0.959885 0.274579
0.777571 0.962963 0.277865
0.877979 0.966022 0.281131
0.977866 0.969066 0.284381
0.061931 0.051651 0.274152
0.171129 0.054975 0.277476
0.277100 0.058201 0.280702
0.381350 0.061374 0.283875
0.484417 0.064511 0.287013
0.586584 0.067621 0.290123
0.688023 0.070709 0.293211
0.788855 0.073779 0.296280
0.889164 0.076832 0.299334
0.074807 0.169957 0.285497
0.184004 0.173281 0.288821
0.289976 0.176507 0.292047
0.394226 0.179680 0.295221
0.497293 0.182818 0.298358
0.599459 0.185928 0.301468
0.700899 0.189016 0.304556
0.801730 0.192085 0.307625
0.902039 0.195139 0.310679
0.087270 0.284476 0.296479
0.196467 0.287800 0.299803
0.302439 0.291026 0.303029
0.406689 0.294199 0.306203
0.509756 0.297337 0.309340
0.611922 0.300447 0.312450
0.713362 0.303535 0.315538
0.814193 0.306604 0.318607
0.914502 0.309658 0.321661
0.099522 0.397060 0.307276
0.208719 0.400384 0.310600
0.314691 0.403610 0.313826
0.418941 0.406784 0.316999
0.522008 0.409921 0.320137
0.624174 0.413031 0.323247
0.725614 0.416119 0.326335
0.826446 0.419188 0.329404
0.926574 0.422238 0.332541
0.111632 0.508332 0.317947
0.220829 0.511656 0.321271
0.326801 0.514882 0.324496
0.431051 0.518056 0.327670
0.534118 0.521193 0.330807
0.635902 0.524294 0.334095
0.736915 0.527372 0.337381
0.837323 0.530431 0.340648
0.937210 0.533475 0.343897
0.123634 0.618612 0.328522
0.232735 0.621934 0.331891
0.338261 0.625149 0.335324
0.442073 0.628312 0.338701
0.544706 0.631440 0.342040
0.646443 0.634540 0.345349
0.747456 0.637618 0.348636
0.847864 0.640677 0.351902
0.947751 0.643721 0.355151
0.134462 0.728069 0.339526
0.243200 0.731382 0.343064
0.348726 0.734598 0.346497
0.452538 0.737761 0.349874
0.555171 0.740888 0.353213
0.656908 0.743988 0.356522
0.757921 0.747066 0.359808
0.858329 0.750125 0.363075
0.958216 0.753169 0.366324
0.144863 0.836852 0.350631
0.253601 0.840165 0.354169
0.359127 0.843381 0.357602
0.462939 0.846544 0.360979
0.565573 0.849671 0.364318
0.667309 0.852771 0.367627
0.768323 0.855849 0.370913
0.868730 0.858908 0.374180
0.968617 0.861952 0.377429
0.155210 0.945064 0.361678
0.263948 0.948378 0.365216
0.369474 0.951593 0.368649
0.473286 0.954756 0.372026
0.575919 0.957883 0.375364
0.677656 0.960983 0.378674
0.778670 0.964061 0.381960
0.879077 0.967121 0.385227
0.978964 0.970164 0.388476
0.063161 0.052734 0.376453
0.172359 0.056058 0.379777
0.278330 0.059284 0.383003
0.382580 0.062458 0.386177
0.485647 0.065595 0.389314
0.587814 0.068705 0.392424
0.689253 0.071793 0.395512
0.790085 0.074863 0.398582
0.890394 0.077916 0.401635
0.076037 0.171041 0.387799
0.185234 0.174365 0.391123
0.291206 0.177591 0.394349
0.395456 0.180764 0.397522
0.498523 0.183902 0.400659
0.600689 0.187012 0.403769
0.702129 0.190100 0.406857
0.802960 0.193169 0.409927
0.903269 0.196223 0.412980
0.088500 0.285560 0.398781
0.197697 0.288884 0.402105
0.303669 0.292110 0.405331
0.407919 0.295283 0.408504
0.510986 0.298421 0.411642
0.613152 0.301531 0.414752
0.714592 0.304619 0.417839
0.815423 0.307688 0.420909
0.915732 0.310742 0.423962
0.100752 0.398144 0.409577
0.209949 0.401468 0.412901
0.315921 0.404694 0.416127
0.420171 0.407867 0.419301
0.523238 0.411005 0.422438
0.625404 0.414115 0.425548
0.726844 0.417203 0.428636
0.827676 0.420272 0.431705
0.927654 0.423318 0.434912
0.112862 0.509416 0.420248
0.222059 0.512740 0.423572
0.328031 0.515966 0.426798
0.432281 0.519139 0.429971
0.535245 0.522275 0.433156
0.636982 0.525374 0.436466
0.737995 0.528452 0.439752
0.838403 0.531512 0.443019
0.938290 0.534555 0.446268
0.124864 0.619696 0.430824
0.233815 0.623014 0.434262
0.339341 0.626230 0.437695
0.443153 0.629393 0.441072
0.545786 0.632520 0.444411
0.647523 0.635620 0.447720
0.748537 0.638698 0.451006
0.848944 0.641757 0.454273
0.948831 0.644801 0.457522
0.135542 0.729149 0.441897
0.244280 0.732463 0.445435
0.349806 0.735678 0.448868
0.453618 0.738841 0.452245
0.556252 0.741968 0.455584
0.657988 0.745068 0.458893
0.759002 0.748146 0.462179
0.859409 0.751206 0.465446
0.959296 0.754249 0.468695
0.145943 0.837932 0.453002
0.254681 0.841246 0.456540
0.360208 0.844461 0.459973
0.464019 0.847624 0.463350
0.566653 0.850752 0.466689
0.668390 0.853851 0.469998
0.769403 0.856929 0.473284
0.869811 0.859989 0.476551
0.969698 0.863032 0.479800
0.156290 0.946145 0.464049
0.265028 0.949458 0.467587
0.370554 0.952673 0.471020
0.474366 0.955836 0.474397
0.577000 0.958964 0.477735
0.678737 0.962064 0.481045
0.779750 0.965142 0.484331
0.880158 0.968201 0.487598
0.980045 0.971245 0.490847
0.064377 0.053806 0.477578
0.173574 0.057130 0.480902
0.279546 0.060356 0.484128
0.383796 0.063529 0.487302
0.486863 0.066667 0.490439
0.589029 0.069777 0.493549
0.690469 0.072865 0.496637
0.791301 0.075934 0.499707
0.891609 0.078987 0.502760
0.077253 0.172112 0.488924
0.186450 0.175436 0.492248
0.292421 0.178662 0.495474
0.396671 0.181836 0.498647
0.499738 0.184973 0.501785
0.601905 0.188083 0.504895
0.703344 0.191171 0.507982
0.804176 0.194240 0.511052
0.904485 0.197294 0.514105
0.089716 0.286631 0.499906
0.198913 0.289955 0.503230
0.304885 0.293181 0.506456
0.409134 0.296355 0.509629
0.512201 0.299492 0.512767
0.614368 0.302602 0.515877
0.715808 0.305690 0.518965
0.816639 0.308759 0.522034
0.916948 0.311813 0.525087
0.101968 0.399215 0.510702
0.211165 0.402539 0.514026
0.317137 0.405765 0.517252
0.421387 0.408939 0.520426
0.524454 0.412076 0.523563
0.626620 0.415186 0.526673
0.728060 0.418274 0.529761
0.828835 0.421342 0.532857
0.928722 0.424386 0.536106
0.114078 0.510487 0.521373
0.223275 0.513811 0.524697
0.329247 0.517037 0.527923
0.433497 0.520211 0.531096
0.536313 0.523342 0.534350
0.638050 0.526442 0.537660
0.739063 0.529520 0.540946
0.839471 0.532580 0.544212
0.939358 0.535623 0.547462
0.126080 0.620767 0.531949
0.234883 0.624082 0.535456
0.340409 0.627297 0.538889
0.444221 0.630461 0.542266
0.546854 0.633588 0.545605
0.648591 0.636688 0.548914
0.749605 0.639766 0.552200
0.850012 0.642825 0.555467
0.949899 0.645869 0.558716
0.136610 0.730217 0.543091
0.245348 0.733531 0.546629
0.350874 0.736746 0.550062
0.454686 0.739909 0.553439
0.557319 0.743036 0.556778
0.659056 0.746136 0.560087
0.760070 0.749214 0.563373
0.860477 0.752274 0.566640
0.960364 0.755317 0.569889
0.147011 0.839000 0.554196
0.255749 0.842314 0.557734
0.361275 0.845529 0.561167
0.465087 0.848692 0.564544
0.567721 0.851819 0.567883
0.669458 0.854919 0.571192
0.770471 0.857997 0.574478
0.870879 0.861057 0.577745
0.970766 0.864100 0.580994
0.157358 0.947212 0.565243
0.266096 0.950526 0.568780
0.371622 0.953741 0.572213
0.475434 0.956904 0.575590
0.578068 0.960032 0.578929
0.679804 0.963132 0.582239
0.780818 0.966209 0.585525
0.881225 0.969269 0.588791
0.981112 0.972312 0.592041
0.065582 0.054868 0.577811
0.174780 0.058192 0.581135
0.280751 0.061418 0.584361
0.385001 0.064591 0.587534
0.488068 0.067728 0.590672
0.590235 0.070839 0.593782
0.691674 0.073926 0.596870
0.792506 0.076996 0.599939
0.892814 0.080049 0.602992
0.078458 0.173174 0.589156
0.187655 0.176498 0.592480
0.293627 0.179724 0.595706
0.397876 0.182898 0.598879
0.500943 0.186035 0.602017
0.603110 0.189145 0.605127
0.704550 0.192233 0.608215
0.805381 0.195302 0.611284
0.905690 0.198356 0.614338
0.090921 0.287693 0.600138
0.200118 0.291017 0.603462
0.306090 0.294243 0.606688
0.410340 0.297417 0.609862
0.513407 0.300554 0.612999
0.615573 0.303664 0.616109
0.717013 0.306752 0.619197
0.817844 0.309821 0.622266
0.918153 0.312875 0.625320
0.103173 0.400277 0.610935
0.212370 0.403601 0.614259
0.318342 0.406827 0.617485
0.422592 0.410001 0.620658
0.525659 0.413138 0.623795
0.627825 0.416248 0.626906
0.729265 0.419336 0.629993
0.829893 0.422401 0.633157
0.929780 0.425444 0.636407
0.115283 0.511549 0.621605
0.224480 0.514873 0.624929
0.330452 0.518099 0.628155
0.434702 0.521273 0.631329
0.537372 0.524401 0.634651
0.639108 0.527501 0.637960
0.740122 0.530579 0.641247
0.840529 0.533638 0.644513
0.940416 0.536682 0.647762
0.127203 0.621827 0.632219
0.235941 0.625140 0.635756
0.341467 0.628356 0.639189
0.445279 0.631519 0.642566
0.547913 0.634646 0.645905
0.649650 0.637746 0.649215
0.750663 0.640824 0.652501
0.851071 0.643884 0.655767
0.950958 0.646927 0.659017
0.137668 0.731276 0.643392
0.246406 0.734589 0.646929
0.351933 0.737804 0.650362
0.455744 0.740968 0.653739
0.558378 0.744095 0.657078
0.660115 0.747195 0.660388
0.761128 0.750273 0.663674
0.861536 0.753332 0.666940
0.961423 0.756376 0.670190
0.148070 0.840059 0.654497
0.256808 0.843372 0.658034
0.362334 0.846587 0.661467
0.466146 0.849751 0.664844
0.568779 0.852878 0.668183
0.670516 0.855978 0.671493
0.771529 0.859056 0.674779
0.871937 0.862115 0.678045
0.971824 0.865159 0.681295
0.158416 0.948271 0.665544
0.267154 0.951584 0.669081
0.372681 0.954800 0.672514
0.476492 0.957963 0.675891
0.579126 0.961090 0.679230
0.680863 0.964190 0.682539
0.781876 0.967268 0.685826
0.882284 0.970327 0.689092
0.982171 0.973371 0.692341
0.066779 0.055922 0.677324
0.175976 0.059246 0.680649
0.281948 0.062472 0.683874
0.386198 0.065645 0.687048
0.489265 0.068783 0.690185
0.591431 0.071893 0.693295
0.692871 0.074981 0.696383
0.793702 0.078050 0.699453
0.894011 0.081104 0.702506
0.079654 0.174228 0.688670
0.188851 0.177552 0.691994
0.294823 0.180778 0.695220
0.399073 0.183952 0.698393
0.502140 0.187089 0.701531
0.604306 0.190199 0.704641
0.705746 0.193287 0.707729
0.806578 0.196357 0.710798
0.906886 0.199410 0.713851
0.092117 0.288747 0.699652
0.201314 0.292071 0.702976
0.307286 0.295297 0.706202
0.411536 0.298471 0.709375
0.514603 0.301608 0.712513
0.616769 0.304718 0.715623
0.718209 0.307806 0.718711
0.819041 0.310876 0.721780
0.919349 0.313929 0.724833
0.104370 0.401332 0.710448
0.213567 0.404656 0.713772
0.319539 0.407881 0.716998
0.423788 0.411055 0.720172
0.526855 0.414192 0.723309
0.629022 0.417302 0.726419
0.730462 0.420390 0.729507
0.830944 0.423451 0.732739
0.930831 0.426495 0.735988
0.116479 0.512604 0.721119
0.225677 0.515928 0.724443
0.331648 0.519154 0.727669
0.435789 0.522324 0.730893
0.538422 0.525452 0.734232
0.640159 0.528552 0.737542
0.741173 0.531630 0.740828
0.841580 0.534689 0.744094
0.941467 0.537733 0.747344
0.128254 0.622878 0.731800
0.236992 0.626191 0.735338
0.342518 0.629407 0.738771
0.446330 0.632570 0.742148
0.548964 0.635697 0.745486
0.650701 0.638797 0.748796
0.751714 0.641875 0.752082
0.852122 0.644934 0.755349
0.952008 0.647978 0.758598
0.138719 0.732327 0.742973
0.247457 0.735640 0.746511
0.352983 0.738855 0.749943
0.456795 0.742018 0.753321
0.559429 0.745146 0.756659
0.661166 0.748246 0.759969
0.762179 0.751323 0.763255
0.862587 0.754383 0.766522
0.962474 0.757426 0.769771
0.149120 0.841110 0.754078
0.257859 0.844423 0.757616
0.363385 0.847638 0.761048
0.467196 0.850801 0.764426
0.569830 0.853929 0.767764
0.671567 0.857029 0.771074
0.772580 0.860107 0.774360
0.872988 0.863166 0.777627
0.972875 0.866210 0.780876
0.159467 0.949322 0.765125
0.268205 0.952635 0.768662
0.373732 0.955850 0.772095
0.477543 0.959014 0.775472
0.580177 0.962141 0.778811
0.681914 0.965241 0.782121
0.782927 0.968319 0.785407
0.883335 0.971378 0.788673
0.983222 0.974422 0.791923
0.067968 0.056970 0.776237
0.177165 0.060294 0.779561
0.283137 0.063520 0.782787
0.387387 0.066693 0.785961
0.490454 0.069831 0.789098
0.592620 0.072941 0.792208
0.694060 0.076029 0.795296
0.794892 0.079098 0.798365
0.895200 0.082151 0.801419
0.080843 0.175276 0.787583
0.190041 0.178600 0.790907
0.296012 0.181826 0.794132
0.400262 0.185000 0.797306
0.503329 0.188137 0.800443
0.605495 0.191247 0.803553
0.706935 0.194335 0.806641
0.807767 0.197405 0.809711
0.908075 0.200458 0.812764
0.093306 0.289795 0.798565
0.202504 0.293119 0.801889
0.308475 0.296345 0.805115
0.412725 0.299519 0.808288
0.515792 0.302656 0.811425
0.617959 0.305766 0.814536
0.719398 0.308854 0.817623
0.820230 0.311924 0.820693
0.920539 0.314977 0.823746
0.105559 0.402379 0.809361
0.214756 0.405703 0.812685
0.320728 0.408929 0.815911
0.424978 0.412103 0.819085
0.528045 0.415240 0.822222
0.630211 0.418350 0.825332
0.731581 0.421437 0.828452
0.831989 0.424496 0.831719
0.931876 0.427540 0.834968
0.117669 0.513652 0.820032
0.226866 0.516976 0.823356
0.332838 0.520201 0.826582
0.436833 0.523369 0.829873
0.539467 0.526496 0.833212
0.641204 0.529596 0.836522
0.742217 0.532674 0.839808
0.842625 0.535733 0.843074
0.942512 0.538777 0.846324
0.129298 0.623923 0.830780
0.238037 0.627236 0.834318
0.343563 0.630451 0.837751
0.447374 0.633614 0.841128
0.550008 0.636742 0.844467
0.651745 0.639842 0.847776
0.752758 0.642919 0.851062
0.853166 0.645979 0.854329
0.953053 0.649023 0.857578
0.139764 0.733371 0.841953
0.248502 0.736684 0.845491
0.354028 0.739900 0.848924
0.457840 0.743063 0.852301
0.560473 0.746190 0.855639
0.662210 0.749290 0.858949
0.763223 0.752368 0.862235
0.863631 0.755427 0.865502
0.963518 0.758471 0.868751
0.150165 0.842154 0.853058
0.258903 0.845467 0.856596
0.364429 0.848683 0.860029
0.468241 0.851846 0.863406
0.570875 0.854973 0.866744
0.672611 0.858073 0.870054
0.773625 0.861151 0.873340
0.874032 0.864210 0.876607
0.973919 0.867254 0.879856
0.160512 0.950366 0.864105
0.269250 0.953680 0.867642
0.374776 0.956895 0.871075
0.478588 0.960058 0.874452
0.581221 0.963185 0.877791
0.682958 0.966285 0.881101
0.783972 0.969363 0.884387
0.884379 0.972423 0.887653
0.984266 0.975466 0.890903
0.069151 0.058012 0.874634
0.178348 0.061336 0.877958
0.284320 0.064562 0.881184
0.388570 0.067736 0.884357
0.491637 0.070873 0.887495
0.593803 0.073983 0.890605
0.695243 0.077071 0.893693
0.796075 0.080140 0.896762
0.896383 0.083194 0.899816
0.082026 0.176319 0.885979
0.191224 0.179643 0.889303
0.297195 0.182869 0.892529
0.401445 0.186042 0.895703
0.504512 0.189180 0.898840
0.606678 0.192290 0.901950
0.708118 0.195378 0.905038
0.808950 0.198447 0.908108
0.909258 0.201500 0.911161
0.094489 0.290838 0.896961
0.203687 0.294162 0.900286
0.309658 0.297388 0.903511
0.413908 0.300561 0.906685
0.516975 0.303699 0.909822
0.619142 0.306809 0.912932
0.720581 0.309897 0.916020
0.821413 0.312966 0.919090
0.921722 0.316019 0.922143
0.106742 0.403422 0.907758
0.215939 0.406746 0.911082
0.321911 0.409972 0.914308
0.426161 0.413145 0.917481
0.529228 0.416283 0.920619
0.631394 0.419393 0.923729
0.732620 0.422476 0.926916
0.833028 0.425535 0.930182
0.932915 0.428579 0.933432
0.118852 0.514694 0.918429
0.228049 0.518018 0.921753
0.334021 0.521244 0.924979
0.437872 0.524408 0.928337
0.540506 0.527535 0.931676
0.642243 0.530635 0.934986
0.743256 0.533713 0.938272
0.843664 0.536773 0.941538
0.943551 0.539816 0.944788
0.130338 0.624962 0.929244
0.239076 0.628275 0.932781
0.344602 0.631490 0.936214
0.448414 0.634653 0.939591
0.551047 0.637781 0.942930
0.652784 0.640881 0.946240
0.753797 0.643959 0.949526
0.854205 0.647018 0.952792
0.954092 0.650062 0.956042
0.140803 0.734410 0.940417
0.249541 0.737723 0.943954
0.355067 0.740939 0.947387
0.458879 0.744102 0.950764
0.561512 0.747229 0.954103
0.663249 0.750329 0.957413
0.764262 0.753407 0.960699
0.864670 0.756467 0.963965
0.964557 0.759510 0.967215
0.151204 0.843193 0.951522
0.259942 0.846506 0.955059
0.365468 0.849722 0.958492
0.469280 0.852885 0.961869
0.571914 0.856012 0.965208
0.673651 0.859112 0.968518
0.774664 0.862190 0.971804
0.875072 0.865250 0.975070
0.974958 0.868293 0.978320
0.161551 0.951405 0.962569
0.270289 0.954719 0.966106
0.375815 0.957934 0.969539
0.479627 0.961097 0.972916
0.582260 0.964224 0.976255
0.683997 0.967324 0.979565
0.785011 0.970402 0.982851
0.885418 0.973462 0.986117
0.985305 0.976505 0.989367
