assets/luts/generated_genre/bs_romance_kodak_portra_warm_330756bd8fdeb067.cube
# V4 spec-generated LUT — bs_romance_kodak_portra_warm
# Genre: romance
# Look: Warm tender romance — Kodak Portra emulation, golden roll-off. Sandgren/La La Land, Laxton/Beale Str
# Spec hash: 330756bd8fdeb067
TITLE "V4 Spec LUT — bs_romance_kodak_portra_warm"
LUT_3D_SIZE 9
DOMAIN_MIN 0.0 0.0 0.0
DOMAIN_MAX 1.0 1.0 1.0
0.061285 0.041925 0.007939
0.176888 0.043457 0.009471
0.290669 0.044964 0.010979
0.403486 0.046459 0.012473
0.515639 0.047945 0.013959
0.627287 0.049424 0.015439
0.738526 0.050898 0.016912
0.849422 0.052368 0.018382
0.960022 0.053833 0.019847
0.066536 0.163431 0.013191
0.182139 0.164963 0.014722
0.295921 0.166471 0.016230
0.408737 0.167965 0.017725
0.520891 0.169451 0.019211
0.632538 0.170931 0.020690
0.743777 0.172404 0.022164
0.854673 0.173874 0.023633
0.965273 0.175339 0.025098
0.071693 0.282755 0.018348
0.187296 0.284287 0.019879
0.301078 0.285794 0.021387
0.413894 0.287289 0.022882
0.526047 0.288775 0.024368
0.637695 0.290254 0.025847
0.748934 0.291728 0.027321
0.859830 0.293197 0.028790
0.970430 0.294663 0.030255
0.076803 0.401004 0.023458
0.192407 0.402536 0.024990
0.306188 0.404044 0.026497
0.419005 0.405538 0.027992
0.531158 0.407024 0.029478
0.642806 0.408504 0.030957
0.754044 0.409977 0.032431
0.864940 0.411447 0.033900
0.975541 0.412912 0.035366
0.081883 0.518530 0.028537
0.197486 0.520062 0.030069
0.311267 0.521570 0.031577
0.424084 0.523064 0.033071
0.536237 0.524550 0.034557
0.647900 0.526030 0.036037
0.759375 0.527506 0.037513
0.870506 0.528978 0.038985
0.981341 0.530446 0.040453
0.086938 0.635510 0.033593
0.202542 0.637042 0.035125
0.316433 0.638550 0.036633
0.429489 0.640048 0.038131
0.541881 0.641536 0.039619
0.653765 0.643018 0.041101
0.765240 0.644495 0.042578
0.876371 0.645967 0.044050
0.987206 0.647435 0.045518
0.092405 0.752055 0.038634
0.208254 0.753589 0.040169
0.322277 0.755100 0.041679
0.435332 0.756597 0.043176
0.547724 0.758086 0.044665
0.659608 0.759568 0.046147
0.771083 0.761044 0.047623
0.882214 0.762516 0.049095
0.993049 0.763984 0.050563
0.098230 0.868238 0.043664
0.214079 0.869772 0.045199
0.328101 0.871282 0.046709
0.441157 0.872780 0.048206
0.553548 0.874268 0.049695
0.665433 0.875750 0.051177
0.776908 0.877227 0.052653
0.888039 0.878699 0.054125
0.998874 0.880167 0.055593
0.104039 0.984105 0.048680
0.219888 0.985640 0.050215
0.333910 0.987150 0.051725
0.446966 0.988647 0.053222
0.559357 0.990136 0.054711
0.671242 0.991618 0.056193
0.782716 0.993094 0.057669
0.893848 0.994566 0.059141
1.000000 0.996034 0.060609
0.061829 0.042470 0.127873
0.177433 0.044001 0.129404
0.291214 0.045509 0.130912
0.404030 0.047004 0.132407
0.516184 0.048490 0.133893
0.627831 0.049969 0.135372
0.739070 0.051443 0.136846
0.849966 0.052912 0.138315
0.960567 0.054377 0.139780
0.067080 0.163976 0.133124
0.182684 0.165507 0.134656
0.296465 0.167015 0.136163
0.409282 0.168510 0.137658
0.521435 0.169996 0.139144
0.633083 0.171475 0.140623
0.744321 0.172949 0.142097
0.855217 0.174418 0.143566
0.965818 0.175884 0.145032
0.072237 0.283299 0.138281
0.187841 0.284831 0.139813
0.301622 0.286338 0.141320
0.414438 0.287833 0.142815
0.526592 0.289319 0.144301
0.638240 0.290798 0.145780
0.749478 0.292272 0.147254
0.860374 0.293742 0.148723
0.970975 0.295207 0.150189
0.077348 0.401549 0.143391
0.192951 0.403081 0.144923
0.306733 0.404588 0.146431
0.419549 0.406083 0.147925
0.531702 0.407569 0.149411
0.643350 0.409048 0.150891
0.754589 0.410522 0.152364
0.865485 0.411991 0.153834
0.976085 0.413457 0.155299
0.082427 0.519075 0.148471
0.198031 0.520606 0.150002
0.311812 0.522114 0.151510
0.424628 0.523609 0.153005
0.536782 0.525095 0.154491
0.648532 0.526575 0.155971
0.760006 0.528052 0.157447
0.871137 0.529523 0.158919
0.981973 0.530991 0.160387
0.087483 0.636054 0.153526
0.203086 0.637586 0.155058
0.317065 0.639096 0.156568
0.430121 0.640593 0.158065
0.542512 0.642082 0.159554
0.654397 0.643564 0.161036
0.765871 0.645040 0.162512
0.877003 0.646512 0.163984
0.987838 0.647980 0.165452
0.093037 0.752600 0.158569
0.208886 0.754135 0.160103
0.322908 0.755645 0.161613
0.435964 0.757142 0.163111
0.548355 0.758631 0.164599
0.660240 0.760113 0.166081
0.771714 0.761589 0.167558
0.882846 0.763061 0.169030
0.993681 0.764529 0.170498
0.098861 0.868783 0.163598
0.214710 0.870317 0.165133
0.328733 0.871828 0.166643
0.441789 0.873325 0.168140
0.554180 0.874814 0.169629
0.666064 0.876296 0.171111
0.777539 0.877772 0.172587
0.888670 0.879244 0.174059
0.999506 0.880712 0.175527
0.104670 0.984651 0.168615
0.220519 0.986185 0.170149
0.334542 0.987695 0.171659
0.447598 0.989193 0.173157
0.559989 0.990681 0.174645
0.671873 0.992163 0.176127
0.783348 0.993640 0.177604
0.894479 0.995112 0.179075
1.000000 0.996580 0.180543
0.062361 0.043002 0.245115
0.177965 0.044534 0.246647
0.291746 0.046041 0.248154
0.404562 0.047536 0.249649
0.516716 0.049022 0.251135
0.628363 0.050501 0.252614
0.739602 0.051975 0.254088
0.850498 0.053444 0.255558
0.961099 0.054910 0.257023
0.067613 0.164508 0.250367
0.183216 0.166040 0.251898
0.296997 0.167547 0.253406
0.409814 0.169042 0.254901
0.521967 0.170528 0.256386
0.633615 0.172007 0.257866
0.744854 0.173481 0.259340
0.855749 0.174950 0.260809
0.966350 0.176416 0.262274
0.072769 0.283831 0.255523
0.188373 0.285363 0.257055
0.302154 0.286871 0.258563
0.414971 0.288365 0.260057
0.527124 0.289851 0.261543
0.638772 0.291331 0.263023
0.750011 0.292805 0.264497
0.860906 0.294274 0.265966
0.971507 0.295739 0.267431
0.077880 0.402081 0.260634
0.193484 0.403613 0.262166
0.307265 0.405120 0.263673
0.420081 0.406615 0.265168
0.532235 0.408101 0.266654
0.643882 0.409580 0.268133
0.755121 0.411054 0.269607
0.866017 0.412523 0.271076
0.976698 0.413990 0.272543
0.082959 0.519607 0.265713
0.198563 0.521139 0.267245
0.312344 0.522646 0.268753
0.425161 0.524141 0.270247
0.537314 0.525627 0.271733
0.649149 0.527108 0.273215
0.760624 0.528585 0.274691
0.871755 0.530057 0.276163
0.982590 0.531525 0.277631
0.088015 0.636586 0.270769
0.203660 0.638119 0.272301
0.317682 0.639629 0.273811
0.430738 0.641126 0.275309
0.543130 0.642615 0.276797
0.655014 0.644097 0.278279
0.766489 0.645573 0.279756
0.877620 0.647045 0.281228
0.988455 0.648513 0.282696
0.093654 0.753134 0.275812
0.209503 0.754668 0.277347
0.323525 0.756178 0.278857
0.436581 0.757676 0.280354
0.548973 0.759164 0.281843
0.660857 0.760646 0.283325
0.772332 0.762123 0.284801
0.883463 0.763594 0.286273
0.994298 0.765062 0.287741
0.099479 0.869316 0.280842
0.215328 0.870851 0.282376
0.329350 0.872361 0.283887
0.442406 0.873858 0.285384
0.554797 0.875347 0.286873
0.666682 0.876829 0.288355
0.778157 0.878305 0.289831
0.889288 0.879777 0.291303
1.000000 0.881245 0.292771
0.105288 0.985184 0.285858
0.221137 0.986718 0.287393
0.335159 0.988228 0.288903
0.448215 0.989726 0.290400
0.560606 0.991214 0.291889
0.672491 0.992696 0.293371
0.783965 0.994173 0.294847
0.895097 0.995645 0.296319
1.000000 0.997113 0.297787
0.062888 0.043529 0.361211
0.178492 0.045061 0.362743
0.292273 0.046568 0.364250
0.405089 0.048063 0.365745
0.517243 0.049549 0.367231
0.628890 0.051028 0.368710
0.740129 0.052502 0.370184
0.851025 0.053971 0.371654
0.961626 0.055437 0.373119
0.068140 0.165035 0.366463
0.183743 0.166567 0.367994
0.297524 0.168074 0.369502
0.410341 0.169569 0.370996
0.522494 0.171055 0.372482
0.634142 0.172534 0.373962
0.745381 0.174008 0.375436
0.856276 0.175477 0.376905
0.966877 0.176943 0.378370
0.073296 0.284358 0.371619
0.188900 0.285890 0.373151
0.302681 0.287398 0.374659
0.415498 0.288892 0.376153
0.527651 0.290378 0.377639
0.639299 0.291858 0.379119
0.750538 0.293332 0.380593
0.861433 0.294801 0.382062
0.972034 0.296266 0.383527
0.078407 0.402608 0.376730
0.194011 0.404140 0.378262
0.307792 0.405647 0.379769
0.420608 0.407142 0.381264
0.532762 0.408628 0.382750
0.644409 0.410107 0.384229
0.755648 0.411581 0.385703
0.866544 0.413050 0.387172
0.977309 0.414518 0.388640
0.083486 0.520134 0.381809
0.199090 0.521666 0.383341
0.312871 0.523173 0.384849
0.425688 0.524668 0.386343
0.537876 0.526154 0.387830
0.649760 0.527636 0.389312
0.761235 0.529113 0.390788
0.872366 0.530585 0.392260
0.983201 0.532053 0.393728
0.088542 0.637113 0.386865
0.204271 0.638647 0.388398
0.318294 0.640157 0.389908
0.431350 0.641654 0.391406
0.543741 0.643143 0.392894
0.655625 0.644625 0.394376
0.767100 0.646101 0.395853
0.878231 0.647573 0.397325
0.989067 0.649041 0.398793
0.094266 0.753662 0.391909
0.210114 0.755196 0.393444
0.324137 0.756706 0.394954
0.437193 0.758204 0.396451
0.549584 0.759692 0.397940
0.661468 0.761174 0.399422
0.772943 0.762650 0.400898
0.884074 0.764122 0.402370
0.994910 0.765590 0.403838
0.100090 0.869844 0.396939
0.215939 0.871379 0.398473
0.329962 0.872889 0.399984
0.443017 0.874386 0.401481
0.555409 0.875875 0.402970
0.667293 0.877357 0.404451
0.778768 0.878833 0.405928
0.889899 0.880305 0.407400
1.000000 0.881773 0.408868
0.105899 0.985712 0.401955
0.221748 0.987246 0.403489
0.335770 0.988756 0.405000
0.448826 0.990254 0.406497
0.561218 0.991742 0.407986
0.673102 0.993224 0.409468
0.784577 0.994701 0.410944
0.895708 0.996173 0.412416
1.000000 0.997641 0.413884
0.063412 0.044052 0.476557
0.179015 0.045584 0.478089
0.292797 0.047092 0.479596
0.405613 0.048586 0.481091
0.517766 0.050072 0.482577
0.629414 0.051552 0.484056
0.740653 0.053026 0.485530
0.851549 0.054495 0.486999
0.962149 0.055960 0.488465
0.068663 0.165559 0.481808
0.184267 0.167090 0.483340
0.298048 0.168598 0.484848
0.410864 0.170093 0.486342
0.523018 0.171578 0.487828
0.634665 0.173058 0.489308
0.745904 0.174532 0.490781
0.856800 0.176001 0.492251
0.967401 0.177466 0.493716
0.073820 0.284882 0.486965
0.189424 0.286414 0.488497
0.303205 0.287921 0.490005
0.416021 0.289416 0.491499
0.528175 0.290902 0.492985
0.639822 0.292381 0.494465
0.751061 0.293855 0.495938
0.861957 0.295324 0.497408
0.972558 0.296790 0.498873
0.078931 0.403132 0.492076
0.194534 0.404663 0.493608
0.308315 0.406171 0.495115
0.421132 0.407666 0.496610
0.533285 0.409152 0.498096
0.644933 0.410631 0.499575
0.756172 0.412105 0.501049
0.867081 0.413574 0.502518
0.977916 0.415042 0.503986
0.084010 0.520658 0.497155
0.199613 0.522189 0.498687
0.313395 0.523697 0.500194
0.426211 0.525192 0.501689
0.538483 0.526679 0.503176
0.650368 0.528161 0.504658
0.761842 0.529637 0.506135
0.872974 0.531109 0.507607
0.983809 0.532577 0.509075
0.089066 0.637637 0.502211
0.204879 0.639171 0.503745
0.318901 0.640681 0.505255
0.431957 0.642179 0.506752
0.544348 0.643667 0.508241
0.656233 0.645149 0.509723
0.767708 0.646626 0.511199
0.878839 0.648098 0.512671
0.989674 0.649566 0.514139
0.094873 0.754186 0.507256
0.210722 0.755720 0.508790
0.324744 0.757231 0.510301
0.437800 0.758728 0.511798
0.550191 0.760217 0.513287
0.662076 0.761699 0.514768
0.773551 0.763175 0.516245
0.884682 0.764647 0.517717
0.995517 0.766115 0.519185
0.100698 0.870369 0.512286
0.216546 0.871903 0.513820
0.330569 0.873413 0.515330
0.443625 0.874911 0.516828
0.556016 0.876399 0.518316
0.667901 0.877881 0.519798
0.779375 0.879358 0.521275
0.890506 0.880830 0.522747
1.000000 0.882298 0.524215
0.106507 0.986236 0.517302
0.222355 0.987771 0.518836
0.336378 0.989281 0.520346
0.449434 0.990778 0.521844
0.561825 0.992267 0.523332
0.673709 0.993749 0.524814
0.785184 0.995225 0.526291
0.896315 0.996697 0.527763
1.000000 0.998165 0.529231
0.063933 0.044573 0.591344
0.179536 0.046105 0.592876
0.293318 0.047613 0.594383
0.406134 0.049107 0.595878
0.518287 0.050593 0.597364
0.629935 0.052073 0.598843
0.741174 0.053547 0.600317
0.852070 0.055016 0.601787
0.962670 0.056481 0.603252
0.069184 0.166080 0.596596
0.184788 0.167611 0.598127
0.298569 0.169119 0.599635
0.411385 0.170614 0.601130
0.523539 0.172100 0.602615
0.635186 0.173579 0.604095
0.746425 0.175053 0.605569
0.857321 0.176522 0.607038
0.967922 0.177987 0.608503
0.074341 0.285403 0.601753
0.189945 0.286935 0.603284
0.303726 0.288442 0.604792
0.416542 0.289937 0.606286
0.528696 0.291423 0.607772
0.640343 0.292902 0.609252
0.751582 0.294376 0.610726
0.862478 0.295845 0.612195
0.973079 0.297311 0.613660
0.079452 0.403653 0.606863
0.195055 0.405184 0.608395
0.308836 0.406692 0.609902
0.421653 0.408187 0.611397
0.533806 0.409673 0.612883
0.645454 0.411152 0.614362
0.756693 0.412626 0.615836
0.867686 0.414096 0.617307
0.978521 0.415564 0.618775
0.084531 0.521179 0.611942
0.200134 0.522710 0.613474
0.313916 0.524218 0.614982
0.426732 0.525713 0.616476
0.539088 0.527201 0.617965
0.650972 0.528683 0.619446
0.762447 0.530159 0.620923
0.873578 0.531631 0.622395
0.984413 0.533099 0.623863
0.089634 0.638159 0.616999
0.205483 0.639693 0.618533
0.319506 0.641203 0.620043
0.432562 0.642701 0.621541
0.544953 0.644189 0.623029
0.656837 0.645671 0.624511
0.768312 0.647148 0.625987
0.879443 0.648619 0.627459
0.990278 0.650087 0.628927
0.095477 0.754708 0.622044
0.211326 0.756242 0.623579
0.325349 0.757753 0.625089
0.438405 0.759250 0.626586
0.550796 0.760739 0.628075
0.662680 0.762221 0.629557
0.774155 0.763697 0.631033
0.885286 0.765169 0.632505
0.996121 0.766637 0.633973
0.101302 0.870891 0.627074
0.217151 0.872425 0.628608
0.331173 0.873935 0.630118
0.444229 0.875433 0.631616
0.556621 0.876921 0.633104
0.668505 0.878403 0.634586
0.779980 0.879880 0.636063
0.891111 0.881352 0.637535
1.000000 0.882819 0.639003
0.107111 0.986758 0.632090
0.222960 0.988293 0.633624
0.336982 0.989803 0.635135
0.450038 0.991300 0.636632
0.562430 0.992789 0.638121
0.674314 0.994271 0.639602
0.785789 0.995747 0.641079
0.896920 0.997219 0.642551
1.000000 0.998687 0.644019
0.064452 0.045093 0.705686
0.180055 0.046624 0.707218
0.293837 0.048132 0.708726
0.406653 0.049627 0.710220
0.518807 0.051112 0.711706
0.630454 0.052592 0.713186
0.741693 0.054066 0.714659
0.852589 0.055535 0.716129
0.963189 0.057000 0.717594
0.069703 0.166599 0.710938
0.185307 0.168130 0.712469
0.299088 0.169638 0.713977
0.411904 0.171133 0.715472
0.524058 0.172619 0.716958
0.635705 0.174098 0.718437
0.746944 0.175572 0.719911
0.857840 0.177041 0.721380
0.968441 0.178506 0.722845
0.074860 0.285922 0.716095
0.190464 0.287454 0.717626
0.304245 0.288961 0.719134
0.417061 0.290456 0.720629
0.529215 0.291942 0.722115
0.640862 0.293421 0.723594
0.752101 0.294895 0.725068
0.862997 0.296365 0.726537
0.973598 0.297830 0.728002
0.079971 0.404172 0.721205
0.195574 0.405703 0.722737
0.309355 0.407211 0.724244
0.422172 0.408706 0.725739
0.534325 0.410192 0.727225
0.645973 0.411671 0.728704
0.757212 0.413145 0.730178
0.868288 0.414616 0.731650
0.979123 0.416084 0.733118
0.085050 0.521698 0.726284
0.200653 0.523229 0.727816
0.314435 0.524737 0.729324
0.427299 0.526232 0.730819
0.539690 0.527721 0.732308
0.651574 0.529203 0.733789
0.763049 0.530679 0.735266
0.874180 0.532151 0.736738
0.985015 0.533619 0.738206
0.090237 0.638679 0.731342
0.206085 0.640213 0.732876
0.320108 0.641723 0.734386
0.433164 0.643221 0.735884
0.545555 0.644709 0.737372
0.657439 0.646191 0.738854
0.768914 0.647668 0.740331
0.880045 0.649139 0.741802
0.990881 0.650607 0.743270
0.096080 0.755228 0.736387
0.211928 0.756762 0.737922
0.325951 0.758273 0.739432
0.439007 0.759770 0.740929
0.551398 0.761259 0.742418
0.663282 0.762740 0.743900
0.774757 0.764217 0.745376
0.885888 0.765689 0.746848
0.996724 0.767157 0.748316
0.101904 0.871411 0.741417
0.217753 0.872945 0.742951
0.331776 0.874455 0.744462
0.444831 0.875953 0.745959
0.557223 0.877441 0.747448
0.669107 0.878923 0.748929
0.780582 0.880400 0.750406
0.891713 0.881871 0.751878
1.000000 0.883339 0.753346
0.107713 0.987278 0.746433
0.223562 0.988813 0.747967
0.337584 0.990323 0.749478
0.450640 0.991820 0.750975
0.563032 0.993309 0.752464
0.674916 0.994791 0.753946
0.786391 0.996267 0.755422
0.897522 0.997739 0.756894
1.000000 0.999207 0.758362
0.064969 0.045610 0.819659
0.180573 0.047142 0.821190
0.294354 0.048649 0.822698
0.407170 0.050144 0.824193
0.519324 0.051630 0.825679
0.630971 0.053109 0.827158
0.742210 0.054583 0.828632
0.853106 0.056052 0.830101
0.963707 0.057518 0.831567
0.070221 0.167116 0.824910
0.185824 0.168648 0.826442
0.299605 0.170155 0.827949
0.412422 0.171650 0.829444
0.524575 0.173136 0.830930
0.636223 0.174615 0.832409
0.747462 0.176089 0.833883
0.858357 0.177558 0.835352
0.968958 0.179024 0.836818
0.075378 0.286439 0.830067
0.190981 0.287971 0.831599
0.304762 0.289479 0.833106
0.417579 0.290973 0.834601
0.529732 0.292459 0.836087
0.641380 0.293939 0.837566
0.752619 0.295413 0.839040
0.863514 0.296882 0.840509
0.974115 0.298347 0.841975
0.080488 0.404689 0.835178
0.196092 0.406221 0.836709
0.309873 0.407728 0.838217
0.422689 0.409223 0.839712
0.534843 0.410709 0.841198
0.646490 0.412188 0.842677
0.757757 0.413662 0.844151
0.868888 0.415134 0.845623
0.979723 0.416602 0.847091
0.085567 0.522215 0.840257
0.201171 0.523747 0.841789
0.314952 0.525254 0.843296
0.427899 0.526750 0.844792
0.540290 0.528239 0.846281
0.652174 0.529721 0.847763
0.763649 0.531197 0.849239
0.874780 0.532669 0.850711
0.985616 0.534137 0.852179
0.090837 0.639197 0.845315
0.206685 0.640731 0.846849
0.320708 0.642241 0.848359
0.433764 0.643739 0.849857
0.546155 0.645227 0.851345
0.658040 0.646709 0.852827
0.769514 0.648186 0.854304
0.880646 0.649658 0.855776
0.991481 0.651126 0.857244
0.096680 0.755746 0.850360
0.212529 0.757281 0.851895
0.326551 0.758791 0.853405
0.439607 0.760288 0.854902
0.551998 0.761777 0.856391
0.663883 0.763259 0.857873
0.775357 0.764735 0.859349
0.886489 0.766207 0.860821
0.997324 0.767675 0.862289
0.102504 0.871929 0.855390
0.218353 0.873463 0.856925
0.332376 0.874973 0.858435
0.445432 0.876471 0.859932
0.557823 0.877959 0.861421
0.669707 0.879441 0.862903
0.781182 0.880918 0.864379
0.892313 0.882390 0.865851
1.000000 0.883858 0.867319
0.108313 0.987797 0.860406
0.224162 0.989331 0.861941
0.338185 0.990841 0.863451
0.451241 0.992339 0.864948
0.563632 0.993827 0.866437
0.675516 0.995309 0.867919
0.786991 0.996785 0.869395
0.898122 0.998257 0.870867
1.000000 0.999725 0.872335
0.065485 0.046126 0.933315
0.181089 0.047657 0.934847
0.294870 0.049165 0.936354
0.407686 0.050660 0.937849
0.519840 0.052146 0.939335
0.631487 0.053625 0.940814
0.742726 0.055099 0.942288
0.853622 0.056568 0.943757
0.964223 0.058034 0.945223
0.070736 0.167632 0.938566
0.186340 0.169164 0.940098
0.300121 0.170671 0.941605
0.412938 0.172166 0.943100
0.525091 0.173652 0.944586
0.636739 0.175131 0.946065
0.747978 0.176605 0.947539
0.858873 0.178074 0.949009
0.969474 0.179540 0.950474
0.075893 0.286955 0.943723
0.191497 0.288487 0.945255
0.305278 0.289995 0.946762
0.418095 0.291489 0.948257
0.530248 0.292975 0.949743
0.641896 0.294455 0.951222
0.753134 0.295928 0.952696
0.864030 0.297398 0.954166
0.974631 0.298863 0.955631
0.081004 0.405205 0.948834
0.196607 0.406737 0.950365
0.310389 0.408244 0.951873
0.423205 0.409739 0.953368
0.535359 0.411225 0.954854
0.647006 0.412704 0.956333
0.758355 0.414179 0.957808
0.869486 0.415651 0.959280
0.980322 0.417119 0.960748
0.086083 0.522731 0.953913
0.201687 0.524263 0.955445
0.315468 0.525770 0.956952
0.428497 0.527267 0.958449
0.540889 0.528756 0.959938
0.652773 0.530238 0.961420
0.764248 0.531714 0.962896
0.875379 0.533186 0.964368
0.986214 0.534654 0.965836
0.091435 0.639714 0.958972
0.207284 0.641248 0.960506
0.321307 0.642758 0.962017
0.434362 0.644256 0.963514
0.546754 0.645744 0.965003
0.658638 0.647226 0.966484
0.770113 0.648703 0.967961
0.881244 0.650175 0.969433
0.992079 0.651643 0.970901
0.097278 0.756263 0.964018
0.213127 0.757797 0.965552
0.327150 0.759308 0.967062
0.440205 0.760805 0.968560
0.552597 0.762294 0.970048
0.664481 0.763776 0.971530
0.775956 0.765252 0.973007
0.887087 0.766724 0.974478
0.997922 0.768192 0.975946
0.103103 0.872446 0.969047
0.218952 0.873980 0.970582
0.332974 0.875490 0.972092
0.446030 0.876988 0.973589
0.558421 0.878476 0.975078
0.670306 0.879958 0.976560
0.781781 0.881435 0.978036
0.892912 0.882907 0.979508
1.000000 0.884375 0.980976
0.108912 0.988313 0.974063
0.224761 0.989848 0.975598
0.338783 0.991358 0.977108
0.451839 0.992855 0.978605
0.564230 0.994344 0.980094
0.676115 0.995826 0.981576
0.787590 0.997302 0.983052
0.898721 0.998774 0.984524
1.000000 1.000000 0.985992
