assets/luts/generated_genre/bs_romance_kodak_portra_warm_330756bd8fdeb067.cube
# V4 spec-generated LUT — bs_romance_kodak_portra_warm
# Genre: romance
# Look: Warm tender romance — Kodak Portra emulation, golden roll-off. Sandgren/La La Land, Laxton/Beale Str
# Spec hash: 330756bd8fdeb067
TITLE "V4 Spec LUT — bs_romance_kodak_portra_warm"
LUT_3D_SIZE 17
DOMAIN_MIN 0.0 0.0 0.0
DOMAIN_MAX 1.0 1.0 1.0
0.061285 0.041925 0.007939
0.119430 0.042696 0.008710
0.176888 0.043457 0.009471
0.233929 0.044213 0.010227
0.290669 0.044964 0.010979
0.347174 0.045713 0.011727
0.403486 0.046459 0.012473
0.459634 0.047203 0.013217
0.515639 0.047945 0.013959
0.571519 0.048686 0.014700
0.627287 0.049424 0.015439
0.682953 0.050162 0.016176
0.738526 0.050898 0.016912
0.794013 0.051633 0.017648
0.849422 0.052368 0.018382
0.904756 0.053101 0.019115
0.960022 0.053833 0.019847
0.063929 0.103114 0.010584
0.122074 0.103884 0.011354
0.179533 0.104646 0.012115
0.236574 0.105401 0.012871
0.293314 0.106153 0.013623
0.349819 0.106902 0.014372
0.406130 0.107648 0.015118
0.462278 0.108392 0.015862
0.518284 0.109134 0.016604
0.574164 0.109874 0.017344
0.629931 0.110613 0.018083
0.685597 0.111351 0.018821
0.741170 0.112087 0.019557
0.796658 0.112822 0.020292
0.852066 0.113556 0.021026
0.907401 0.114290 0.021759
0.962667 0.115022 0.022492
0.066536 0.163431 0.013191
0.124681 0.164202 0.013961
0.182139 0.164963 0.014722
0.239180 0.165719 0.015478
0.295921 0.166471 0.016230
0.352425 0.167219 0.016978
0.408737 0.167965 0.017725
0.464885 0.168709 0.018469
0.520891 0.169451 0.019211
0.576771 0.170192 0.019951
0.632538 0.170931 0.020690
0.688204 0.171668 0.021427
0.743777 0.172404 0.022164
0.799264 0.173140 0.022899
0.854673 0.173874 0.023633
0.910008 0.174607 0.024366
0.965273 0.175339 0.025098
0.069122 0.223263 0.015776
0.127267 0.224033 0.016547
0.184725 0.224795 0.017308
0.241766 0.225550 0.018064
0.298506 0.226302 0.018816
0.355011 0.227051 0.019564
0.411323 0.227797 0.020310
0.467471 0.228541 0.021054
0.523476 0.229283 0.021796
0.579356 0.230023 0.022537
0.635124 0.230762 0.023276
0.690790 0.231500 0.024013
0.746363 0.232236 0.024749
0.801850 0.232971 0.025485
0.857259 0.233705 0.026219
0.912593 0.234438 0.026952
0.967859 0.235171 0.027684
0.071693 0.282755 0.018348
0.129838 0.283525 0.019118
0.187296 0.284287 0.019879
0.244337 0.285042 0.020635
0.301078 0.285794 0.021387
0.357582 0.286543 0.022135
0.413894 0.287289 0.022882
0.470042 0.288033 0.023625
0.526047 0.288775 0.024368
0.581927 0.289515 0.025108
0.637695 0.290254 0.025847
0.693361 0.290992 0.026584
0.748934 0.291728 0.027321
0.804421 0.292463 0.028056
0.859830 0.293197 0.028790
0.915165 0.293930 0.029523
0.970430 0.294663 0.030255
0.074253 0.341986 0.020907
0.132398 0.342756 0.021678
0.189856 0.343517 0.022439
0.246897 0.344273 0.023195
0.303637 0.345025 0.023947
0.360142 0.345774 0.024695
0.416454 0.346520 0.025441
0.472602 0.347264 0.026185
0.528607 0.348006 0.026927
0.584487 0.348746 0.027668
0.640255 0.349485 0.028407
0.695921 0.350222 0.029144
0.751494 0.350959 0.029880
0.806981 0.351694 0.030616
0.862390 0.352428 0.031350
0.917724 0.353161 0.032083
0.972990 0.353894 0.032815
0.076803 0.401004 0.023458
0.134949 0.401775 0.024228
0.192407 0.402536 0.024990
0.249448 0.403292 0.025746
0.306188 0.404044 0.026497
0.362693 0.404792 0.027246
0.419005 0.405538 0.027992
0.475152 0.406282 0.028736
0.531158 0.407024 0.029478
0.587038 0.407765 0.030218
0.642806 0.408504 0.030957
0.698471 0.409241 0.031695
0.754044 0.409977 0.032431
0.809532 0.410713 0.033166
0.864940 0.411447 0.033900
0.920275 0.412180 0.034634
0.975541 0.412912 0.035366
0.079346 0.459844 0.026001
0.137492 0.460615 0.026771
0.194950 0.461376 0.027533
0.251991 0.462132 0.028289
0.308731 0.462884 0.029040
0.365236 0.463632 0.029789
0.421548 0.464378 0.030535
0.477695 0.465122 0.031279
0.533701 0.465864 0.032021
0.589581 0.466605 0.032761
0.645349 0.467344 0.033500
0.701014 0.468081 0.034238
0.756587 0.468818 0.034974
0.812075 0.469553 0.035709
0.867563 0.470288 0.036444
0.923016 0.471022 0.037179
0.978399 0.471756 0.037912
0.081883 0.518530 0.028537
0.140028 0.519301 0.029308
0.197486 0.520062 0.030069
0.254527 0.520818 0.030825
0.311267 0.521570 0.031577
0.367772 0.522318 0.032325
0.424084 0.523064 0.033071
0.480232 0.523808 0.033815
0.536237 0.524550 0.034557
0.592117 0.525291 0.035298
0.647900 0.526030 0.036037
0.703684 0.526769 0.036776
0.759375 0.527506 0.037513
0.814980 0.528243 0.038250
0.870506 0.528978 0.038985
0.925958 0.529713 0.039720
0.981341 0.530446 0.040453
0.084413 0.577081 0.031068
0.142558 0.577851 0.031838
0.200017 0.578612 0.032600
0.257058 0.579368 0.033355
0.313798 0.580120 0.034107
0.370303 0.580868 0.034856
0.426614 0.581615 0.035602
0.482827 0.582359 0.036346
0.538951 0.583103 0.037090
0.594950 0.583844 0.037831
0.650836 0.584584 0.038572
0.706619 0.585323 0.039311
0.762310 0.586061 0.040048
0.817916 0.586797 0.040785
0.873441 0.587533 0.041520
0.928894 0.588267 0.042255
0.984277 0.589001 0.042988
0.086938 0.635510 0.033593
0.145084 0.636280 0.034363
0.202542 0.637042 0.035125
0.259583 0.637797 0.035880
0.316433 0.638550 0.036633
0.373058 0.639300 0.037383
0.429489 0.640048 0.038131
0.485756 0.640793 0.038876
0.541881 0.641536 0.039619
0.597879 0.642278 0.040361
0.653765 0.643018 0.041101
0.709549 0.643757 0.041840
0.765240 0.644495 0.042578
0.820845 0.645231 0.043314
0.876371 0.645967 0.044050
0.931823 0.646701 0.044784
0.987206 0.647435 0.045518
0.089486 0.693830 0.036114
0.147755 0.694602 0.036886
0.205335 0.695365 0.037648
0.262497 0.696122 0.038405
0.319357 0.696875 0.039158
0.375982 0.697625 0.039908
0.432413 0.698372 0.040656
0.488680 0.699117 0.041401
0.544805 0.699861 0.042144
0.600803 0.700602 0.042886
0.656689 0.701343 0.043626
0.712473 0.702081 0.044365
0.768164 0.702819 0.045103
0.823769 0.703556 0.045839
0.879295 0.704291 0.046575
0.934747 0.705025 0.047309
0.990130 0.705759 0.048043
0.092405 0.752055 0.038634
0.150674 0.752827 0.039406
0.208254 0.753589 0.040169
0.265416 0.754347 0.040926
0.322277 0.755100 0.041679
0.378901 0.755850 0.042429
0.435332 0.756597 0.043176
0.491599 0.757342 0.043922
0.547724 0.758086 0.044665
0.603722 0.758827 0.045407
0.659608 0.759568 0.046147
0.715392 0.760306 0.046886
0.771083 0.761044 0.047623
0.826688 0.761781 0.048360
0.882214 0.762516 0.049095
0.937666 0.763250 0.049830
0.993049 0.763984 0.050563
0.095320 0.810189 0.041151
0.153588 0.810960 0.041923
0.211168 0.811723 0.042686
0.268330 0.812480 0.043443
0.325191 0.813233 0.044196
0.381816 0.813983 0.044946
0.438247 0.814731 0.045693
0.494514 0.815476 0.046438
0.550638 0.816219 0.047182
0.606637 0.816961 0.047923
0.662523 0.817701 0.048664
0.718307 0.818440 0.049403
0.773997 0.819178 0.050140
0.829603 0.819914 0.050877
0.885128 0.820650 0.051612
0.940581 0.821384 0.052347
0.995964 0.822117 0.053080
0.098230 0.868238 0.043664
0.156499 0.869009 0.044436
0.214079 0.869772 0.045199
0.271241 0.870529 0.045956
0.328101 0.871282 0.046709
0.384726 0.872032 0.047459
0.441157 0.872780 0.048206
0.497424 0.873525 0.048951
0.553548 0.874268 0.049695
0.609547 0.875010 0.050437
0.665433 0.875750 0.051177
0.721217 0.876489 0.051916
0.776908 0.877227 0.052653
0.832513 0.877963 0.053390
0.888039 0.878699 0.054125
0.943491 0.879433 0.054860
0.998874 0.880167 0.055593
0.101136 0.926208 0.046174
0.159405 0.926980 0.046946
0.216985 0.927743 0.047708
0.274147 0.928500 0.048465
0.331007 0.929253 0.049218
0.387632 0.930003 0.049968
0.444063 0.930750 0.050716
0.500330 0.931495 0.051461
0.556455 0.932239 0.052204
0.612453 0.932981 0.052946
0.668339 0.933721 0.053686
0.724123 0.934460 0.054425
0.779814 0.935197 0.055163
0.835419 0.935934 0.055899
0.890945 0.936669 0.056635
0.946397 0.937404 0.057369
1.000000 0.938137 0.058103
0.104039 0.984105 0.048680
0.162308 0.984877 0.049452
0.219888 0.985640 0.050215
0.277050 0.986397 0.050972
0.333910 0.987150 0.051725
0.390535 0.987900 0.052475
0.446966 0.988647 0.053222
0.503233 0.989393 0.053968
0.559357 0.990136 0.054711
0.615356 0.990878 0.055453
0.671242 0.991618 0.056193
0.727026 0.992357 0.056932
0.782716 0.993094 0.057669
0.838322 0.993831 0.058406
0.893848 0.994566 0.059141
0.949300 0.995301 0.059876
1.000000 0.996034 0.060609
0.061560 0.042200 0.068509
0.119705 0.042971 0.069280
0.177163 0.043732 0.070041
0.234204 0.044488 0.070797
0.290944 0.045239 0.071548
0.347449 0.045988 0.072297
0.403761 0.046734 0.073043
0.459909 0.047478 0.073787
0.515914 0.048220 0.074529
0.571794 0.048961 0.075269
0.627562 0.049699 0.076008
0.683228 0.050437 0.076746
0.738801 0.051173 0.077482
0.794288 0.051908 0.078217
0.849696 0.052643 0.078952
0.905031 0.053376 0.079685
0.960297 0.054108 0.080417
0.064204 0.103389 0.071154
0.122349 0.104159 0.071924
0.179808 0.104921 0.072685
0.236849 0.105676 0.073441
0.293589 0.106428 0.074193
0.350094 0.107177 0.074941
0.406405 0.107923 0.075688
0.462553 0.108667 0.076432
0.518559 0.109409 0.077174
0.574439 0.110149 0.077914
0.630206 0.110888 0.078653
0.685872 0.111626 0.079390
0.741445 0.112362 0.080127
0.796933 0.113097 0.080862
0.852341 0.113831 0.081596
0.907676 0.114564 0.082329
0.962942 0.115297 0.083061
0.066811 0.163706 0.073760
0.124956 0.164477 0.074531
0.182414 0.165238 0.075292
0.239455 0.165994 0.076048
0.296196 0.166745 0.076800
0.352700 0.167494 0.077548
0.409012 0.168240 0.078294
0.465160 0.168984 0.079038
0.521165 0.169726 0.079780
0.577045 0.170467 0.080521
0.632813 0.171205 0.081260
0.688479 0.171943 0.081997
0.744052 0.172679 0.082734
0.799539 0.173415 0.083469
0.854948 0.174149 0.084203
0.910283 0.174882 0.084936
0.965548 0.175614 0.085668
0.069397 0.223538 0.076346
0.127542 0.224308 0.077117
0.185000 0.225069 0.077878
0.242041 0.225825 0.078634
0.298781 0.226577 0.079385
0.355286 0.227326 0.080134
0.411598 0.228072 0.080880
0.467746 0.228816 0.081624
0.523751 0.229558 0.082366
0.579631 0.230298 0.083107
0.635399 0.231037 0.083845
0.691065 0.231775 0.084583
0.746638 0.232511 0.085319
0.802125 0.233246 0.086055
0.857534 0.233980 0.086789
0.912868 0.234713 0.087522
0.968134 0.235446 0.088254
0.071968 0.283030 0.078917
0.130113 0.283800 0.079688
0.187571 0.284561 0.080449
0.244612 0.285317 0.081205
0.301353 0.286069 0.081957
0.357857 0.286818 0.082705
0.414169 0.287564 0.083451
0.470317 0.288308 0.084195
0.526322 0.289050 0.084937
0.582202 0.289790 0.085678
0.637970 0.290529 0.086417
0.693636 0.291267 0.087154
0.749209 0.292003 0.087890
0.804696 0.292738 0.088626
0.860105 0.293472 0.089360
0.915439 0.294205 0.090093
0.970705 0.294938 0.090825
0.074528 0.342261 0.081477
0.132673 0.343031 0.082248
0.190131 0.343792 0.083009
0.247172 0.344548 0.083765
0.303912 0.345300 0.084516
0.360417 0.346049 0.085265
0.416729 0.346795 0.086011
0.472877 0.347539 0.086755
0.528882 0.348281 0.087497
0.584762 0.349021 0.088238
0.640530 0.349760 0.088976
0.696196 0.350497 0.089714
0.751769 0.351234 0.090450
0.807256 0.351969 0.091186
0.862665 0.352703 0.091920
0.917999 0.353436 0.092653
0.973265 0.354168 0.093385
0.077078 0.401279 0.084028
0.135224 0.402050 0.084798
0.192682 0.402811 0.085560
0.249723 0.403567 0.086315
0.306463 0.404319 0.087067
0.362968 0.405067 0.087816
0.419280 0.405813 0.088562
0.475427 0.406557 0.089306
0.531433 0.407299 0.090048
0.587313 0.408040 0.090788
0.643081 0.408779 0.091527
0.698746 0.409516 0.092265
0.754319 0.410252 0.093001
0.809807 0.410988 0.093736
0.865215 0.411722 0.094470
0.920550 0.412455 0.095203
0.975816 0.413187 0.095936
0.079621 0.460119 0.086571
0.137767 0.460890 0.087341
0.195225 0.461651 0.088103
0.252266 0.462407 0.088858
0.309006 0.463159 0.089610
0.365511 0.463907 0.090359
0.421823 0.464653 0.091105
0.477970 0.465397 0.091849
0.533976 0.466139 0.092591
0.589856 0.466880 0.093331
0.645624 0.467619 0.094070
0.701289 0.468356 0.094808
0.756862 0.469093 0.095544
0.812357 0.469828 0.096279
0.867882 0.470563 0.097015
0.923335 0.471298 0.097749
0.978718 0.472031 0.098483
0.082158 0.518805 0.089107
0.140303 0.519576 0.089878
0.197761 0.520337 0.090639
0.254802 0.521093 0.091395
0.311542 0.521845 0.092146
0.368047 0.522593 0.092895
0.424359 0.523339 0.093641
0.480507 0.524083 0.094385
0.536512 0.524825 0.095127
0.592392 0.525566 0.095868
0.648219 0.526305 0.096607
0.704003 0.527044 0.097346
0.759694 0.527782 0.098084
0.815299 0.528518 0.098820
0.870825 0.529254 0.099555
0.926277 0.529988 0.100290
0.981660 0.530722 0.101023
0.084688 0.577356 0.091638
0.142833 0.578126 0.092408
0.200292 0.578887 0.093169
0.257333 0.579643 0.093925
0.314073 0.580395 0.094677
0.370578 0.581143 0.095426
0.426889 0.581890 0.096172
0.483146 0.582635 0.096917
0.539270 0.583378 0.097660
0.595269 0.584120 0.098402
0.651154 0.584860 0.099142
0.706938 0.585599 0.099881
0.762629 0.586336 0.100618
0.818234 0.587073 0.101355
0.873760 0.587808 0.102090
0.929213 0.588543 0.102825
0.984596 0.589276 0.103558
0.087213 0.635785 0.094163
0.145359 0.636555 0.094933
0.202817 0.637316 0.095695
0.259892 0.638073 0.096451
0.316752 0.638826 0.097204
0.373377 0.639576 0.097954
0.429808 0.640323 0.098701
0.486075 0.641068 0.099446
0.542200 0.641812 0.100190
0.598198 0.642553 0.100932
0.654084 0.643294 0.101672
0.709868 0.644032 0.102411
0.765559 0.644770 0.103148
0.821164 0.645507 0.103885
0.876690 0.646242 0.104620
0.932142 0.646976 0.105355
0.987525 0.647710 0.106088
0.089805 0.694106 0.096684
0.148074 0.694877 0.097456
0.205654 0.695640 0.098219
0.262816 0.696397 0.098976
0.319676 0.697150 0.099729
0.376301 0.697900 0.100479
0.432732 0.698648 0.101226
0.488999 0.699393 0.101971
0.545124 0.700136 0.102715
0.601122 0.700878 0.103456
0.657008 0.701618 0.104197
0.712792 0.702357 0.104936
0.768483 0.703095 0.105673
0.824088 0.703831 0.106410
0.879614 0.704566 0.107145
0.935066 0.705301 0.107879
0.990449 0.706034 0.108613
0.092724 0.752331 0.099205
0.150993 0.753102 0.099977
0.208573 0.753865 0.100739
0.265735 0.754622 0.101496
0.322595 0.755375 0.102249
0.379220 0.756125 0.102999
0.435651 0.756873 0.103747
0.491918 0.757618 0.104492
0.548043 0.758361 0.105235
0.604041 0.759103 0.105977
0.659927 0.759843 0.106717
0.715711 0.760582 0.107456
0.771402 0.761319 0.108194
0.827007 0.762056 0.108930
0.882533 0.762791 0.109666
0.937985 0.763526 0.110400
0.993368 0.764259 0.111134
0.095639 0.810464 0.101721
0.153907 0.811236 0.102493
0.211487 0.811998 0.103256
0.268649 0.812756 0.104013
0.325510 0.813509 0.104766
0.382135 0.814259 0.105516
0.438566 0.815006 0.106264
0.494833 0.815751 0.107009
0.550957 0.816495 0.107752
0.606956 0.817236 0.108494
0.662842 0.817977 0.109234
0.718625 0.818715 0.109973
0.774316 0.819453 0.110710
0.829922 0.820190 0.111447
0.885447 0.820925 0.112182
0.940900 0.821659 0.112917
0.996283 0.822393 0.113650
0.098549 0.868513 0.104235
0.156818 0.869285 0.105006
0.214398 0.870047 0.105769
0.271560 0.870805 0.106526
0.328420 0.871558 0.107279
0.385045 0.872308 0.108029
0.441476 0.873055 0.108777
0.497743 0.873800 0.109522
0.553867 0.874544 0.110265
0.609866 0.875285 0.111007
0.665752 0.876026 0.111747
0.721536 0.876764 0.112486
0.777227 0.877502 0.113224
0.832832 0.878239 0.113960
0.888358 0.878974 0.114695
0.943810 0.879708 0.115430
0.999193 0.880442 0.116163
0.101455 0.926484 0.106744
0.159724 0.927255 0.107516
0.217304 0.928018 0.108279
0.274466 0.928775 0.109036
0.331326 0.929528 0.109789
0.387951 0.930278 0.110539
0.444382 0.931026 0.111286
0.500649 0.931771 0.112031
0.556774 0.932514 0.112775
0.612772 0.933256 0.113516
0.668658 0.933996 0.114257
0.724442 0.934735 0.114996
0.780133 0.935473 0.115733
0.835738 0.936209 0.116470
0.891264 0.936945 0.117205
0.946716 0.937679 0.117940
1.000000 0.938413 0.118673
0.104358 0.984381 0.109251
0.162626 0.985153 0.110022
0.220207 0.985915 0.110785
0.277369 0.986672 0.111542
0.334229 0.987425 0.112295
0.390854 0.988175 0.113045
0.447285 0.988923 0.113793
0.503552 0.989668 0.114538
0.559676 0.990411 0.115281
0.615675 0.991153 0.116023
0.671561 0.991893 0.116763
0.727345 0.992632 0.117502
0.783035 0.993370 0.118240
0.838641 0.994106 0.118976
0.894167 0.994842 0.119712
0.949619 0.995576 0.120446
1.000000 0.996310 0.121180
0.061829 0.042470 0.127873
0.119974 0.043240 0.128643
0.177433 0.044001 0.129404
0.234474 0.044757 0.130160
0.291214 0.045509 0.130912
0.347719 0.046258 0.131660
0.404030 0.047004 0.132407
0.460178 0.047748 0.133150
0.516184 0.048490 0.133893
0.572064 0.049230 0.134633
0.627831 0.049969 0.135372
0.683497 0.050706 0.136109
0.739070 0.051443 0.136846
0.794558 0.052178 0.137581
0.849966 0.052912 0.138315
0.905301 0.053645 0.139048
0.960567 0.054377 0.139780
0.064473 0.103658 0.130517
0.122619 0.104429 0.131287
0.180077 0.105190 0.132049
0.237118 0.105946 0.132805
0.293858 0.106698 0.133556
0.350363 0.107446 0.134305
0.406675 0.108192 0.135051
0.462823 0.108936 0.135795
0.518828 0.109678 0.136537
0.574708 0.110419 0.137277
0.630476 0.111158 0.138016
0.686142 0.111895 0.138754
0.741715 0.112631 0.139490
0.797202 0.113367 0.140225
0.852610 0.114101 0.140959
0.907945 0.114834 0.141693
0.963211 0.115566 0.142425
0.067080 0.163976 0.133124
0.125226 0.164746 0.133894
0.182684 0.165507 0.134656
0.239725 0.166263 0.135411
0.296465 0.167015 0.136163
0.352970 0.167764 0.136912
0.409282 0.168510 0.137658
0.465429 0.169254 0.138402
0.521435 0.169996 0.139144
0.577315 0.170736 0.139884
0.633083 0.171475 0.140623
0.688748 0.172213 0.141361
0.744321 0.172949 0.142097
0.799809 0.173684 0.142832
0.855217 0.174418 0.143566
0.910552 0.175151 0.144299
0.965818 0.175884 0.145032
0.069666 0.223807 0.135710
0.127811 0.224578 0.136480
0.185270 0.225339 0.137241
0.242311 0.226095 0.137997
0.299051 0.226846 0.138749
0.355556 0.227595 0.139498
0.411867 0.228341 0.140244
0.468015 0.229085 0.140988
0.524021 0.229827 0.141730
0.579901 0.230568 0.142470
0.635668 0.231306 0.143209
0.691334 0.232044 0.143946
0.746907 0.232780 0.144683
0.802395 0.233516 0.145418
0.857803 0.234250 0.146152
0.913138 0.234983 0.146885
0.968404 0.235715 0.147617
0.072237 0.283299 0.138281
0.130383 0.284070 0.139051
0.187841 0.284831 0.139813
0.244882 0.285587 0.140568
0.301622 0.286338 0.141320
0.358127 0.287087 0.142069
0.414438 0.287833 0.142815
0.470586 0.288577 0.143559
0.526592 0.289319 0.144301
0.582472 0.290060 0.145041
0.638240 0.290798 0.145780
0.693905 0.291536 0.146518
0.749478 0.292272 0.147254
0.804966 0.293008 0.147989
0.860374 0.293742 0.148723
0.915709 0.294475 0.149456
0.970975 0.295207 0.150189
0.074797 0.342530 0.140841
0.132942 0.343301 0.141611
0.190401 0.344062 0.142372
0.247442 0.344818 0.143128
0.304182 0.345569 0.143880
0.360687 0.346318 0.144629
0.416998 0.347064 0.145375
0.473146 0.347808 0.146119
0.529152 0.348550 0.146861
0.585032 0.349290 0.147601
0.640799 0.350029 0.148340
0.696465 0.350767 0.149077
0.752038 0.351503 0.149814
0.807526 0.352238 0.150549
0.862934 0.352973 0.151283
0.918269 0.353706 0.152016
0.973535 0.354438 0.152748
0.077348 0.401549 0.143391
0.135493 0.402319 0.144162
0.192951 0.403081 0.144923
0.249992 0.403836 0.145679
0.306733 0.404588 0.146431
0.363237 0.405337 0.147179
0.419549 0.406083 0.147925
0.475697 0.406827 0.148669
0.531702 0.407569 0.149411
0.587582 0.408309 0.150152
0.643350 0.409048 0.150891
0.699016 0.409786 0.151628
0.754589 0.410522 0.152364
0.810076 0.411257 0.153100
0.865485 0.411991 0.153834
0.920819 0.412724 0.154567
0.976085 0.413457 0.155299
0.079891 0.460389 0.145934
0.138036 0.461159 0.146705
0.195494 0.461921 0.147466
0.252535 0.462676 0.148222
0.309275 0.463428 0.148974
0.365780 0.464177 0.149722
0.422092 0.464923 0.150468
0.478240 0.465667 0.151212
0.534245 0.466409 0.151954
0.590125 0.467149 0.152695
0.645893 0.467888 0.153434
0.701559 0.468626 0.154171
0.757132 0.469362 0.154907
0.812669 0.470098 0.155643
0.868195 0.470833 0.156379
0.923647 0.471568 0.157113
0.979030 0.472301 0.157847
0.082427 0.519075 0.148471
0.140572 0.519845 0.149241
0.198031 0.520606 0.150002
0.255072 0.521362 0.150758
0.311812 0.522114 0.151510
0.368317 0.522863 0.152259
0.424628 0.523609 0.153005
0.480776 0.524353 0.153749
0.536782 0.525095 0.154491
0.592662 0.525835 0.155231
0.648532 0.526575 0.155971
0.704315 0.527314 0.156710
0.760006 0.528052 0.157447
0.815611 0.528788 0.158184
0.871137 0.529523 0.158919
0.926590 0.530258 0.159654
0.981973 0.530991 0.160387
0.084958 0.577625 0.151001
0.143103 0.578395 0.151771
0.200561 0.579157 0.152533
0.257602 0.579912 0.153289
0.314342 0.580664 0.154040
0.370847 0.581413 0.154789
0.427191 0.582159 0.155535
0.483458 0.582905 0.156281
0.539583 0.583648 0.157024
0.595581 0.584390 0.157766
0.651467 0.585130 0.158506
0.707251 0.585869 0.159245
0.762942 0.586606 0.159982
0.818547 0.587343 0.160719
0.874073 0.588078 0.161454
0.929525 0.588813 0.162189
0.984908 0.589546 0.162922
0.087483 0.636054 0.153526
0.145628 0.636825 0.154297
0.203086 0.637586 0.155058
0.260204 0.638343 0.155815
0.317065 0.639096 0.156568
0.373690 0.639846 0.157318
0.430121 0.640593 0.158065
0.486388 0.641338 0.158810
0.542512 0.642082 0.159554
0.598511 0.642823 0.160295
0.654397 0.643564 0.161036
0.710181 0.644302 0.161774
0.765871 0.645040 0.162512
0.821477 0.645777 0.163249
0.877003 0.646512 0.163984
0.932455 0.647246 0.164718
0.987838 0.647980 0.165452
0.090118 0.694376 0.156048
0.148386 0.695147 0.156820
0.205967 0.695910 0.157582
0.263128 0.696667 0.158340
0.319989 0.697420 0.159093
0.376614 0.698170 0.159843
0.433045 0.698918 0.160590
0.489312 0.699663 0.161335
0.545436 0.700406 0.162079
0.601435 0.701148 0.162820
0.657321 0.701888 0.163561
0.713105 0.702627 0.164299
0.768795 0.703364 0.165037
0.824401 0.704101 0.165774
0.879927 0.704836 0.166509
0.935379 0.705571 0.167243
0.990762 0.706304 0.167977
0.093037 0.752600 0.158569
0.151305 0.753372 0.159340
0.208886 0.754135 0.160103
0.266048 0.754892 0.160860
0.322908 0.755645 0.161613
0.379533 0.756395 0.162363
0.435964 0.757142 0.163111
0.492231 0.757888 0.163856
0.548355 0.758631 0.164599
0.604354 0.759373 0.165341
0.660240 0.760113 0.166081
0.716024 0.760852 0.166820
0.771714 0.761589 0.167558
0.827320 0.762326 0.168294
0.882846 0.763061 0.169030
0.938298 0.763796 0.169764
0.993681 0.764529 0.170498
0.095951 0.810734 0.161085
0.154220 0.811506 0.161857
0.211800 0.812268 0.162620
0.268962 0.813025 0.163377
0.325823 0.813779 0.164130
0.382447 0.814529 0.164880
0.438878 0.815276 0.165627
0.495145 0.816021 0.166373
0.551270 0.816765 0.167116
0.607268 0.817506 0.167858
0.663154 0.818247 0.168598
0.718938 0.818985 0.169337
0.774629 0.819723 0.170074
0.830234 0.820459 0.170811
0.885760 0.821195 0.171546
0.941212 0.821929 0.172281
0.996595 0.822663 0.173014
0.098861 0.868783 0.163598
0.157130 0.869555 0.164370
0.214710 0.870317 0.165133
0.271872 0.871075 0.165890
0.328733 0.871828 0.166643
0.385358 0.872578 0.167393
0.441789 0.873325 0.168140
0.498056 0.874070 0.168886
0.554180 0.874814 0.169629
0.610178 0.875555 0.170371
0.666064 0.876296 0.171111
0.721848 0.877034 0.171850
0.777539 0.877772 0.172587
0.833144 0.878509 0.173324
0.888670 0.879244 0.174059
0.944122 0.879978 0.174794
0.999506 0.880712 0.175527
0.101768 0.926754 0.166108
0.160036 0.927525 0.166880
0.217617 0.928288 0.167642
0.274779 0.929045 0.168400
0.331639 0.929798 0.169153
0.388264 0.930548 0.169903
0.444695 0.931296 0.170650
0.500962 0.932041 0.171395
0.557086 0.932784 0.172139
0.613085 0.933526 0.172880
0.668971 0.934266 0.173621
0.724755 0.935005 0.174359
0.780445 0.935743 0.175097
0.836051 0.936479 0.175834
0.891577 0.937214 0.176569
0.947029 0.937949 0.177303
1.000000 0.938682 0.178037
0.104670 0.984651 0.168615
0.162939 0.985422 0.169386
0.220519 0.986185 0.170149
0.277681 0.986942 0.170906
0.334542 0.987695 0.171659
0.391166 0.988445 0.172409
0.447598 0.989193 0.173157
0.503864 0.989938 0.173902
0.559989 0.990681 0.174645
0.615987 0.991423 0.175387
0.671873 0.992163 0.176127
0.727657 0.992902 0.176866
0.783348 0.993640 0.177604
0.838953 0.994376 0.178340
0.894479 0.995112 0.179075
0.949931 0.995846 0.179810
1.000000 0.996580 0.180543
0.062096 0.042737 0.186679
0.120241 0.043507 0.187449
0.177699 0.044268 0.188211
0.234740 0.045024 0.188966
0.291481 0.045776 0.189718
0.347986 0.046524 0.190467
0.404297 0.047271 0.191213
0.460445 0.048015 0.191957
0.516451 0.048757 0.192699
