assets/luts/generated_genre/bs_romance_kodak_portra_warm_330756bd8fdeb067.cube
# V4 spec-generated LUT — bs_romance_kodak_portra_warm
# Genre: romance
# Look: Warm tender romance — Kodak Portra emulation, golden roll-off. Sandgren/La La Land, Laxton/Beale Str
# Spec hash: 330756bd8fdeb067
TITLE "V4 Spec LUT — bs_romance_kodak_portra_warm"
LUT_3D_SIZE 5
DOMAIN_MIN 0.0 0.0 0.0
DOMAIN_MAX 1.0 1.0 1.0
0.061285 0.041925 0.007939
0.290669 0.044964 0.010979
0.515639 0.047945 0.013959
0.738526 0.050898 0.016912
0.960022 0.053833 0.019847
0.071693 0.282755 0.018348
0.301078 0.285794 0.021387
0.526047 0.288775 0.024368
0.748934 0.291728 0.027321
0.970430 0.294663 0.030255
0.081883 0.518530 0.028537
0.311267 0.521570 0.031577
0.536237 0.524550 0.034557
0.759375 0.527506 0.037513
0.981341 0.530446 0.040453
0.092405 0.752055 0.038634
0.322277 0.755100 0.041679
0.547724 0.758086 0.044665
0.771083 0.761044 0.047623
0.993049 0.763984 0.050563
0.104039 0.984105 0.048680
0.333910 0.987150 0.051725
0.559357 0.990136 0.054711
0.782716 0.993094 0.057669
1.000000 0.996034 0.060609
0.062361 0.043002 0.245115
0.291746 0.046041 0.248154
0.516716 0.049022 0.251135
0.739602 0.051975 0.254088
0.961099 0.054910 0.257023
0.072769 0.283831 0.255523
0.302154 0.286871 0.258563
0.527124 0.289851 0.261543
0.750011 0.292805 0.264497
0.971507 0.295739 0.267431
0.082959 0.519607 0.265713
0.312344 0.522646 0.268753
0.537314 0.525627 0.271733
0.760624 0.528585 0.274691
0.982590 0.531525 0.277631
0.093654 0.753134 0.275812
0.323525 0.756178 0.278857
0.548973 0.759164 0.281843
0.772332 0.762123 0.284801
0.994298 0.765062 0.287741
0.105288 0.985184 0.285858
0.335159 0.988228 0.288903
0.560606 0.991214 0.291889
0.783965 0.994173 0.294847
1.000000 0.997113 0.297787
0.063412 0.044052 0.476557
0.292797 0.047092 0.479596
0.517766 0.050072 0.482577
0.740653 0.053026 0.485530
0.962149 0.055960 0.488465
0.073820 0.284882 0.486965
0.303205 0.287921 0.490005
0.528175 0.290902 0.492985
0.751061 0.293855 0.495938
0.972558 0.296790 0.498873
0.084010 0.520658 0.497155
0.313395 0.523697 0.500194
0.538483 0.526679 0.503176
0.761842 0.529637 0.506135
0.983809 0.532577 0.509075
0.094873 0.754186 0.507256
0.324744 0.757231 0.510301
0.550191 0.760217 0.513287
0.773551 0.763175 0.516245
0.995517 0.766115 0.519185
0.106507 0.986236 0.517302
0.336378 0.989281 0.520346
0.561825 0.992267 0.523332
0.785184 0.995225 0.526291
1.000000 0.998165 0.529231
0.064452 0.045093 0.705686
0.293837 0.048132 0.708726
0.518807 0.051112 0.711706
0.741693 0.054066 0.714659
0.963189 0.057000 0.717594
0.074860 0.285922 0.716095
0.304245 0.288961 0.719134
0.529215 0.291942 0.722115
0.752101 0.294895 0.725068
0.973598 0.297830 0.728002
0.085050 0.521698 0.726284
0.314435 0.524737 0.729324
0.539690 0.527721 0.732308
0.763049 0.530679 0.735266
0.985015 0.533619 0.738206
0.096080 0.755228 0.736387
0.325951 0.758273 0.739432
0.551398 0.761259 0.742418
0.774757 0.764217 0.745376
0.996724 0.767157 0.748316
0.107713 0.987278 0.746433
0.337584 0.990323 0.749478
0.563032 0.993309 0.752464
0.786391 0.996267 0.755422
1.000000 0.999207 0.758362
0.065485 0.046126 0.933315
0.294870 0.049165 0.936354
0.519840 0.052146 0.939335
0.742726 0.055099 0.942288
0.964223 0.058034 0.945223
0.075893 0.286955 0.943723
0.305278 0.289995 0.946762
0.530248 0.292975 0.949743
0.753134 0.295928 0.952696
0.974631 0.298863 0.955631
0.086083 0.522731 0.953913
0.315468 0.525770 0.956952
0.540889 0.528756 0.959938
0.764248 0.531714 0.962896
0.986214 0.534654 0.965836
0.097278 0.756263 0.964018
0.327150 0.759308 0.967062
0.552597 0.762294 0.970048
0.775956 0.765252 0.973007
0.997922 0.768192 0.975946
0.108912 0.988313 0.974063
0.338783 0.991358 0.977108
0.564230 0.994344 0.980094
0.787590 0.997302 0.983052
1.000000 1.000000 0.985992
