assets/luts/generated_genre/bs_romance_sayombhu_bloom_b20918f5650d7608.cube
# V4 spec-generated LUT — bs_romance_sayombhu_bloom
# Genre: romance
# Look: Dreamy halated romance — sensual, suspended-time. Mukdeeprom/Call Me By Your Name, Suspiria.
# Spec hash: b20918f5650d7608
TITLE "V4 Spec LUT — bs_romance_sayombhu_bloom"
LUT_3D_SIZE 5
DOMAIN_MIN 0.0 0.0 0.0
DOMAIN_MAX 1.0 1.0 1.0
0.059390 0.049412 0.062805
0.274559 0.055961 0.069355
0.481876 0.062272 0.075666
0.685482 0.068470 0.081864
0.886623 0.074593 0.087987
0.084729 0.282237 0.085132
0.299898 0.288787 0.091682
0.507215 0.295098 0.097993
0.710821 0.301296 0.104191
0.911961 0.307419 0.110314
0.109091 0.506093 0.106600
0.324260 0.512643 0.113149
0.531577 0.518954 0.119460
0.734683 0.525140 0.125890
0.934978 0.531243 0.132406
0.132230 0.725837 0.128036
0.346494 0.732366 0.135006
0.552939 0.738656 0.141722
0.755690 0.744834 0.148318
0.955984 0.750937 0.154834
0.152978 0.942833 0.150188
0.367242 0.949361 0.157158
0.573688 0.955652 0.163874
0.776438 0.961829 0.170470
0.976732 0.967932 0.176985
0.061931 0.051651 0.274152
0.277100 0.058201 0.280702
0.484417 0.064511 0.287013
0.688023 0.070709 0.293211
0.889164 0.076832 0.299334
0.087270 0.284476 0.296479
0.302439 0.291026 0.303029
0.509756 0.297337 0.309340
0.713362 0.303535 0.315538
0.914502 0.309658 0.321661
0.111632 0.508332 0.317947
0.326801 0.514882 0.324496
0.534118 0.521193 0.330807
0.736915 0.527372 0.337381
0.937210 0.533475 0.343897
0.134462 0.728069 0.339526
0.348726 0.734598 0.346497
0.555171 0.740888 0.353213
0.757921 0.747066 0.359808
0.958216 0.753169 0.366324
0.155210 0.945064 0.361678
0.369474 0.951593 0.368649
0.575919 0.957883 0.375364
0.778670 0.964061 0.381960
0.978964 0.970164 0.388476
0.064377 0.053806 0.477578
0.279546 0.060356 0.484128
0.486863 0.066667 0.490439
0.690469 0.072865 0.496637
0.891609 0.078987 0.502760
0.089716 0.286631 0.499906
0.304885 0.293181 0.506456
0.512201 0.299492 0.512767
0.715808 0.305690 0.518965
0.916948 0.311813 0.525087
0.114078 0.510487 0.521373
0.329247 0.517037 0.527923
0.536313 0.523342 0.534350
0.739063 0.529520 0.540946
0.939358 0.535623 0.547462
0.136610 0.730217 0.543091
0.350874 0.736746 0.550062
0.557319 0.743036 0.556778
0.760070 0.749214 0.563373
0.960364 0.755317 0.569889
0.157358 0.947212 0.565243
0.371622 0.953741 0.572213
0.578068 0.960032 0.578929
0.780818 0.966209 0.585525
0.981112 0.972312 0.592041
0.066779 0.055922 0.677324
0.281948 0.062472 0.683874
0.489265 0.068783 0.690185
0.692871 0.074981 0.696383
0.894011 0.081104 0.702506
0.092117 0.288747 0.699652
0.307286 0.295297 0.706202
0.514603 0.301608 0.712513
0.718209 0.307806 0.718711
0.919349 0.313929 0.724833
0.116479 0.512604 0.721119
0.331648 0.519154 0.727669
0.538422 0.525452 0.734232
0.741173 0.531630 0.740828
0.941467 0.537733 0.747344
0.138719 0.732327 0.742973
0.352983 0.738855 0.749943
0.559429 0.745146 0.756659
0.762179 0.751323 0.763255
0.962474 0.757426 0.769771
0.159467 0.949322 0.765125
0.373732 0.955850 0.772095
0.580177 0.962141 0.778811
0.782927 0.968319 0.785407
0.983222 0.974422 0.791923
0.069151 0.058012 0.874634
0.284320 0.064562 0.881184
0.491637 0.070873 0.887495
0.695243 0.077071 0.893693
0.896383 0.083194 0.899816
0.094489 0.290838 0.896961
0.309658 0.297388 0.903511
0.516975 0.303699 0.909822
0.720581 0.309897 0.916020
0.921722 0.316019 0.922143
0.118852 0.514694 0.918429
0.334021 0.521244 0.924979
0.540506 0.527535 0.931676
0.743256 0.533713 0.938272
0.943551 0.539816 0.944788
0.140803 0.734410 0.940417
0.355067 0.740939 0.947387
0.561512 0.747229 0.954103
0.764262 0.753407 0.960699
0.964557 0.759510 0.967215
0.161551 0.951405 0.962569
0.375815 0.957934 0.969539
0.582260 0.964224 0.976255
0.785011 0.970402 0.982851
0.985305 0.976505 0.989367
