assets/luts/generated_genre/bs_romance_sayombhu_bloom_b20918f5650d7608.cube
# V4 spec-generated LUT — bs_romance_sayombhu_bloom
# Genre: romance
# Look: Dreamy halated romance — sensual, suspended-time. Mukdeeprom/Call Me By Your Name, Suspiria.
# Spec hash: b20918f5650d7608
TITLE "V4 Spec LUT — bs_romance_sayombhu_bloom"
LUT_3D_SIZE 17
DOMAIN_MIN 0.0 0.0 0.0
DOMAIN_MAX 1.0 1.0 1.0
0.059390 0.049412 0.062805
0.114592 0.051092 0.064485
0.168588 0.052736 0.066129
0.221842 0.054357 0.067750
0.274559 0.055961 0.069355
0.326857 0.057553 0.070947
0.378809 0.059135 0.072528
0.430469 0.060707 0.074101
0.481876 0.062272 0.075666
0.533059 0.063830 0.077224
0.584043 0.065382 0.078776
0.634845 0.066929 0.080322
0.685482 0.068470 0.081864
0.735968 0.070007 0.083401
0.786314 0.071540 0.084933
0.836529 0.073068 0.086462
0.886623 0.074593 0.087987
0.065908 0.109297 0.068548
0.121109 0.110977 0.070228
0.175105 0.112621 0.071872
0.228359 0.114242 0.073493
0.281077 0.115847 0.075098
0.333374 0.117439 0.076690
0.385327 0.119020 0.078271
0.436987 0.120593 0.079844
0.488394 0.122157 0.081409
0.539577 0.123716 0.082967
0.590560 0.125268 0.084519
0.641362 0.126814 0.086065
0.692000 0.128355 0.087607
0.742486 0.129892 0.089143
0.792831 0.131425 0.090676
0.843046 0.132953 0.092205
0.893140 0.134478 0.093729
0.072266 0.167718 0.074150
0.127467 0.169398 0.075831
0.181463 0.171042 0.077474
0.234717 0.172663 0.079095
0.287435 0.174268 0.080700
0.339732 0.175860 0.082292
0.391685 0.177441 0.083874
0.443345 0.179014 0.085446
0.494752 0.180579 0.087011
0.545935 0.182137 0.088569
0.596918 0.183689 0.090121
0.647720 0.185235 0.091668
0.698358 0.186777 0.093209
0.748844 0.188314 0.094746
0.799189 0.189846 0.096278
0.849404 0.191375 0.097807
0.899498 0.192900 0.099332
0.078530 0.225282 0.079670
0.133732 0.226962 0.081351
0.187728 0.228606 0.082994
0.240982 0.230227 0.084616
0.293699 0.231832 0.086220
0.345997 0.233424 0.087812
0.397949 0.235005 0.089394
0.449609 0.236578 0.090966
0.501016 0.238143 0.092531
0.552199 0.239701 0.094089
0.603182 0.241253 0.095641
0.653985 0.242799 0.097188
0.704622 0.244341 0.098729
0.755108 0.245877 0.100266
0.805454 0.247410 0.101799
0.855669 0.248939 0.103327
0.905762 0.250463 0.104852
0.084729 0.282237 0.085132
0.139930 0.283917 0.086813
0.193926 0.285561 0.088456
0.247180 0.287182 0.090077
0.299898 0.288787 0.091682
0.352195 0.290379 0.093274
0.404148 0.291960 0.094856
0.455808 0.293533 0.096428
0.507215 0.295098 0.097993
0.558398 0.296656 0.099551
0.609381 0.298208 0.101103
0.660183 0.299754 0.102650
0.710821 0.301296 0.104191
0.761307 0.302833 0.105728
0.811652 0.304365 0.107260
0.861867 0.305894 0.108789
0.911961 0.307419 0.110314
0.090876 0.338721 0.090549
0.146077 0.340401 0.092229
0.200073 0.342045 0.093873
0.253327 0.343666 0.095494
0.306045 0.345271 0.097099
0.358342 0.346863 0.098691
0.410295 0.348444 0.100272
0.461955 0.350017 0.101845
0.513362 0.351582 0.103410
0.564545 0.353140 0.104968
0.615528 0.354692 0.106520
0.666330 0.356238 0.108066
0.716968 0.357780 0.109608
0.767454 0.359317 0.111145
0.817799 0.360849 0.112677
0.868015 0.362378 0.114206
0.918108 0.363903 0.115731
0.096981 0.394821 0.095929
0.152182 0.396501 0.097609
0.206178 0.398145 0.099253
0.259433 0.399766 0.100874
0.312150 0.401371 0.102479
0.364448 0.402963 0.104071
0.416400 0.404544 0.105652
0.468060 0.406117 0.107225
0.519467 0.407682 0.108790
0.570650 0.409240 0.110348
0.621633 0.410792 0.111900
0.672436 0.412338 0.113446
0.723073 0.413880 0.114988
0.773559 0.415417 0.116524
0.823905 0.416949 0.118057
0.874120 0.418478 0.119586
0.924213 0.420003 0.121110
0.103051 0.450597 0.101278
0.158253 0.452277 0.102958
0.212249 0.453921 0.104602
0.265503 0.455542 0.106223
0.318220 0.457147 0.107828
0.370518 0.458739 0.109420
0.422470 0.460320 0.111001
0.474130 0.461893 0.112574
0.525537 0.463458 0.114138
0.576720 0.465016 0.115696
0.627703 0.466568 0.117248
0.678506 0.468114 0.118795
0.729143 0.469656 0.120336
0.779629 0.471193 0.121873
0.829786 0.472721 0.123493
0.879790 0.474244 0.125120
0.929673 0.475764 0.126743
0.109091 0.506093 0.106600
0.164292 0.507774 0.108280
0.218288 0.509417 0.109924
0.271542 0.511038 0.111545
0.324260 0.512643 0.113149
0.376557 0.514235 0.114741
0.428510 0.515817 0.116323
0.480170 0.517389 0.117896
0.531577 0.518954 0.119460
0.582760 0.520512 0.121018
0.633670 0.522062 0.122604
0.684259 0.523604 0.124250
0.734683 0.525140 0.125890
0.784957 0.526672 0.127526
0.835091 0.528200 0.129157
0.885095 0.529723 0.130784
0.934978 0.531243 0.132406
0.115104 0.561343 0.111898
0.170305 0.563023 0.113578
0.224301 0.564667 0.115222
0.277555 0.566288 0.116843
0.330273 0.567893 0.118448
0.382570 0.569485 0.120040
0.434523 0.571066 0.121621
0.486024 0.572635 0.123268
0.537214 0.574195 0.124933
0.588182 0.575748 0.126591
0.638951 0.577295 0.128243
0.689540 0.578836 0.129888
0.739964 0.580373 0.131529
0.790238 0.581905 0.133164
0.840372 0.583432 0.134795
0.890376 0.584956 0.136422
0.940259 0.586476 0.138045
0.121093 0.616373 0.117175
0.176294 0.618053 0.118855
0.230290 0.619697 0.120499
0.283533 0.621318 0.122125
0.336029 0.622917 0.123833
0.388107 0.624504 0.125527
0.439841 0.626081 0.127210
0.491284 0.627648 0.128884
0.542474 0.629208 0.130549
0.593442 0.630761 0.132207
0.644211 0.632308 0.133859
0.694800 0.633849 0.135504
0.745225 0.635386 0.137145
0.795498 0.636918 0.138780
0.845632 0.638445 0.140411
0.895636 0.639969 0.142038
0.945519 0.641489 0.143661
0.127006 0.671203 0.122459
0.181975 0.672878 0.124247
0.235744 0.674517 0.125996
0.288774 0.676132 0.127721
0.341270 0.677732 0.129429
0.393348 0.679319 0.131123
0.445082 0.680895 0.132806
0.496525 0.682463 0.134479
0.547716 0.684022 0.136145
0.598684 0.685575 0.137803
0.649452 0.687122 0.139454
0.700041 0.688664 0.141100
0.750466 0.690200 0.142741
0.800739 0.691732 0.144376
0.850873 0.693260 0.146007
0.900878 0.694783 0.147634
0.950760 0.696303 0.149256
0.132230 0.725837 0.128036
0.187199 0.727512 0.129824
0.240968 0.729151 0.131573
0.293998 0.730766 0.133298
0.346494 0.732366 0.135006
0.398572 0.733953 0.136700
0.450306 0.735529 0.138383
0.501749 0.737097 0.140057
0.552939 0.738656 0.141722
0.603907 0.740209 0.143380
0.654676 0.741756 0.145032
0.705265 0.743298 0.146677
0.755690 0.744834 0.148318
0.805963 0.746366 0.149953
0.856097 0.747894 0.151584
0.906101 0.749417 0.153211
0.955984 0.750937 0.154834
0.137438 0.780305 0.133596
0.192407 0.781980 0.135384
0.246176 0.783619 0.137133
0.299206 0.785235 0.138859
0.351702 0.786834 0.140566
0.403780 0.788421 0.142261
0.455514 0.789997 0.143944
0.506957 0.791565 0.145617
0.558147 0.793124 0.147282
0.609115 0.794677 0.148940
0.659884 0.796224 0.150592
0.710473 0.797766 0.152238
0.760898 0.799302 0.153878
0.811171 0.800834 0.155514
0.861305 0.802362 0.157144
0.911309 0.803885 0.158771
0.961192 0.805405 0.160394
0.142631 0.834620 0.139141
0.197600 0.836295 0.140929
0.251369 0.837934 0.142678
0.304400 0.839549 0.144403
0.356895 0.841149 0.146111
0.408973 0.842736 0.147805
0.460707 0.844312 0.149488
0.512150 0.845880 0.151162
0.563341 0.847439 0.152827
0.614309 0.848992 0.154485
0.665078 0.850539 0.156137
0.715666 0.852081 0.157782
0.766091 0.853617 0.159423
0.816365 0.855149 0.161058
0.866499 0.856677 0.162689
0.916503 0.858200 0.164316
0.966386 0.859720 0.165939
0.147811 0.888793 0.144671
0.202780 0.890468 0.146459
0.256549 0.892106 0.148208
0.309579 0.893722 0.149933
0.362075 0.895322 0.151641
0.414153 0.896908 0.153335
0.465887 0.898485 0.155018
0.517330 0.900052 0.156692
0.568521 0.901612 0.158357
0.619489 0.903165 0.160015
0.670257 0.904712 0.161667
0.720846 0.906253 0.163313
0.771271 0.907790 0.164953
0.821544 0.909322 0.166588
0.871678 0.910849 0.168219
0.921683 0.912373 0.169846
0.971565 0.913893 0.171469
0.152978 0.942833 0.150188
0.207947 0.944507 0.151976
0.261716 0.946146 0.153725
0.314746 0.947762 0.155450
0.367242 0.949361 0.157158
0.419320 0.950948 0.158852
0.471054 0.952524 0.160535
0.522497 0.954092 0.162208
0.573688 0.955652 0.163874
0.624656 0.957205 0.165532
0.675424 0.958752 0.167183
0.726013 0.960293 0.168829
0.776438 0.961829 0.170470
0.826711 0.963361 0.172105
0.876845 0.964889 0.173736
0.926850 0.966412 0.175363
0.976732 0.967932 0.176985
0.060043 0.049987 0.117092
0.115244 0.051667 0.118772
0.169240 0.053311 0.120416
0.222495 0.054932 0.122037
0.275212 0.056537 0.123642
0.327509 0.058129 0.125234
0.379462 0.059710 0.126815
0.431122 0.061283 0.128388
0.482529 0.062847 0.129953
0.533712 0.064406 0.131511
0.584695 0.065957 0.133063
0.635498 0.067504 0.134609
0.686135 0.069045 0.136151
0.736621 0.070582 0.137688
0.786967 0.072115 0.139220
0.837182 0.073643 0.140749
0.887275 0.075168 0.142274
0.066560 0.109872 0.122835
0.121762 0.111552 0.124515
0.175758 0.113196 0.126159
0.229012 0.114817 0.127780
0.281729 0.116422 0.129385
0.334027 0.118014 0.130977
0.385979 0.119595 0.132558
0.437639 0.121168 0.134131
0.489046 0.122733 0.135696
0.540229 0.124291 0.137254
0.591213 0.125843 0.138806
0.642015 0.127389 0.140352
0.692652 0.128931 0.141894
0.743138 0.130467 0.143431
0.793484 0.132000 0.144963
0.843699 0.133529 0.146492
0.893793 0.135053 0.148017
0.072918 0.168293 0.128437
0.128120 0.169974 0.130118
0.182116 0.171617 0.131761
0.235370 0.173238 0.133383
0.288087 0.174843 0.134987
0.340385 0.176435 0.136579
0.392337 0.178017 0.138161
0.443997 0.179589 0.139733
0.495404 0.181154 0.141298
0.546587 0.182712 0.142856
0.597571 0.184264 0.144408
0.648373 0.185810 0.145955
0.699010 0.187352 0.147496
0.749496 0.188889 0.149033
0.799842 0.190421 0.150566
0.850057 0.191950 0.152094
0.900151 0.193475 0.153619
0.079183 0.225857 0.133958
0.134384 0.227537 0.135638
0.188380 0.229181 0.137282
0.241634 0.230802 0.138903
0.294352 0.232407 0.140508
0.346649 0.233999 0.142099
0.398602 0.235580 0.143681
0.450262 0.237153 0.145254
0.501669 0.238718 0.146818
0.552852 0.240276 0.148376
0.603835 0.241828 0.149928
0.654638 0.243374 0.151475
0.705275 0.244916 0.153016
0.755761 0.246452 0.154553
0.806107 0.247985 0.156086
0.856322 0.249514 0.157614
0.906415 0.251039 0.159139
0.085381 0.282812 0.139419
0.140583 0.284493 0.141100
0.194579 0.286136 0.142744
0.247833 0.287757 0.144365
0.300550 0.289362 0.145969
0.352848 0.290954 0.147561
0.404800 0.292536 0.149143
0.456461 0.294108 0.150715
0.507867 0.295673 0.152280
0.559050 0.297231 0.153838
0.610034 0.298783 0.155390
0.660836 0.300329 0.156937
0.711473 0.301871 0.158478
0.761959 0.303408 0.160015
0.812305 0.304940 0.161548
0.862520 0.306469 0.163076
0.912614 0.307994 0.164601
0.091529 0.339296 0.144836
0.146730 0.340977 0.146517
0.200726 0.342620 0.148160
0.253980 0.344241 0.149781
0.306698 0.345846 0.151386
0.358995 0.347438 0.152978
0.410947 0.349020 0.154560
0.462608 0.350592 0.156132
0.514014 0.352157 0.157697
0.565198 0.353715 0.159255
0.616181 0.355267 0.160807
0.666983 0.356814 0.162353
0.717621 0.358355 0.163895
0.768106 0.359892 0.165432
0.818452 0.361424 0.166964
0.868667 0.362953 0.168493
0.918761 0.364478 0.170018
0.097634 0.395396 0.150216
0.152835 0.397077 0.151896
0.206831 0.398720 0.153540
0.260085 0.400341 0.155161
0.312803 0.401946 0.156766
0.365100 0.403538 0.158358
0.417053 0.405120 0.159939
0.468713 0.406692 0.161512
0.520120 0.408257 0.163077
0.571303 0.409815 0.164635
0.622286 0.411367 0.166187
0.673088 0.412914 0.167733
0.723726 0.414455 0.169275
0.774212 0.415992 0.170812
0.824557 0.417524 0.172344
0.874773 0.419053 0.173873
0.924866 0.420578 0.175398
0.103704 0.451172 0.155565
0.158905 0.452853 0.157245
0.212901 0.454496 0.158889
0.266155 0.456117 0.160510
0.318873 0.457722 0.162115
0.371170 0.459314 0.163707
0.423123 0.460896 0.165288
0.474783 0.462468 0.166861
0.526190 0.464033 0.168426
0.577373 0.465591 0.169984
0.628356 0.467143 0.171536
0.679159 0.468690 0.173082
0.729796 0.470231 0.174624
0.780226 0.471767 0.176187
0.830360 0.473294 0.177817
0.880364 0.474818 0.179444
0.930247 0.476338 0.181067
0.109744 0.506668 0.160887
0.164945 0.508349 0.162567
0.218941 0.509992 0.164211
0.272195 0.511613 0.165832
0.324913 0.513218 0.167437
0.377210 0.514810 0.169029
0.429163 0.516392 0.170610
0.480823 0.517964 0.172183
0.532229 0.519529 0.173748
0.583413 0.521087 0.175306
0.634243 0.522636 0.176928
0.684832 0.524177 0.178574
0.735257 0.525713 0.180215
0.785530 0.527245 0.181850
0.835664 0.528773 0.183481
0.885668 0.530297 0.185108
0.935551 0.531816 0.186730
0.115757 0.561918 0.166185
0.170958 0.563598 0.167865
0.224954 0.565242 0.169509
0.278208 0.566863 0.171130
0.330925 0.568468 0.172735
0.383223 0.570060 0.174327
0.435154 0.571641 0.175918
0.486597 0.573208 0.177592
0.537788 0.574768 0.179257
0.588756 0.576321 0.180915
0.639524 0.577868 0.182567
0.690113 0.579410 0.184213
0.740538 0.580946 0.185853
0.790811 0.582478 0.187488
0.840945 0.584006 0.189119
0.890950 0.585529 0.190746
0.940832 0.587049 0.192369
0.121745 0.616948 0.171462
0.176947 0.618628 0.173143
0.230943 0.620272 0.174786
0.284106 0.621891 0.176449
0.336602 0.623491 0.178157
0.388680 0.625078 0.179851
0.440414 0.626654 0.181534
0.491857 0.628221 0.183208
0.543048 0.629781 0.184873
0.594016 0.631334 0.186531
0.644784 0.632881 0.188183
0.695373 0.634423 0.189828
0.745798 0.635959 0.191469
0.796071 0.637491 0.193104
0.846205 0.639018 0.194735
0.896210 0.640542 0.196362
0.946092 0.642062 0.197985
0.127579 0.671777 0.176783
0.182548 0.673452 0.178571
0.236317 0.675090 0.180320
0.289348 0.676706 0.182045
0.341843 0.678305 0.183753
0.393921 0.679892 0.185447
0.445655 0.681468 0.187130
0.497098 0.683036 0.188804
0.548289 0.684596 0.190469
0.599257 0.686149 0.192127
0.650026 0.687696 0.193778
0.700614 0.689237 0.195424
0.751039 0.690774 0.197065
0.801313 0.692305 0.198700
0.851447 0.693833 0.200331
0.901451 0.695357 0.201958
0.951334 0.696877 0.203580
0.132803 0.726411 0.182360
0.187772 0.728085 0.184148
0.241541 0.729724 0.185897
0.294571 0.731340 0.187622
0.347067 0.732939 0.189330
0.399145 0.734526 0.191024
0.450879 0.736102 0.192707
0.502322 0.737670 0.194381
0.553513 0.739230 0.196046
0.604481 0.740783 0.197704
0.655250 0.742330 0.199356
0.705838 0.743871 0.201001
0.756263 0.745407 0.202642
0.806537 0.746939 0.204277
0.856671 0.748467 0.205908
0.906675 0.749991 0.207535
0.956557 0.751510 0.209158
0.138011 0.780879 0.187920
0.192980 0.782554 0.189708
0.246749 0.784192 0.191458
0.299779 0.785808 0.193183
0.352275 0.787407 0.194890
0.404353 0.788994 0.196585
0.456087 0.790571 0.198268
0.507530 0.792138 0.199941
0.558721 0.793698 0.201606
0.609689 0.795251 0.203264
0.660458 0.796798 0.204916
0.711046 0.798339 0.206562
0.761471 0.799876 0.208202
0.811745 0.801407 0.209838
0.861879 0.802935 0.211469
0.911883 0.804459 0.213095
0.961766 0.805979 0.214718
0.143204 0.835194 0.193465
0.198173 0.836869 0.195253
0.251942 0.838507 0.197002
0.304973 0.840123 0.198727
0.357469 0.841722 0.200435
0.409546 0.843309 0.202129
0.461280 0.844885 0.203812
0.512723 0.846453 0.205486
0.563914 0.848013 0.207151
0.614882 0.849566 0.208809
0.665651 0.851113 0.210461
0.716240 0.852654 0.212106
0.766664 0.854191 0.213747
0.816938 0.855722 0.215382
0.867072 0.857250 0.217013
0.917076 0.858774 0.218640
0.966959 0.860294 0.220263
0.148384 0.889366 0.198995
0.203353 0.891041 0.200783
0.257122 0.892679 0.202532
0.310153 0.894295 0.204258
0.362649 0.895895 0.205965
0.414726 0.897482 0.207659
0.466460 0.899058 0.209342
0.517903 0.900625 0.211016
0.569094 0.902185 0.212681
0.620062 0.903738 0.214339
0.670831 0.905285 0.215991
0.721419 0.906827 0.217637
0.771844 0.908363 0.219277
0.822118 0.909895 0.220912
0.872252 0.911422 0.222543
0.922256 0.912946 0.224170
0.972139 0.914466 0.225793
0.153551 0.943406 0.204512
0.208520 0.945081 0.206300
0.262289 0.946719 0.208049
0.315320 0.948335 0.209774
0.367816 0.949934 0.211482
0.419893 0.951521 0.213176
0.471627 0.953098 0.214859
0.523070 0.954665 0.216533
0.574261 0.956225 0.218198
0.625229 0.957778 0.219856
0.675998 0.959325 0.221507
0.726587 0.960866 0.223153
0.777011 0.962403 0.224794
0.827285 0.963935 0.226429
0.877419 0.965462 0.228060
0.927423 0.966986 0.229687
0.977306 0.968506 0.231309
0.060681 0.050549 0.170127
0.115882 0.052229 0.171807
0.169878 0.053873 0.173451
0.223132 0.055494 0.175072
0.275850 0.057098 0.176677
0.328147 0.058690 0.178269
0.380100 0.060272 0.179850
0.431760 0.061844 0.181423
0.483167 0.063409 0.182988
0.534350 0.064967 0.184546
0.585333 0.066519 0.186098
0.636135 0.068066 0.187644
0.686773 0.069607 0.189186
0.737259 0.071144 0.190723
0.787604 0.072677 0.192255
0.837819 0.074205 0.193784
0.887913 0.075730 0.195309
0.067198 0.110434 0.175870
0.122399 0.112114 0.177550
0.176395 0.113758 0.179194
0.229649 0.115379 0.180815
0.282367 0.116984 0.182420
0.334664 0.118576 0.184012
0.386617 0.120157 0.185593
0.438277 0.121730 0.187166
0.489684 0.123294 0.188731
0.540867 0.124853 0.190289
0.591850 0.126405 0.191841
0.642653 0.127951 0.193387
0.693290 0.129492 0.194929
0.743776 0.131029 0.196466
0.794122 0.132562 0.197998
0.844337 0.134090 0.199527
0.894430 0.135615 0.201052
0.073556 0.168855 0.181472
0.128757 0.170535 0.183153
0.182753 0.172179 0.184796
0.236007 0.173800 0.186418
0.288725 0.175405 0.188022
0.341022 0.176997 0.189614
0.392975 0.178578 0.191196
0.444635 0.180151 0.192768
0.496042 0.181716 0.194333
0.547225 0.183274 0.195891
0.598208 0.184826 0.197443
0.649011 0.186372 0.198990
0.699648 0.187914 0.200531
0.750134 0.189451 0.202068
0.800480 0.190983 0.203601
0.850695 0.192512 0.205129
0.900788 0.194037 0.206654
0.079821 0.226419 0.186993
0.135022 0.228099 0.188673
0.189018 0.229743 0.190317
0.242272 0.231364 0.191938
0.294990 0.232969 0.193543
0.347287 0.234561 0.195135
0.399240 0.236142 0.196716
0.450900 0.237715 0.198289
0.502306 0.239280 0.199853
0.553490 0.240838 0.201411
0.604473 0.242390 0.202963
0.655275 0.243936 0.204510
0.705913 0.245478 0.206051
0.756399 0.247014 0.207588
0.806744 0.248547 0.209121
0.856959 0.250076 0.210649
0.907053 0.251600 0.212174
0.086019 0.283374 0.192454
0.141220 0.285054 0.194135
0.195216 0.286698 0.195779
0.248471 0.288319 0.197400
0.301188 0.289924 0.199004
0.353485 0.291516 0.200596
0.405438 0.293097 0.202178
0.457098 0.294670 0.203750
0.508505 0.296235 0.205315
0.559688 0.297793 0.206873
0.610671 0.299345 0.208425
0.661474 0.300891 0.209972
0.712111 0.302433 0.211513
0.762597 0.303970 0.213050
0.812943 0.305502 0.214583
0.863158 0.307031 0.216111
0.913251 0.308556 0.217636
0.092166 0.339858 0.197871
0.147367 0.341538 0.199552
0.201363 0.343182 0.201195
0.254618 0.344803 0.202816
0.307335 0.346408 0.204421
0.359633 0.348000 0.206013
0.411585 0.349581 0.207595
0.463245 0.351154 0.209167
0.514652 0.352719 0.210732
0.565835 0.354277 0.212290
0.616818 0.355829 0.213842
0.667621 0.357375 0.215388
0.718258 0.358917 0.216930
0.768744 0.360454 0.218467
0.819090 0.361986 0.219999
0.869305 0.363515 0.221528
0.919398 0.365040 0.223053
0.098272 0.395958 0.203251
0.153473 0.397638 0.204931
0.207469 0.399282 0.206575
0.260723 0.400903 0.208196
0.313441 0.402508 0.209801
0.365738 0.404100 0.211393
0.417690 0.405681 0.212974
0.469351 0.407254 0.214547
0.520757 0.408819 0.216112
0.571941 0.410377 0.217670
0.622924 0.411929 0.219222
0.673726 0.413475 0.220768
0.724364 0.415017 0.222310
0.774849 0.416554 0.223847
0.825195 0.418086 0.225379
0.875410 0.419615 0.226908
0.925475 0.421139 0.228446
0.104342 0.451734 0.208600
0.159543 0.453414 0.210280
0.213539 0.455058 0.211924
0.266793 0.456679 0.213545
0.319511 0.458284 0.215150
0.371808 0.459876 0.216742
0.423761 0.461457 0.218323
0.475421 0.463030 0.219896
0.526828 0.464595 0.221461
0.578011 0.466153 0.223019
0.628994 0.467705 0.224571
0.679796 0.469251 0.226117
0.730434 0.470793 0.227659
0.780786 0.472327 0.229258
0.830920 0.473854 0.230889
0.880924 0.475378 0.232515
0.930807 0.476898 0.234138
0.110381 0.507230 0.213922
0.165583 0.508911 0.215602
0.219579 0.510554 0.217246
0.272833 0.512175 0.218867
0.325550 0.513780 0.220472
0.377848 0.515372 0.222064
0.429800 0.516954 0.223645
0.481460 0.518526 0.225218
0.532867 0.520091 0.226783
0.584034 0.521649 0.228348
0.634803 0.523196 0.230000
0.685392 0.524737 0.231645
0.735817 0.526274 0.233286
0.786090 0.527805 0.234921
0.836224 0.529333 0.236552
0.886228 0.530857 0.238179
0.936111 0.532377 0.239801
0.116394 0.562480 0.219220
0.171595 0.564160 0.220900
0.225591 0.565804 0.222544
0.278846 0.567425 0.224165
0.331563 0.569030 0.225770
0.383860 0.570622 0.227362
0.435714 0.572201 0.228989
0.487157 0.573769 0.230663
0.538348 0.575328 0.232328
0.589316 0.576881 0.233986
0.640084 0.578428 0.235638
0.690673 0.579970 0.237284
0.741098 0.581506 0.238924
0.791371 0.583038 0.240559
0.841505 0.584566 0.242190
0.891510 0.586089 0.243817
0.941392 0.587609 0.245440
0.122383 0.617510 0.224497
0.177584 0.619190 0.226178
0.231580 0.620834 0.227821
0.284666 0.622451 0.229521
0.337162 0.624051 0.231228
0.389240 0.625638 0.232922
0.440974 0.627214 0.234605
0.492417 0.628781 0.236279
0.543608 0.630341 0.237944
0.594576 0.631894 0.239602
0.645345 0.633441 0.241254
0.695933 0.634983 0.242900
0.746358 0.636519 0.244540
0.796632 0.638051 0.246175
0.846766 0.639578 0.247806
0.896770 0.641102 0.249433
0.946653 0.642622 0.251056
0.128139 0.672337 0.229854
0.183108 0.674012 0.231642
0.236877 0.675650 0.233391
0.289908 0.677266 0.235116
0.342404 0.678865 0.236824
0.394481 0.680452 0.238518
0.446215 0.682028 0.240201
0.497658 0.683596 0.241875
0.548849 0.685156 0.243540
0.599817 0.686709 0.245198
0.650586 0.688256 0.246850
0.701174 0.689797 0.248495
0.751599 0.691334 0.250136
0.801873 0.692865 0.251771
0.852007 0.694393 0.253402
0.902011 0.695917 0.255029
0.951894 0.697437 0.256652
0.133363 0.726971 0.235431
0.188332 0.728646 0.237219
0.242101 0.730284 0.238968
0.295131 0.731900 0.240693
0.347627 0.733499 0.242401
0.399705 0.735086 0.244095
0.451439 0.736662 0.245778
0.502882 0.738230 0.247452
0.554073 0.739790 0.249117
0.605041 0.741343 0.250775
0.655810 0.742890 0.252427
0.706398 0.744431 0.254073
0.756823 0.745968 0.255713
0.807097 0.747499 0.257348
0.857231 0.749027 0.258979
0.907235 0.750551 0.260606
0.957118 0.752071 0.262229
0.138571 0.781439 0.240991
0.193540 0.783114 0.242779
0.247309 0.784752 0.244529
0.300340 0.786368 0.246254
0.352835 0.787967 0.247962
0.404913 0.789554 0.249656
0.456647 0.791131 0.251339
0.508090 0.792698 0.253012
0.559281 0.794258 0.254677
0.610249 0.795811 0.256336
0.661018 0.797358 0.257987
0.711606 0.798899 0.259633
0.762031 0.800436 0.261273
0.812305 0.801967 0.262909
0.862439 0.803495 0.264540
0.912443 0.805019 0.266166
0.962326 0.806539 0.267789
0.143764 0.835754 0.246536
0.198734 0.837429 0.248324
0.252503 0.839067 0.250073
0.305533 0.840683 0.251798
0.358029 0.842282 0.253506
0.410106 0.843869 0.255200
0.461840 0.845445 0.256883
0.513283 0.847013 0.258557
0.564474 0.848573 0.260222
0.615442 0.850126 0.261880
0.666211 0.851673 0.263532
0.716800 0.853214 0.265178
0.767224 0.854751 0.266818
0.817498 0.856282 0.268453
0.867632 0.857810 0.270084
0.917636 0.859334 0.271711
0.967519 0.860854 0.273334
0.148944 0.889926 0.252066
0.203913 0.891601 0.253854
0.257682 0.893239 0.255603
0.310713 0.894855 0.257329
0.363209 0.896455 0.259036
0.415286 0.898042 0.260731
0.467020 0.899618 0.262414
0.518463 0.901185 0.264087
0.569654 0.902745 0.265752
0.620622 0.904298 0.267410
0.671391 0.905845 0.269062
0.721980 0.907387 0.270708
0.772404 0.908923 0.272348
0.822678 0.910455 0.273984
0.872812 0.911983 0.275614
0.922816 0.913506 0.277241
0.972699 0.915026 0.278864
0.154111 0.943966 0.257583
0.209080 0.945641 0.259371
0.262849 0.947279 0.261120
0.315880 0.948895 0.262845
0.368376 0.950494 0.264553
0.420453 0.952081 0.266247
0.472187 0.953658 0.267930
0.523630 0.955225 0.269604
0.574821 0.956785 0.271269
0.625789 0.958338 0.272927
0.676558 0.959885 0.274579
0.727147 0.961426 0.276224
0.777571 0.962963 0.277865
0.827845 0.964495 0.279500
0.877979 0.966022 0.281131
0.927983 0.967546 0.282758
0.977866 0.969066 0.284381
0.061309 0.051102 0.222409
0.116511 0.052783 0.224090
0.170507 0.054426 0.225733
0.223761 0.056048 0.227354
0.276478 0.057652 0.228959
0.328776 0.059244 0.230551
0.380728 0.060826 0.232133
0.432388 0.062398 0.233705
0.483795 0.063963 0.235270
0.534978 0.065521 0.236828
