assets/luts/generated_genre/bs_scifi_blade_runner_amber_7c266fb156c78479.cube
# V4 spec-generated LUT — bs_scifi_blade_runner_amber
# Genre: sci-fi
# Look: Mythic monumental sci-fi — amber midtones, world-weary green highlights. Deakins/BR2049, van Hoytema
# Spec hash: 7c266fb156c78479
TITLE "V4 Spec LUT — bs_scifi_blade_runner_amber"
LUT_3D_SIZE 17
DOMAIN_MIN 0.0 0.0 0.0
DOMAIN_MAX 1.0 1.0 1.0
0.004535 0.000035 0.000000
0.025009 0.000687 0.000000
0.082283 0.002512 0.000000
0.141502 0.004399 0.000000
0.201798 0.006320 0.000000
0.262852 0.008265 0.000000
0.324494 0.010229 0.000000
0.386617 0.012208 0.000000
0.449149 0.014201 0.000000
0.512036 0.016204 0.000976
0.575237 0.018218 0.002215
0.638719 0.020240 0.003458
0.702457 0.022271 0.004707
0.766429 0.024309 0.005960
0.830617 0.026355 0.007217
0.895005 0.028406 0.008479
0.959581 0.030463 0.009744
0.007152 0.021925 0.000000
0.027626 0.022577 0.000000
0.084900 0.024402 0.000000
0.144119 0.026289 0.000000
0.204415 0.028210 0.000000
0.265469 0.030155 0.000000
0.327111 0.032119 0.000000
0.389234 0.034099 0.000000
0.451766 0.036091 0.001094
0.514653 0.038095 0.002326
0.577854 0.040108 0.003564
0.641336 0.042131 0.004807
0.705074 0.044162 0.006056
0.769046 0.046200 0.007309
0.833234 0.048245 0.008567
0.897622 0.050296 0.009828
0.962198 0.052354 0.011093
0.014473 0.083162 0.000000
0.034947 0.083814 0.000000
0.092221 0.085639 0.000000
0.151440 0.087526 0.000000
0.211736 0.089447 0.000023
0.272790 0.091392 0.001219
0.334432 0.093356 0.002426
0.396555 0.095336 0.003643
0.459087 0.097328 0.004868
0.521974 0.099332 0.006100
0.585175 0.101345 0.007338
0.648657 0.103368 0.008582
0.712395 0.105399 0.009830
0.776367 0.107437 0.011084
0.840555 0.109482 0.012341
0.904943 0.111533 0.013602
0.969519 0.113591 0.014867
0.022042 0.146479 0.000061
0.042516 0.147131 0.000462
0.099791 0.148956 0.001584
0.159010 0.150843 0.002744
0.219306 0.152764 0.003925
0.280360 0.154709 0.005121
0.342002 0.156673 0.006329
0.404125 0.158652 0.007546
0.466657 0.160645 0.008771
0.529543 0.162648 0.010003
0.592744 0.164662 0.011241
0.656227 0.166684 0.012484
0.719965 0.168715 0.013733
0.783937 0.170753 0.014986
0.848125 0.172798 0.016244
0.912513 0.174850 0.017505
0.977088 0.176907 0.018770
0.029750 0.210946 0.004035
0.050223 0.211598 0.004436
0.107498 0.213423 0.005558
0.166717 0.215310 0.006718
0.227013 0.217231 0.007899
0.288067 0.219176 0.009095
0.349709 0.221140 0.010302
0.411832 0.223120 0.011519
0.474364 0.225112 0.012744
0.537251 0.227116 0.013976
0.600451 0.229129 0.015214
0.663934 0.231152 0.016458
0.727672 0.233183 0.017707
0.791644 0.235221 0.018960
0.855832 0.237266 0.020217
0.920220 0.239317 0.021479
0.984795 0.241375 0.022744
0.037554 0.276224 0.008058
0.058028 0.276876 0.008459
0.115302 0.278701 0.009581
0.174521 0.280588 0.010741
0.234817 0.282509 0.011922
0.295871 0.284454 0.013118
0.357513 0.286418 0.014326
0.419636 0.288398 0.015543
0.482168 0.290390 0.016768
0.545055 0.292393 0.018000
0.608256 0.294407 0.019238
0.671738 0.296430 0.020482
0.735476 0.298460 0.021730
0.799448 0.300499 0.022983
0.863636 0.302544 0.024241
0.928024 0.304595 0.025502
0.992599 0.306653 0.026767
0.045433 0.342131 0.012120
0.065907 0.342783 0.012521
0.123181 0.344608 0.013643
0.182401 0.346494 0.014803
0.242697 0.348416 0.015985
0.303750 0.350361 0.017181
0.365392 0.352325 0.018388
0.427516 0.354304 0.019605
0.490047 0.356296 0.020830
0.552934 0.358300 0.022062
0.616135 0.360314 0.023300
0.679617 0.362336 0.024544
0.743355 0.364367 0.025792
0.807327 0.366405 0.027046
0.871515 0.368450 0.028303
0.935904 0.370502 0.029564
1.000000 0.372559 0.030829
0.053374 0.408552 0.016214
0.073848 0.409204 0.016615
0.131122 0.411029 0.017737
0.190341 0.412916 0.018897
0.250637 0.414837 0.020079
0.311691 0.416782 0.021275
0.373333 0.418746 0.022482
0.435456 0.420726 0.023699
0.497988 0.422718 0.024924
0.560875 0.424722 0.026156
0.624076 0.426735 0.027394
0.687558 0.428758 0.028638
0.751296 0.430789 0.029886
0.815268 0.432827 0.031140
0.879456 0.434872 0.032397
0.943844 0.436923 0.033658
1.000000 0.438699 0.035298
0.061367 0.475410 0.020335
0.081841 0.476062 0.020736
0.139115 0.477887 0.021858
0.198334 0.479774 0.023018
0.258630 0.481695 0.024200
0.319684 0.483640 0.025396
0.381326 0.485604 0.026603
0.443449 0.487584 0.027820
0.505981 0.489576 0.029045
0.568868 0.491580 0.030277
0.632069 0.493593 0.031515
0.695551 0.495616 0.032759
0.759289 0.497647 0.034007
0.822037 0.499282 0.035796
0.884855 0.500876 0.037653
0.947869 0.502475 0.039515
1.000000 0.504079 0.041383
0.069405 0.542648 0.024479
0.089879 0.543300 0.024881
0.147153 0.545125 0.026003
0.206373 0.547012 0.027163
0.266669 0.548933 0.028344
0.327723 0.550878 0.029540
0.389364 0.552842 0.030747
0.451488 0.554821 0.031964
0.514020 0.556814 0.033189
0.576596 0.558715 0.034557
0.638448 0.560285 0.036385
0.700576 0.561862 0.038221
0.762954 0.563445 0.040065
0.825561 0.565034 0.041916
0.888379 0.566628 0.043772
0.951393 0.568227 0.045635
1.000000 0.569831 0.047503
0.077484 0.610221 0.028644
0.097958 0.610873 0.029046
0.155232 0.612698 0.030168
0.214451 0.614585 0.031328
0.274747 0.616506 0.032509
0.335801 0.618451 0.033705
0.396598 0.620137 0.035282
0.457396 0.621680 0.037079
0.518593 0.623233 0.038888
0.580138 0.624795 0.040707
0.641990 0.626365 0.042535
0.704117 0.627941 0.044372
0.766495 0.629525 0.046215
0.829102 0.631113 0.048066
0.891920 0.632708 0.049923
0.954934 0.634307 0.051785
1.000000 0.635911 0.053653
0.085598 0.678096 0.032828
0.106072 0.678748 0.033229
0.163113 0.680496 0.034453
0.221069 0.681967 0.036166
0.280078 0.683464 0.037910
0.339829 0.684981 0.039677
0.400155 0.686512 0.041460
0.460953 0.688055 0.043257
0.522150 0.689608 0.045066
0.583695 0.691170 0.046885
0.645547 0.692739 0.048713
0.707674 0.694316 0.050549
0.770052 0.695899 0.052393
0.832659 0.697488 0.054244
0.895477 0.699082 0.056100
0.958491 0.700681 0.057963
1.000000 0.702285 0.059831
0.090595 0.745207 0.038407
0.110632 0.745715 0.038999
0.166684 0.747138 0.040656
0.224640 0.748608 0.042369
0.283649 0.750106 0.044113
0.343400 0.751622 0.045879
0.403726 0.753153 0.047662
0.464524 0.754696 0.049459
0.525721 0.756249 0.051268
0.587266 0.757811 0.053087
0.649118 0.759381 0.054915
0.711246 0.760958 0.056752
0.773624 0.762541 0.058596
0.836230 0.764130 0.060446
0.899049 0.765724 0.062303
0.962063 0.767323 0.064165
1.000000 0.768927 0.066033
0.094180 0.812093 0.044632
0.114217 0.812602 0.045224
0.170269 0.814024 0.046881
0.228225 0.815495 0.048594
0.287234 0.816992 0.050338
0.346984 0.818509 0.052104
0.407311 0.820040 0.053887
0.468108 0.821583 0.055685
0.529306 0.823136 0.057493
0.590850 0.824698 0.059313
0.652702 0.826267 0.061141
0.714830 0.827844 0.062977
0.777208 0.829427 0.064821
0.839815 0.831016 0.066671
0.902633 0.832610 0.068528
0.965647 0.834209 0.070391
1.000000 0.835813 0.072259
0.097776 0.879205 0.050878
0.117813 0.879714 0.051471
0.173865 0.881136 0.053127
0.231821 0.882607 0.054840
0.290830 0.884104 0.056585
0.350581 0.885621 0.058351
0.410907 0.887152 0.060134
0.471705 0.888695 0.061931
0.532902 0.890248 0.063740
0.594447 0.891810 0.065559
0.656299 0.893379 0.067387
0.718427 0.894956 0.069223
0.780805 0.896539 0.071067
0.843411 0.898128 0.072918
0.906229 0.899722 0.074774
0.969244 0.901321 0.076637
1.000000 0.902925 0.078505
0.101384 0.946526 0.057144
0.121421 0.947035 0.057736
0.177473 0.948458 0.059393
0.235429 0.949928 0.061106
0.294438 0.951426 0.062850
0.354189 0.952942 0.064616
0.414515 0.954473 0.066400
0.475313 0.956016 0.068197
0.536510 0.957569 0.070005
0.598055 0.959131 0.071825
0.659907 0.960701 0.073653
0.722034 0.962278 0.075489
0.784412 0.963861 0.077333
0.847019 0.965449 0.079183
0.909837 0.967044 0.081040
0.972851 0.968643 0.082903
1.000000 0.970247 0.084771
0.105002 1.000000 0.063428
0.125039 1.000000 0.064020
0.181091 1.000000 0.065677
0.239047 1.000000 0.067390
0.298056 1.000000 0.069134
0.357807 1.000000 0.070900
0.418133 1.000000 0.072684
0.478931 1.000000 0.074481
0.540128 1.000000 0.076289
0.601673 1.000000 0.078109
0.663525 1.000000 0.079937
0.725653 1.000000 0.081773
0.788030 1.000000 0.083617
0.850637 1.000000 0.085467
0.913455 1.000000 0.087324
0.976470 1.000000 0.089187
1.000000 1.000000 0.091055
0.004799 0.000256 0.010867
0.025273 0.000909 0.011268
0.082547 0.002733 0.012390
0.141767 0.004620 0.013550
0.202062 0.006541 0.014731
0.263116 0.008486 0.015927
0.324758 0.010450 0.017135
0.386882 0.012430 0.018352
0.449413 0.014422 0.019577
0.512300 0.016426 0.020809
0.575501 0.018439 0.022047
0.638983 0.020462 0.023290
0.702721 0.022493 0.024539
0.766693 0.024531 0.025792
0.830881 0.026576 0.027050
0.895270 0.028628 0.028311
0.959845 0.030685 0.029576
0.007416 0.022147 0.012216
0.027890 0.022799 0.012617
0.085164 0.024624 0.013739
0.144384 0.026511 0.014899
0.204680 0.028432 0.016080
0.265733 0.030377 0.017276
0.327375 0.032341 0.018484
0.389499 0.034320 0.019701
0.452030 0.036312 0.020926
0.514917 0.038316 0.022158
0.578118 0.040330 0.023396
0.641600 0.042352 0.024640
0.705338 0.044383 0.025888
0.769310 0.046421 0.027141
0.833498 0.048466 0.028399
0.897887 0.050518 0.029660
0.962462 0.052575 0.030925
0.014737 0.083384 0.015991
0.035211 0.084036 0.016392
0.092485 0.085861 0.017514
0.151705 0.087748 0.018674
0.212001 0.089669 0.019855
0.273054 0.091614 0.021051
0.334696 0.093578 0.022258
0.396820 0.095557 0.023475
0.459351 0.097549 0.024700
0.522238 0.099553 0.025932
0.585439 0.101567 0.027170
0.648921 0.103589 0.028414
0.712659 0.105620 0.029663
0.776631 0.107658 0.030916
0.840819 0.109703 0.032173
0.905208 0.111755 0.033435
0.969783 0.113812 0.034700
0.022307 0.146700 0.019893
0.042780 0.147353 0.020294
0.100055 0.149177 0.021416
0.159274 0.151064 0.022576
0.219570 0.152985 0.023757
0.280624 0.154930 0.024954
0.342266 0.156894 0.026161
0.404389 0.158874 0.027378
0.466921 0.160866 0.028603
0.529808 0.162870 0.029835
0.593008 0.164883 0.031073
0.656491 0.166906 0.032317
0.720229 0.168937 0.033565
0.784201 0.170975 0.034818
0.848389 0.173020 0.036076
0.912777 0.175071 0.037337
0.977352 0.177129 0.038602
0.030014 0.211168 0.023867
0.050488 0.211820 0.024268
0.107762 0.213645 0.025390
0.166982 0.215532 0.026550
0.227277 0.217453 0.027731
0.288331 0.219398 0.028927
0.349973 0.221362 0.030135
0.412096 0.223341 0.031352
0.474628 0.225334 0.032577
0.537515 0.227337 0.033808
0.600716 0.229351 0.035047
0.664198 0.231373 0.036290
0.727936 0.233404 0.037539
0.791908 0.235442 0.038792
0.856096 0.237487 0.040049
0.920484 0.239539 0.041311
0.985060 0.241596 0.042576
0.037818 0.276445 0.027890
0.058292 0.277098 0.028291
0.115566 0.278923 0.029413
0.174786 0.280809 0.030573
0.235081 0.282731 0.031755
0.296135 0.284676 0.032951
0.357777 0.286640 0.034158
0.419900 0.288619 0.035375
0.482432 0.290611 0.036600
0.545319 0.292615 0.037832
0.608520 0.294629 0.039070
0.672002 0.296651 0.040314
0.735740 0.298682 0.041562
0.799712 0.300720 0.042815
0.863900 0.302765 0.044073
0.928289 0.304817 0.045334
0.992864 0.306874 0.046599
0.045697 0.342352 0.031952
0.066171 0.343004 0.032354
0.123445 0.344829 0.033476
0.182665 0.346716 0.034636
0.242961 0.348637 0.035817
0.304014 0.350582 0.037013
0.365656 0.352546 0.038220
0.427780 0.354526 0.039437
0.490312 0.356518 0.040662
0.553198 0.358522 0.041894
0.616399 0.360535 0.043132
0.679881 0.362558 0.044376
0.743620 0.364589 0.045625
0.807592 0.366627 0.046878
0.871780 0.368672 0.048135
0.936168 0.370723 0.049397
1.000000 0.372781 0.050662
0.053638 0.408774 0.036046
0.074112 0.409426 0.036448
0.131386 0.411251 0.037570
0.190606 0.413137 0.038730
0.250902 0.415059 0.039911
0.311955 0.417004 0.041107
0.373597 0.418968 0.042314
0.435721 0.420947 0.043531
0.498252 0.422939 0.044756
0.561139 0.424943 0.045988
0.624340 0.426957 0.047226
0.687822 0.428979 0.048470
0.751560 0.431010 0.049719
0.815532 0.433048 0.050972
0.879720 0.435093 0.052229
0.944109 0.437145 0.053491
1.000000 0.438871 0.055195
0.061631 0.475632 0.040167
0.082105 0.476284 0.040568
0.139379 0.478109 0.041690
0.198599 0.479996 0.042851
0.258895 0.481917 0.044032
0.319948 0.483862 0.045228
0.381590 0.485826 0.046435
0.443714 0.487805 0.047652
0.506245 0.489798 0.048877
0.569132 0.491801 0.050109
0.632333 0.493815 0.051347
0.695815 0.495837 0.052591
0.759546 0.497866 0.053843
0.822153 0.499455 0.055693
0.884971 0.501049 0.057550
0.947985 0.502648 0.059412
1.000000 0.504252 0.061280
0.069669 0.542869 0.044312
0.090143 0.543522 0.044713
0.147418 0.545346 0.045835
0.206637 0.547233 0.046995
0.266933 0.549154 0.048176
0.327987 0.551099 0.049372
0.389629 0.553063 0.050580
0.451752 0.555043 0.051797
0.514284 0.557035 0.053022
0.576712 0.558888 0.054454
0.638564 0.560458 0.056282
0.700692 0.562034 0.058119
0.763070 0.563617 0.059962
0.825677 0.565206 0.061813
0.888495 0.566800 0.063670
0.951509 0.568400 0.065532
1.000000 0.570003 0.067400
0.077748 0.610443 0.048477
0.098222 0.611095 0.048878
0.155496 0.612920 0.050000
0.214716 0.614806 0.051160
0.275011 0.616728 0.052341
0.336065 0.618673 0.053537
0.396714 0.620310 0.055179
0.457512 0.621853 0.056976
0.518709 0.623406 0.058785
0.580253 0.624968 0.060604
0.642105 0.626537 0.062432
0.704233 0.628114 0.064269
0.766611 0.629697 0.066113
0.829218 0.631286 0.067963
0.892036 0.632880 0.069820
0.955050 0.634479 0.071682
1.000000 0.636083 0.073550
0.085862 0.678317 0.052660
0.106336 0.678969 0.053061
0.163229 0.680669 0.054350
0.221185 0.682139 0.056063
0.280194 0.683637 0.057808
0.339945 0.685153 0.059574
0.400271 0.686684 0.061357
0.461069 0.688227 0.063154
0.522266 0.689780 0.064963
0.583810 0.691342 0.066782
0.645662 0.692912 0.068610
0.707790 0.694489 0.070446
0.770168 0.696072 0.072290
0.832775 0.697661 0.074141
0.895593 0.699255 0.075997
0.958607 0.700854 0.077860
1.000000 0.702458 0.079728
0.090711 0.745379 0.058304
0.110748 0.745888 0.058896
0.166800 0.747310 0.060553
0.224756 0.748781 0.062266
0.283765 0.750279 0.064010
0.343516 0.751795 0.065776
0.403842 0.753326 0.067559
0.464640 0.754869 0.069356
0.525837 0.756422 0.071165
0.587382 0.757984 0.072984
0.649234 0.759554 0.074813
0.711361 0.761130 0.076649
0.773739 0.762713 0.078493
0.836346 0.764302 0.080343
0.899164 0.765896 0.082200
0.962178 0.767496 0.084063
1.000000 0.769099 0.085931
0.094296 0.812266 0.064529
0.114333 0.812774 0.065121
0.170385 0.814197 0.066778
0.228340 0.815668 0.068491
0.287349 0.817165 0.070235
0.347100 0.818681 0.072001
0.407427 0.820212 0.073785
0.468224 0.821755 0.075582
0.529422 0.823308 0.077391
0.590966 0.824870 0.079210
0.652818 0.826440 0.081038
0.714946 0.828017 0.082874
0.777324 0.829600 0.084718
0.839931 0.831189 0.086569
0.902749 0.832783 0.088425
0.965763 0.834382 0.090288
1.000000 0.835986 0.092156
0.097892 0.879378 0.070775
0.117929 0.879886 0.071368
0.173981 0.881309 0.073024
0.231937 0.882780 0.074737
0.290946 0.884277 0.076482
0.350697 0.885793 0.078248
0.411023 0.887324 0.080031
0.471821 0.888867 0.081828
0.533018 0.890420 0.083637
0.594563 0.891982 0.085456
0.656415 0.893552 0.087284
0.718542 0.895129 0.089121
0.780920 0.896712 0.090964
0.843527 0.898301 0.092815
0.906345 0.899895 0.094672
0.969359 0.901494 0.096534
1.000000 0.903098 0.098402
0.101500 0.946699 0.077041
0.121537 0.947208 0.077633
0.177589 0.948630 0.079290
0.235545 0.950101 0.081003
0.294554 0.951599 0.082747
0.354305 0.953115 0.084514
0.414631 0.954646 0.086297
0.475429 0.956189 0.088094
0.536626 0.957742 0.089903
0.598171 0.959304 0.091722
0.660022 0.960874 0.093550
0.722150 0.962450 0.095386
0.784528 0.964033 0.097230
0.847135 0.965622 0.099081
0.909953 0.967216 0.100937
0.972967 0.968816 0.102800
1.000000 0.970419 0.104668
0.105118 1.000000 0.083325
0.125155 1.000000 0.083917
0.181207 1.000000 0.085574
0.239163 1.000000 0.087287
0.298172 1.000000 0.089031
0.357923 1.000000 0.090798
0.418249 1.000000 0.092581
0.479047 1.000000 0.094378
0.540244 1.000000 0.096187
0.601789 1.000000 0.098006
0.663641 1.000000 0.099834
0.725768 1.000000 0.101670
0.788146 1.000000 0.103514
0.850753 1.000000 0.105365
0.913571 1.000000 0.107221
0.976585 1.000000 0.109084
1.000000 1.000000 0.110952
0.005538 0.000876 0.066346
0.026012 0.001528 0.066747
0.083286 0.003353 0.067869
0.142506 0.005240 0.069029
0.202802 0.007161 0.070210
0.263855 0.009106 0.071406
0.325497 0.011070 0.072614
0.387621 0.013049 0.073831
0.450152 0.015042 0.075056
0.513039 0.017045 0.076288
0.576240 0.019059 0.077526
0.639722 0.021082 0.078769
0.703460 0.023112 0.080018
0.767432 0.025151 0.081271
0.831620 0.027196 0.082529
0.896009 0.029247 0.083790
0.960584 0.031305 0.085055
0.008155 0.022766 0.067695
0.028629 0.023419 0.068096
0.085903 0.025243 0.069218
0.145123 0.027130 0.070378
0.205419 0.029051 0.071560
0.266472 0.030997 0.072756
0.328114 0.032961 0.073963
0.390238 0.034940 0.075180
0.452769 0.036932 0.076405
0.515656 0.038936 0.077637
0.578857 0.040949 0.078875
0.642339 0.042972 0.080119
0.706077 0.045003 0.081367
0.770050 0.047041 0.082621
0.834237 0.049086 0.083878
0.898626 0.051138 0.085139
0.963201 0.053195 0.086404
0.015476 0.084003 0.071470
0.035950 0.084656 0.071871
0.093224 0.086480 0.072993
0.152444 0.088367 0.074153
0.212740 0.090288 0.075334
0.273793 0.092234 0.076530
0.335435 0.094198 0.077738
0.397559 0.096177 0.078955
0.460090 0.098169 0.080180
0.522977 0.100173 0.081411
0.586178 0.102186 0.082650
0.649660 0.104209 0.083893
0.713398 0.106240 0.085142
0.777371 0.108278 0.086395
0.841558 0.110323 0.087652
0.905947 0.112375 0.088914
0.970522 0.114432 0.090179
0.023046 0.147320 0.075372
0.043520 0.147972 0.075773
0.100794 0.149797 0.076895
0.160013 0.151684 0.078055
0.220309 0.153605 0.079237
0.281363 0.155550 0.080433
0.343005 0.157514 0.081640
0.405128 0.159493 0.082857
0.467660 0.161486 0.084082
0.530547 0.163489 0.085314
0.593747 0.165503 0.086552
0.657230 0.167526 0.087796
0.720968 0.169556 0.089044
0.784940 0.171595 0.090298
0.849128 0.173640 0.091555
0.913516 0.175691 0.092816
0.978091 0.177749 0.094081
0.030753 0.211787 0.079346
0.051227 0.212440 0.079747
0.108501 0.214264 0.080869
0.167721 0.216151 0.082029
0.228016 0.218072 0.083210
0.289070 0.220018 0.084406
0.350712 0.221982 0.085614
0.412835 0.223961 0.086831
0.475367 0.225953 0.088056
0.538254 0.227957 0.089288
0.601455 0.229970 0.090526
0.664937 0.231993 0.091769
0.728675 0.234024 0.093018
0.792647 0.236062 0.094271
0.856835 0.238107 0.095529
0.921223 0.240159 0.096790
0.985799 0.242216 0.098055
0.038557 0.277065 0.083369
0.059031 0.277718 0.083770
0.116305 0.279542 0.084892
0.175525 0.281429 0.086053
0.235820 0.283350 0.087234
0.296874 0.285295 0.088430
0.358516 0.287259 0.089637
0.420640 0.289239 0.090854
0.483171 0.291231 0.092079
0.546058 0.293235 0.093311
0.609259 0.295248 0.094549
0.672741 0.297271 0.095793
0.736479 0.299302 0.097041
0.800451 0.301340 0.098295
0.864639 0.303385 0.099552
0.929028 0.305437 0.100813
0.993603 0.307494 0.102078
0.046436 0.342972 0.087432
0.066910 0.343624 0.087833
0.124184 0.345449 0.088955
0.183404 0.347336 0.090115
0.243700 0.349257 0.091296
0.304754 0.351202 0.092492
0.366395 0.353166 0.093700
0.428519 0.355145 0.094917
0.491051 0.357138 0.096141
0.553937 0.359141 0.097373
0.617138 0.361155 0.098612
0.680621 0.363178 0.099855
0.744359 0.365208 0.101104
0.808331 0.367247 0.102357
0.872519 0.369292 0.103614
0.936907 0.371343 0.104876
1.000000 0.373401 0.106141
0.054377 0.409393 0.091526
0.074851 0.410046 0.091927
0.132125 0.411870 0.093049
0.191345 0.413757 0.094209
0.251641 0.415678 0.095390
0.312694 0.417624 0.096586
0.374336 0.419587 0.097794
0.436460 0.421567 0.099011
0.498991 0.423559 0.100235
0.561878 0.425563 0.101467
0.625079 0.427576 0.102706
0.688561 0.429599 0.103949
0.752299 0.431630 0.105198
0.816272 0.433668 0.106451
0.880459 0.435713 0.107708
0.944806 0.437751 0.108988
1.000000 0.439355 0.110856
0.062370 0.476251 0.095647
0.082844 0.476904 0.096048
0.140118 0.478729 0.097170
0.199338 0.480615 0.098330
0.259634 0.482536 0.099511
0.320687 0.484482 0.100707
0.382329 0.486446 0.101914
0.444453 0.488425 0.103131
0.506984 0.490417 0.104356
0.569871 0.492421 0.105588
0.633072 0.494435 0.106826
0.696554 0.496457 0.108070
0.759870 0.498349 0.109503
0.822477 0.499938 0.111354
0.885295 0.501532 0.113211
0.948309 0.503131 0.115073
1.000000 0.504735 0.116941
0.070408 0.543489 0.099791
0.090882 0.544141 0.100192
0.148157 0.545966 0.101314
0.207376 0.547853 0.102474
0.267672 0.549774 0.103655
0.328726 0.551719 0.104851
0.390368 0.553683 0.106059
0.452491 0.555662 0.107276
0.515023 0.557655 0.108501
0.577036 0.559371 0.110115
0.638888 0.560941 0.111943
0.701016 0.562517 0.113779
0.763394 0.564100 0.115623
0.826001 0.565689 0.117474
0.888819 0.567284 0.119330
0.951833 0.568883 0.121193
1.000000 0.570487 0.123061
0.078487 0.611062 0.103956
0.098961 0.611715 0.104357
0.156235 0.613539 0.105479
0.215455 0.615426 0.106639
0.275750 0.617347 0.107820
0.336712 0.619262 0.109057
0.397038 0.620793 0.110840
0.457835 0.622336 0.112637
0.519033 0.623889 0.114446
0.580577 0.625451 0.116265
0.642429 0.627021 0.118093
0.704557 0.628597 0.119930
0.766935 0.630180 0.121773
0.829542 0.631769 0.123624
0.892360 0.633363 0.125481
0.955374 0.634963 0.127343
1.000000 0.636566 0.129211
0.086601 0.678937 0.108139
0.107075 0.679589 0.108540
0.163553 0.681152 0.110011
0.221509 0.682623 0.111724
0.280518 0.684120 0.113468
0.340269 0.685636 0.115234
0.400595 0.687167 0.117018
0.461392 0.688710 0.118815
0.522590 0.690263 0.120623
0.584134 0.691825 0.122443
0.645986 0.693395 0.124271
0.708114 0.694972 0.126107
0.770492 0.696555 0.127951
0.833099 0.698144 0.129801
0.895917 0.699738 0.131658
0.958931 0.701337 0.133521
1.000000 0.702941 0.135389
0.091035 0.745862 0.113965
0.111072 0.746371 0.114557
0.167124 0.747793 0.116214
0.225080 0.749264 0.117927
0.284089 0.750762 0.119671
0.343840 0.752278 0.121437
0.404166 0.753809 0.123220
0.464964 0.755352 0.125017
0.526161 0.756905 0.126826
0.587706 0.758467 0.128645
0.649558 0.760037 0.130473
0.711685 0.761613 0.132310
0.774063 0.763196 0.134153
0.836670 0.764785 0.136004
0.899488 0.766380 0.137861
0.962502 0.767979 0.139723
1.000000 0.769583 0.141591
0.094620 0.812749 0.120190
0.114657 0.813257 0.120782
0.170709 0.814680 0.122439
0.228664 0.816151 0.124152
0.287673 0.817648 0.125896
0.347424 0.819165 0.127662
0.407751 0.820696 0.129445
0.468548 0.822238 0.131242
0.529746 0.823792 0.133051
0.591290 0.825353 0.134870
0.653142 0.826923 0.136699
0.715270 0.828500 0.138535
0.777648 0.830083 0.140379
0.840255 0.831672 0.142229
0.903073 0.833266 0.144086
0.966087 0.834865 0.145949
1.000000 0.836469 0.147817
0.098216 0.879861 0.126436
0.118253 0.880369 0.127028
0.174305 0.881792 0.128685
0.232261 0.883263 0.130398
0.291270 0.884760 0.132142
0.351021 0.886277 0.133909
0.411347 0.887808 0.135692
0.472145 0.889350 0.137489
0.533342 0.890904 0.139298
0.594887 0.892465 0.141117
0.656739 0.894035 0.142945
0.718866 0.895612 0.144781
0.781244 0.897195 0.146625
0.843851 0.898784 0.148476
0.906669 0.900378 0.150332
0.969683 0.901977 0.152195
1.000000 0.903581 0.154063
0.101824 0.947182 0.132702
0.121861 0.947691 0.133294
0.177913 0.949113 0.134951
0.235869 0.950584 0.136664
0.294878 0.952082 0.138408
0.354629 0.953598 0.140174
0.414955 0.955129 0.141957
0.475753 0.956672 0.143755
0.536950 0.958225 0.145563
0.598494 0.959787 0.147383
0.660346 0.961357 0.149211
0.722474 0.962933 0.151047
0.784852 0.964516 0.152891
0.847459 0.966105 0.154741
0.910277 0.967699 0.156598
0.973291 0.969299 0.158461
1.000000 0.970902 0.160329
0.105442 1.000000 0.138986
0.125479 1.000000 0.139578
0.181531 1.000000 0.141235
0.239487 1.000000 0.142948
0.298496 1.000000 0.144692
0.358247 1.000000 0.146458
0.418573 1.000000 0.148241
0.479371 1.000000 0.150038
0.540568 1.000000 0.151847
0.602113 1.000000 0.153666
0.663965 1.000000 0.155495
0.726092 1.000000 0.157331
0.788470 1.000000 0.159175
0.851077 1.000000 0.161025
0.913895 1.000000 0.162882
0.976909 1.000000 0.164745
1.000000 1.000000 0.166613
0.006302 0.001517 0.123709
0.026776 0.002169 0.124110
0.084050 0.003994 0.125232
0.143270 0.005881 0.126392
0.203566 0.007802 0.127574
0.264619 0.009747 0.128770
0.326261 0.011711 0.129977
0.388385 0.013690 0.131194
0.450917 0.015683 0.132419
0.513803 0.017686 0.133651
