assets/luts/generated_genre/bs_scifi_clinical_white_cc03daab8756df30.cube
# V4 spec-generated LUT — bs_scifi_clinical_white
# Genre: sci-fi
# Look: Sterile machined sci-fi — future-clean blue highlights. Van Hoytema/Ad Astra, Fraser/Foundation.
# Spec hash: cc03daab8756df30
TITLE "V4 Spec LUT — bs_scifi_clinical_white"
LUT_3D_SIZE 17
DOMAIN_MIN 0.0 0.0 0.0
DOMAIN_MAX 1.0 1.0 1.0
0.000000 0.000000 0.012058
0.031028 0.000000 0.013439
0.089635 0.000000 0.015452
0.148242 0.001108 0.017464
0.206850 0.003360 0.019477
0.265457 0.005613 0.021490
0.324064 0.007865 0.023502
0.382671 0.010117 0.025515
0.441278 0.012369 0.027527
0.499886 0.014621 0.029540
0.558493 0.016874 0.031553
0.617100 0.019126 0.033565
0.675707 0.021378 0.035578
0.734314 0.023630 0.037590
0.792922 0.025882 0.039603
0.851529 0.028135 0.041616
0.910136 0.030387 0.043628
0.000000 0.038932 0.016704
0.036227 0.040477 0.018086
0.094835 0.042730 0.020098
0.153442 0.044982 0.022111
0.212049 0.047234 0.024123
0.270656 0.049486 0.026136
0.329263 0.051738 0.028149
0.387871 0.053991 0.030161
0.446478 0.056243 0.032174
0.505085 0.058495 0.034186
0.563692 0.060747 0.036199
0.622299 0.062999 0.038211
0.680907 0.065252 0.040224
0.739514 0.067504 0.042237
0.798121 0.069756 0.044249
0.856728 0.072008 0.046262
0.915336 0.074261 0.048274
0.003584 0.102863 0.023475
0.043804 0.104409 0.024856
0.102411 0.106661 0.026869
0.161018 0.108913 0.028881
0.219626 0.111166 0.030894
0.278233 0.113418 0.032906
0.336840 0.115670 0.034919
0.395447 0.117922 0.036932
0.454054 0.120174 0.038944
0.512662 0.122427 0.040957
0.571269 0.124679 0.042969
0.629876 0.126931 0.044982
0.688483 0.129183 0.046995
0.747090 0.131435 0.049007
0.805698 0.133688 0.051020
0.864305 0.135940 0.053032
0.922912 0.138192 0.055045
0.011161 0.166795 0.030245
0.051381 0.168341 0.031627
0.109988 0.170593 0.033639
0.168595 0.172845 0.035652
0.227202 0.175097 0.037664
0.285809 0.177349 0.039677
0.344417 0.179602 0.041689
0.403024 0.181854 0.043702
0.461631 0.184106 0.045715
0.520238 0.186358 0.047727
0.578845 0.188610 0.049740
0.637453 0.190863 0.051752
0.696060 0.193115 0.053765
0.754667 0.195367 0.055778
0.813274 0.197619 0.057790
0.871881 0.199871 0.059803
0.930489 0.202124 0.061815
0.018737 0.230727 0.037016
0.058957 0.232272 0.038397
0.117564 0.234524 0.040410
0.176172 0.236777 0.042422
0.234779 0.239029 0.044435
0.293386 0.241281 0.046447
0.351993 0.243533 0.048460
0.410600 0.245785 0.050473
0.469208 0.248038 0.052485
0.527815 0.250290 0.054498
0.586422 0.252542 0.056510
0.645029 0.254794 0.058523
0.703636 0.257046 0.060535
0.762244 0.259299 0.062548
0.820851 0.261551 0.064561
0.879458 0.263803 0.066573
0.938065 0.266055 0.068586
0.026314 0.294658 0.043786
0.066534 0.296204 0.045167
0.125141 0.298456 0.047180
0.183748 0.300708 0.049193
0.242355 0.302960 0.051205
0.300963 0.305213 0.053218
0.359570 0.307465 0.055230
0.418177 0.309717 0.057243
0.476784 0.311969 0.059256
0.535391 0.314221 0.061268
0.593999 0.316474 0.063281
0.652606 0.318726 0.065293
0.711213 0.320978 0.067306
0.769820 0.323230 0.069319
0.828427 0.325482 0.071331
0.887035 0.327735 0.073344
0.945642 0.329987 0.075356
0.033891 0.358590 0.050557
0.074110 0.360135 0.051938
0.132717 0.362387 0.053951
0.191325 0.364640 0.055963
0.249932 0.366892 0.057976
0.308539 0.369144 0.059988
0.367146 0.371396 0.062001
0.425754 0.373649 0.064013
0.484361 0.375901 0.066026
0.542968 0.378153 0.068039
0.601575 0.380405 0.070051
0.660182 0.382657 0.072064
0.718790 0.384910 0.074076
0.777397 0.387162 0.076089
0.836004 0.389414 0.078102
0.894611 0.391666 0.080114
0.953218 0.393918 0.082127
0.041467 0.422521 0.057327
0.081687 0.424067 0.058708
0.140294 0.426319 0.060721
0.198901 0.428571 0.062734
0.257508 0.430823 0.064746
0.316116 0.433076 0.066759
0.374723 0.435328 0.068771
0.433330 0.437580 0.070784
0.491937 0.439832 0.072797
0.550544 0.442084 0.074809
0.609152 0.444337 0.076822
0.667759 0.446589 0.078834
0.726366 0.448841 0.080847
0.784973 0.451093 0.082859
0.843498 0.453348 0.085298
0.901989 0.455603 0.087912
0.960479 0.457858 0.090527
0.049044 0.486453 0.064098
0.089263 0.487998 0.065479
0.147871 0.490251 0.067491
0.206478 0.492503 0.069504
0.265085 0.494755 0.071517
0.323692 0.497007 0.073529
0.382299 0.499259 0.075542
0.440907 0.501512 0.077554
0.499514 0.503764 0.079567
0.558121 0.506016 0.081580
0.616720 0.508268 0.083635
0.675211 0.510524 0.086250
0.733701 0.512779 0.088864
0.792192 0.515035 0.091479
0.850682 0.517290 0.094094
0.909173 0.519545 0.096709
0.967663 0.521801 0.099323
0.056620 0.550384 0.070868
0.096840 0.551930 0.072249
0.155447 0.554182 0.074262
0.214054 0.556434 0.076275
0.272662 0.558687 0.078287
0.331269 0.560939 0.080300
0.389876 0.563191 0.082312
0.448432 0.565445 0.084587
0.506923 0.567700 0.087202
0.565414 0.569955 0.089816
0.623904 0.572211 0.092431
0.682395 0.574466 0.095046
0.740885 0.576721 0.097661
0.799376 0.578977 0.100275
0.857866 0.581232 0.102890
0.916357 0.583487 0.105505
0.974847 0.585743 0.108120
0.064197 0.614316 0.077639
0.104417 0.615862 0.079020
0.163024 0.618114 0.081032
0.221631 0.620366 0.083045
0.280145 0.622621 0.085539
0.338635 0.624876 0.088153
0.397126 0.627131 0.090768
0.455617 0.629387 0.093383
0.514107 0.631642 0.095998
0.572598 0.633897 0.098613
0.631088 0.636153 0.101227
0.689579 0.638408 0.103842
0.748069 0.640663 0.106457
0.806560 0.642919 0.109072
0.865050 0.645174 0.111686
0.923541 0.647429 0.114301
0.982031 0.649685 0.116916
0.071718 0.678249 0.084696
0.111857 0.679797 0.086491
0.170348 0.682052 0.089105
0.228838 0.684307 0.091720
0.287329 0.686563 0.094335
0.345820 0.688818 0.096950
0.404310 0.691073 0.099565
0.462801 0.693329 0.102179
0.521291 0.695584 0.104794
0.579782 0.697840 0.107409
0.638272 0.700095 0.110024
0.696763 0.702350 0.112638
0.755253 0.704606 0.115253
0.813744 0.706861 0.117868
0.872234 0.709116 0.120483
0.930725 0.711372 0.123098
0.989215 0.713627 0.125712
0.078902 0.742191 0.093492
0.119041 0.743739 0.095287
0.177532 0.745994 0.097902
0.236023 0.748250 0.100516
0.294513 0.750505 0.103131
0.353004 0.752760 0.105746
0.411494 0.755016 0.108361
0.469985 0.757271 0.110976
0.528475 0.759526 0.113590
0.586966 0.761782 0.116205
0.645456 0.764037 0.118820
0.703947 0.766292 0.121435
0.762437 0.768548 0.124049
0.820928 0.770803 0.126664
0.879418 0.773058 0.129279
0.937909 0.775314 0.131894
0.996400 0.777569 0.134509
0.086086 0.806133 0.102289
0.126226 0.807681 0.104083
0.184716 0.809936 0.106698
0.243207 0.812192 0.109313
0.301697 0.814447 0.111928
0.360188 0.816702 0.114542
0.418678 0.818958 0.117157
0.477169 0.821213 0.119772
0.535659 0.823468 0.122387
0.594150 0.825724 0.125001
0.652640 0.827979 0.127616
0.711131 0.830234 0.130231
0.769621 0.832490 0.132846
0.828112 0.834745 0.135461
0.886603 0.837001 0.138075
0.945093 0.839256 0.140690
1.000000 0.841511 0.143305
0.093270 0.870075 0.111085
0.133410 0.871623 0.112879
0.191900 0.873878 0.115494
0.250391 0.876134 0.118109
0.308881 0.878389 0.120724
0.367372 0.880645 0.123339
0.425862 0.882900 0.125953
0.484353 0.885155 0.128568
0.542843 0.887411 0.131183
0.601334 0.889666 0.133798
0.659824 0.891921 0.136412
0.718315 0.894177 0.139027
0.776806 0.896432 0.141642
0.835296 0.898687 0.144257
0.893787 0.900943 0.146872
0.952277 0.903198 0.149486
1.000000 0.905453 0.152101
0.100454 0.934018 0.119881
0.140594 0.935565 0.121676
0.199084 0.937821 0.124291
0.257575 0.940076 0.126905
0.316065 0.942331 0.129520
0.374556 0.944587 0.132135
0.433046 0.946842 0.134750
0.491537 0.949097 0.137364
0.550027 0.951353 0.139979
0.608518 0.953608 0.142594
0.667009 0.955863 0.145209
0.725499 0.958119 0.147824
0.783990 0.960374 0.150438
0.842480 0.962629 0.153053
0.900971 0.964885 0.155668
0.959461 0.967140 0.158283
1.000000 0.969395 0.160897
0.107638 0.997960 0.128678
0.147778 0.999507 0.130472
0.206268 1.000000 0.133087
0.264759 1.000000 0.135702
0.323249 1.000000 0.138316
0.381740 1.000000 0.140931
0.440230 1.000000 0.143546
0.498721 1.000000 0.146161
0.557212 1.000000 0.148775
0.615702 1.000000 0.151390
0.674193 1.000000 0.154005
0.732683 1.000000 0.156620
0.791174 1.000000 0.159235
0.849664 1.000000 0.161849
0.908155 1.000000 0.164464
0.966645 1.000000 0.167079
1.000000 1.000000 0.169694
0.000000 0.000000 0.055395
0.031609 0.000000 0.056777
0.090216 0.000000 0.058789
0.148823 0.001689 0.060802
0.207431 0.003942 0.062814
0.266038 0.006194 0.064827
0.324645 0.008446 0.066839
0.383252 0.010698 0.068852
0.441859 0.012950 0.070865
0.500467 0.015203 0.072877
0.559074 0.017455 0.074890
0.617681 0.019707 0.076902
0.676288 0.021959 0.078915
0.734896 0.024211 0.080928
0.793503 0.026464 0.082940
0.852110 0.028716 0.084953
0.910717 0.030968 0.086965
0.000000 0.039513 0.060042
0.036809 0.041059 0.061423
0.095416 0.043311 0.063435
0.154023 0.045563 0.065448
0.212630 0.047815 0.067461
0.271237 0.050067 0.069473
0.329845 0.052320 0.071486
0.388452 0.054572 0.073498
0.447059 0.056824 0.075511
0.505666 0.059076 0.077523
0.564273 0.061328 0.079536
0.622881 0.063581 0.081549
0.681488 0.065833 0.083561
0.740095 0.068085 0.085574
0.798702 0.070337 0.087586
0.857309 0.072589 0.089599
0.915917 0.074842 0.091612
0.004165 0.103445 0.066812
0.044385 0.104990 0.068193
0.102992 0.107242 0.070206
0.161600 0.109495 0.072218
0.220207 0.111747 0.074231
0.278814 0.113999 0.076244
0.337421 0.116251 0.078256
0.396028 0.118503 0.080269
0.454636 0.120756 0.082281
0.513243 0.123008 0.084294
0.571850 0.125260 0.086307
0.630457 0.127512 0.088319
0.689064 0.129764 0.090332
0.747672 0.132017 0.092344
0.806279 0.134269 0.094357
0.864886 0.136521 0.096369
0.923493 0.138773 0.098382
0.011742 0.167376 0.073583
0.051962 0.168922 0.074964
0.110569 0.171174 0.076976
0.169176 0.173426 0.078989
0.227783 0.175678 0.081001
0.286391 0.177931 0.083014
0.344998 0.180183 0.085027
0.403605 0.182435 0.087039
0.462212 0.184687 0.089052
0.520819 0.186939 0.091064
0.579427 0.189192 0.093077
0.638034 0.191444 0.095090
0.696641 0.193696 0.097102
0.755248 0.195948 0.099115
0.813855 0.198200 0.101127
0.872463 0.200453 0.103140
0.931070 0.202705 0.105153
0.019318 0.231308 0.080353
0.059538 0.232853 0.081734
0.118145 0.235105 0.083747
0.176753 0.237358 0.085759
0.235360 0.239610 0.087772
0.293967 0.241862 0.089785
0.352574 0.244114 0.091797
0.411181 0.246366 0.093810
0.469789 0.248619 0.095822
0.528396 0.250871 0.097835
0.587003 0.253123 0.099847
0.645610 0.255375 0.101860
0.704218 0.257628 0.103873
0.762825 0.259880 0.105885
0.821432 0.262132 0.107898
0.880039 0.264384 0.109910
0.938646 0.266636 0.111923
0.026895 0.295239 0.087124
0.067115 0.296785 0.088505
0.125722 0.299037 0.090517
0.184329 0.301289 0.092530
0.242936 0.303541 0.094542
0.301544 0.305794 0.096555
0.360151 0.308046 0.098568
0.418758 0.310298 0.100580
0.477365 0.312550 0.102593
0.535972 0.314802 0.104605
0.594580 0.317055 0.106618
0.653187 0.319307 0.108631
0.711794 0.321559 0.110643
0.770401 0.323811 0.112656
0.829009 0.326064 0.114668
0.887616 0.328316 0.116681
0.946223 0.330568 0.118693
0.034472 0.359171 0.093894
0.074691 0.360716 0.095275
0.133299 0.362969 0.097288
0.191906 0.365221 0.099300
0.250513 0.367473 0.101313
0.309120 0.369725 0.103325
0.367727 0.371977 0.105338
0.426335 0.374230 0.107351
0.484942 0.376482 0.109363
0.543549 0.378734 0.111376
0.602156 0.380986 0.113388
0.660763 0.383238 0.115401
0.719371 0.385491 0.117414
0.777978 0.387743 0.119426
0.836585 0.389995 0.121439
0.895192 0.392247 0.123451
0.953800 0.394500 0.125464
0.042048 0.423102 0.100664
0.082268 0.424648 0.102046
0.140875 0.426900 0.104058
0.199482 0.429152 0.106071
0.258090 0.431405 0.108083
0.316697 0.433657 0.110096
0.375304 0.435909 0.112109
0.433911 0.438161 0.114121
0.492518 0.440413 0.116134
0.551126 0.442666 0.118146
0.609733 0.444918 0.120159
0.668340 0.447170 0.122171
0.726947 0.449422 0.124184
0.785554 0.451674 0.126197
0.844049 0.453930 0.128790
0.902540 0.456185 0.131405
0.961030 0.458440 0.134020
0.049625 0.487034 0.107435
0.089845 0.488580 0.108816
0.148452 0.490832 0.110829
0.207059 0.493084 0.112841
0.265666 0.495336 0.114854
0.324273 0.497588 0.116866
0.382881 0.499841 0.118879
0.441488 0.502093 0.120892
0.500095 0.504345 0.122904
0.558702 0.506597 0.124917
0.617271 0.508850 0.127127
0.675762 0.511106 0.129742
0.734252 0.513361 0.132357
0.792743 0.515616 0.134972
0.851233 0.517872 0.137586
0.909724 0.520127 0.140201
0.968214 0.522383 0.142816
0.057201 0.550966 0.114205
0.097421 0.552511 0.115587
0.156028 0.554763 0.117599
0.214636 0.557016 0.119612
0.273243 0.559268 0.121624
0.331850 0.561520 0.123637
0.390457 0.563772 0.125649
0.448984 0.566027 0.128079
0.507474 0.568282 0.130694
0.565965 0.570537 0.133309
0.624455 0.572793 0.135924
0.682946 0.575048 0.138538
0.741436 0.577303 0.141153
0.799927 0.579559 0.143768
0.858417 0.581814 0.146383
0.916908 0.584069 0.148998
0.975398 0.586325 0.151612
0.064778 0.614897 0.120976
0.104998 0.616443 0.122357
0.163605 0.618695 0.124370
0.222205 0.620947 0.126416
0.280696 0.623203 0.129031
0.339187 0.625458 0.131646
0.397677 0.627713 0.134261
0.456168 0.629969 0.136876
0.514658 0.632224 0.139490
0.573149 0.634479 0.142105
0.631639 0.636735 0.144720
0.690130 0.638990 0.147335
0.748620 0.641245 0.149949
0.807111 0.643501 0.152564
0.865601 0.645756 0.155179
0.924092 0.648011 0.157794
0.982582 0.650267 0.160409
0.072269 0.678831 0.128189
0.112408 0.680379 0.129983
0.170899 0.682634 0.132598
0.229390 0.684889 0.135213
0.287880 0.687145 0.137828
0.346371 0.689400 0.140442
0.404861 0.691655 0.143057
0.463352 0.693911 0.145672
0.521842 0.696166 0.148287
0.580333 0.698421 0.150901
0.638823 0.700677 0.153516
0.697314 0.702932 0.156131
0.755804 0.705188 0.158746
0.814295 0.707443 0.161361
0.872785 0.709698 0.163975
0.931276 0.711954 0.166590
0.989766 0.714209 0.169205
0.079453 0.742773 0.136985
0.119593 0.744321 0.138779
0.178083 0.746576 0.141394
0.236574 0.748832 0.144009
0.295064 0.751087 0.146624
0.353555 0.753342 0.149239
0.412045 0.755598 0.151853
0.470536 0.757853 0.154468
0.529026 0.760108 0.157083
0.587517 0.762364 0.159698
0.646007 0.764619 0.162312
0.704498 0.766874 0.164927
0.762988 0.769130 0.167542
0.821479 0.771385 0.170157
0.879969 0.773640 0.172772
0.938460 0.775896 0.175386
0.996951 0.778151 0.178001
0.086637 0.806715 0.145781
0.126777 0.808263 0.147576
0.185267 0.810518 0.150191
0.243758 0.812774 0.152805
0.302248 0.815029 0.155420
0.360739 0.817284 0.158035
0.419229 0.819540 0.160650
0.477720 0.821795 0.163264
0.536210 0.824050 0.165879
0.594701 0.826306 0.168494
0.653191 0.828561 0.171109
0.711682 0.830816 0.173724
0.770172 0.833072 0.176338
0.828663 0.835327 0.178953
0.887154 0.837582 0.181568
0.945644 0.839838 0.184183
1.000000 0.842093 0.186797
0.093821 0.870657 0.154578
0.133961 0.872205 0.156372
0.192451 0.874460 0.158987
0.250942 0.876716 0.161602
0.309432 0.878971 0.164216
0.367923 0.881226 0.166831
0.426413 0.883482 0.169446
0.484904 0.885737 0.172061
0.543394 0.887992 0.174675
0.601885 0.890248 0.177290
0.660375 0.892503 0.179905
0.718866 0.894759 0.182520
0.777357 0.897014 0.185135
0.835847 0.899269 0.187749
0.894338 0.901525 0.190364
0.952828 0.903780 0.192979
1.000000 0.906035 0.195594
0.101005 0.934599 0.163374
0.141145 0.936147 0.165168
0.199635 0.938403 0.167783
0.258126 0.940658 0.170398
0.316616 0.942913 0.173013
0.375107 0.945169 0.175627
0.433597 0.947424 0.178242
0.492088 0.949679 0.180857
0.550578 0.951935 0.183472
0.609069 0.954190 0.186087
0.667560 0.956445 0.188701
0.726050 0.958701 0.191316
0.784541 0.960956 0.193931
0.843031 0.963211 0.196546
0.901522 0.965467 0.199160
0.960012 0.967722 0.201775
1.000000 0.969977 0.204390
0.108189 0.998542 0.172170
0.148329 1.000000 0.173965
0.206819 1.000000 0.176579
0.265310 1.000000 0.179194
0.323800 1.000000 0.181809
0.382291 1.000000 0.184424
0.440781 1.000000 0.187038
0.499272 1.000000 0.189653
0.557763 1.000000 0.192268
0.616253 1.000000 0.194883
0.674744 1.000000 0.197498
0.733234 1.000000 0.200112
0.791725 1.000000 0.202727
0.850215 1.000000 0.205342
0.908706 1.000000 0.207957
0.967196 1.000000 0.210571
1.000000 1.000000 0.213186
0.000000 0.000000 0.112154
0.032370 0.000000 0.113535
0.090977 0.000198 0.115548
0.149585 0.002450 0.117561
0.208192 0.004703 0.119573
0.266799 0.006955 0.121586
0.325406 0.009207 0.123598
0.384013 0.011459 0.125611
0.442621 0.013711 0.127623
0.501228 0.015964 0.129636
0.559835 0.018216 0.131649
0.618442 0.020468 0.133661
0.677049 0.022720 0.135674
0.735657 0.024972 0.137686
0.794264 0.027225 0.139699
0.852871 0.029477 0.141712
0.911478 0.031729 0.143724
0.000000 0.040274 0.116801
0.037570 0.041820 0.118182
0.096177 0.044072 0.120194
0.154784 0.046324 0.122207
0.213391 0.048576 0.124219
0.271998 0.050828 0.126232
0.330606 0.053081 0.128245
0.389213 0.055333 0.130257
0.447820 0.057585 0.132270
0.506427 0.059837 0.134282
0.565035 0.062090 0.136295
0.623642 0.064342 0.138308
0.682249 0.066594 0.140320
0.740856 0.068846 0.142333
0.799463 0.071098 0.144345
0.858071 0.073351 0.146358
0.916678 0.075603 0.148370
0.004926 0.104206 0.123571
0.045146 0.105751 0.124952
0.103753 0.108003 0.126965
0.162361 0.110256 0.128977
0.220968 0.112508 0.130990
0.279575 0.114760 0.133002
0.338182 0.117012 0.135015
0.396789 0.119264 0.137028
0.455397 0.121517 0.139040
0.514004 0.123769 0.141053
0.572611 0.126021 0.143065
0.631218 0.128273 0.145078
0.689826 0.130526 0.147091
0.748433 0.132778 0.149103
0.807040 0.135030 0.151116
0.865647 0.137282 0.153128
0.924254 0.139534 0.155141
0.012503 0.168137 0.130341
0.052723 0.169683 0.131723
0.111330 0.171935 0.133735
0.169937 0.174187 0.135748
0.228544 0.176439 0.137760
0.287152 0.178692 0.139773
0.345759 0.180944 0.141786
0.404366 0.183196 0.143798
0.462973 0.185448 0.145811
0.521580 0.187700 0.147823
0.580188 0.189953 0.149836
0.638795 0.192205 0.151848
0.697402 0.194457 0.153861
0.756009 0.196709 0.155874
0.814616 0.198961 0.157886
0.873224 0.201214 0.159899
0.931831 0.203466 0.161911
0.020080 0.232069 0.137112
0.060299 0.233614 0.138493
0.118907 0.235867 0.140506
0.177514 0.238119 0.142518
0.236121 0.240371 0.144531
0.294728 0.242623 0.146543
0.353335 0.244875 0.148556
0.411943 0.247128 0.150569
0.470550 0.249380 0.152581
0.529157 0.251632 0.154594
0.587764 0.253884 0.156606
0.646371 0.256136 0.158619
0.704979 0.258389 0.160632
0.763586 0.260641 0.162644
0.822193 0.262893 0.164657
0.880800 0.265145 0.166669
0.939407 0.267397 0.168682
0.027656 0.296000 0.143882
0.067876 0.297546 0.145264
0.126483 0.299798 0.147276
0.185090 0.302050 0.149289
0.243698 0.304303 0.151301
0.302305 0.306555 0.153314
0.360912 0.308807 0.155326
0.419519 0.311059 0.157339
0.478126 0.313311 0.159352
0.536734 0.315564 0.161364
0.595341 0.317816 0.163377
0.653948 0.320068 0.165389
0.712555 0.322320 0.167402
0.771162 0.324572 0.169415
0.829770 0.326825 0.171427
0.888377 0.329077 0.173440
0.946984 0.331329 0.175452
0.035233 0.359932 0.150653
0.075453 0.361478 0.152034
0.134060 0.363730 0.154047
0.192667 0.365982 0.156059
0.251274 0.368234 0.158072
0.309881 0.370486 0.160084
0.368489 0.372739 0.162097
0.427096 0.374991 0.164110
0.485703 0.377243 0.166122
0.544310 0.379495 0.168135
0.602917 0.381747 0.170147
0.661525 0.384000 0.172160
0.720132 0.386252 0.174172
0.778739 0.388504 0.176185
0.837346 0.390756 0.178198
0.895953 0.393008 0.180210
0.954561 0.395261 0.182223
0.042809 0.423863 0.157423
0.083029 0.425409 0.158804
0.141636 0.427661 0.160817
0.200243 0.429913 0.162830
0.258851 0.432166 0.164842
0.317458 0.434418 0.166855
0.376065 0.436670 0.168867
0.434672 0.438922 0.170880
0.493280 0.441175 0.172893
0.551887 0.443427 0.174905
0.610494 0.445679 0.176918
0.669101 0.447931 0.178930
0.727708 0.450183 0.180943
0.786280 0.452437 0.183138
0.844771 0.454692 0.185753
0.903261 0.456947 0.188367
0.961752 0.459203 0.190982
0.050386 0.487795 0.164194
0.090606 0.489341 0.165575
0.149213 0.491593 0.167588
0.207820 0.493845 0.169600
0.266427 0.496097 0.171613
0.325034 0.498349 0.173625
0.383642 0.500602 0.175638
0.442249 0.502854 0.177650
0.500856 0.505106 0.179663
0.559463 0.507358 0.181676
0.617993 0.509613 0.184090
0.676483 0.511868 0.186705
0.734974 0.514123 0.189319
0.793464 0.516379 0.191934
0.851955 0.518634 0.194549
0.910445 0.520889 0.197164
0.968936 0.523145 0.199778
0.057962 0.551727 0.170964
0.098182 0.553272 0.172345
0.156789 0.555524 0.174358
0.215397 0.557777 0.176371
0.274004 0.560029 0.178383
0.332611 0.562281 0.180396
0.391215 0.564533 0.182427
0.449705 0.566789 0.185042
0.508196 0.569044 0.187656
0.566686 0.571299 0.190271
0.625177 0.573555 0.192886
0.683667 0.575810 0.195501
0.742158 0.578065 0.198116
0.800648 0.580321 0.200730
0.859139 0.582576 0.203345
0.917629 0.584831 0.205960
0.976120 0.587087 0.208575
0.065539 0.615658 0.177735
0.105759 0.617204 0.179116
0.164366 0.619456 0.181128
0.222927 0.621709 0.183379
0.281418 0.623965 0.185994
0.339908 0.626220 0.188608
0.398399 0.628475 0.191223
0.456889 0.630731 0.193838
0.515380 0.632986 0.196453
0.573870 0.635242 0.199068
0.632361 0.637497 0.201682
0.690851 0.639752 0.204297
0.749342 0.642008 0.206912
0.807832 0.644263 0.209527
0.866323 0.646518 0.212141
0.924814 0.648774 0.214756
0.983304 0.651029 0.217371
0.072990 0.679593 0.185151
0.113130 0.681141 0.186946
0.171621 0.683396 0.189560
0.230111 0.685652 0.192175
0.288602 0.687907 0.194790
0.347092 0.690162 0.197405
0.405583 0.692418 0.200019
0.464073 0.694673 0.202634
0.522564 0.696928 0.205249
0.581054 0.699184 0.207864
0.639545 0.701439 0.210479
0.698035 0.703694 0.213093
0.756526 0.705950 0.215708
0.815017 0.708205 0.218323
0.873507 0.710460 0.220938
0.931998 0.712716 0.223552
0.990488 0.714971 0.226167
0.080175 0.743535 0.193947
0.120314 0.745083 0.195742
0.178805 0.747338 0.198357
0.237295 0.749594 0.200971
0.295786 0.751849 0.203586
0.354276 0.754104 0.206201
0.412767 0.756360 0.208816
0.471257 0.758615 0.211431
0.529748 0.760870 0.214045
0.588238 0.763126 0.216660
0.646729 0.765381 0.219275
0.705220 0.767636 0.221890
0.763710 0.769892 0.224504
0.822201 0.772147 0.227119
0.880691 0.774402 0.229734
0.939182 0.776658 0.232349
0.997672 0.778913 0.234964
0.087359 0.807477 0.202744
0.127498 0.809025 0.204538
0.185989 0.811280 0.207153
0.244479 0.813536 0.209768
0.302970 0.815791 0.212382
0.361460 0.818047 0.214997
0.419951 0.820302 0.217612
0.478441 0.822557 0.220227
0.536932 0.824813 0.222842
0.595423 0.827068 0.225456
0.653913 0.829323 0.228071
0.712404 0.831579 0.230686
0.770894 0.833834 0.233301
0.829385 0.836089 0.235915
0.887875 0.838345 0.238530
0.946366 0.840600 0.241145
1.000000 0.842855 0.243760
0.094543 0.871420 0.211540
0.134682 0.872967 0.213334
0.193173 0.875223 0.215949
0.251663 0.877478 0.218564
0.310154 0.879733 0.221179
0.368644 0.881989 0.223794
0.427135 0.884244 0.226408
0.485626 0.886499 0.229023
0.544116 0.888755 0.231638
0.602607 0.891010 0.234253
0.661097 0.893265 0.236867
0.719588 0.895521 0.239482
0.778078 0.897776 0.242097
0.836569 0.900031 0.244712
0.895059 0.902287 0.247327
0.953550 0.904542 0.249941
1.000000 0.906797 0.252556
0.101727 0.935362 0.220336
0.141866 0.936909 0.222131
0.200357 0.939165 0.224745
0.258848 0.941420 0.227360
0.317338 0.943675 0.229975
0.375829 0.945931 0.232590
0.434319 0.948186 0.235205
0.492810 0.950441 0.237819
0.551300 0.952697 0.240434
0.609791 0.954952 0.243049
0.668281 0.957207 0.245664
0.726772 0.959463 0.248278
0.785262 0.961718 0.250893
0.843753 0.963974 0.253508
0.902243 0.966229 0.256123
0.960734 0.968484 0.258738
1.000000 0.970740 0.261352
0.108911 0.999304 0.229133
0.149051 1.000000 0.230927
0.207541 1.000000 0.233542
0.266032 1.000000 0.236157
0.324522 1.000000 0.238771
0.383013 1.000000 0.241386
0.441503 1.000000 0.244001
0.499994 1.000000 0.246616
0.558484 1.000000 0.249230
0.616975 1.000000 0.251845
0.675465 1.000000 0.254460
0.733956 1.000000 0.257075
0.792446 1.000000 0.259690
0.850937 1.000000 0.262304
0.909427 1.000000 0.264919
0.967918 1.000000 0.267534
1.000000 1.000000 0.270149
0.000000 0.000000 0.168913
0.033131 0.000000 0.170294
0.091738 0.000959 0.172307
0.150346 0.003212 0.174319
0.208953 0.005464 0.176332
0.267560 0.007716 0.178345
0.326167 0.009968 0.180357
0.384775 0.012220 0.182370
0.443382 0.014473 0.184382
0.501989 0.016725 0.186395
