assets/luts/generated_genre/bs_scifi_clinical_white_cc03daab8756df30.cube
# V4 spec-generated LUT — bs_scifi_clinical_white
# Genre: sci-fi
# Look: Sterile machined sci-fi — future-clean blue highlights. Van Hoytema/Ad Astra, Fraser/Foundation.
# Spec hash: cc03daab8756df30
TITLE "V4 Spec LUT — bs_scifi_clinical_white"
LUT_3D_SIZE 5
DOMAIN_MIN 0.0 0.0 0.0
DOMAIN_MAX 1.0 1.0 1.0
0.000000 0.000000 0.012058
0.206850 0.003360 0.019477
0.441278 0.012369 0.027527
0.675707 0.021378 0.035578
0.910136 0.030387 0.043628
0.018737 0.230727 0.037016
0.234779 0.239029 0.044435
0.469208 0.248038 0.052485
0.703636 0.257046 0.060535
0.938065 0.266055 0.068586
0.049044 0.486453 0.064098
0.265085 0.494755 0.071517
0.499514 0.503764 0.079567
0.733701 0.512779 0.088864
0.967663 0.521801 0.099323
0.078902 0.742191 0.093492
0.294513 0.750505 0.103131
0.528475 0.759526 0.113590
0.762437 0.768548 0.124049
0.996400 0.777569 0.134509
0.107638 0.997960 0.128678
0.323249 1.000000 0.138316
0.557212 1.000000 0.148775
0.791174 1.000000 0.159235
1.000000 1.000000 0.169694
0.000000 0.000000 0.225672
0.209714 0.006225 0.233091
0.444143 0.015234 0.241141
0.678572 0.024243 0.249192
0.913000 0.033251 0.257242
0.021602 0.233591 0.250630
0.237643 0.241893 0.258049
0.472072 0.250902 0.266099
0.706501 0.259911 0.274149
0.940930 0.268920 0.282200
0.051908 0.489317 0.277712
0.267949 0.497619 0.285130
0.502378 0.506628 0.293181
0.736417 0.515648 0.303244
0.970379 0.524669 0.313703
0.081618 0.745060 0.307872
0.297229 0.753373 0.317511
0.531191 0.762395 0.327970
0.765153 0.771416 0.338429
0.999116 0.780438 0.348888
0.110354 1.000000 0.343057
0.325965 1.000000 0.352696
0.559928 1.000000 0.363155
0.793890 1.000000 0.373614
1.000000 1.000000 0.384073
0.000000 0.000967 0.452708
0.212758 0.009269 0.460126
0.447187 0.018278 0.468177
0.681616 0.027287 0.476227
0.916045 0.036296 0.484277
0.024646 0.236635 0.477665
0.240688 0.244938 0.485084
0.475116 0.253946 0.493134
0.709545 0.262955 0.501185
0.943974 0.271964 0.509235
0.054953 0.492362 0.504747
0.270994 0.500664 0.512166
0.505342 0.509675 0.520635
0.739304 0.518696 0.531094
0.973266 0.527718 0.541553
0.084505 0.748108 0.535722
0.300116 0.756422 0.545361
0.534078 0.765443 0.555820
0.768040 0.774465 0.566279
1.000000 0.783486 0.576738
0.113241 1.000000 0.570907
0.328852 1.000000 0.580546
0.562814 1.000000 0.591005
0.796776 1.000000 0.601464
1.000000 1.000000 0.611923
0.000000 0.004012 0.679743
0.215803 0.012314 0.687162
0.450232 0.021323 0.695212
0.684661 0.030331 0.703263
0.919089 0.039340 0.711313
0.027691 0.239680 0.704701
0.243732 0.247982 0.712120
0.478161 0.256991 0.720170
0.712590 0.266000 0.728220
0.947019 0.275009 0.736271
0.057997 0.495406 0.731783
0.274038 0.503708 0.739202
0.508228 0.512724 0.748484
0.742191 0.521745 0.758943
0.976153 0.530766 0.769402
0.087391 0.751157 0.763571
0.303003 0.759471 0.773210
0.536965 0.768492 0.783669
0.770927 0.777514 0.794128
1.000000 0.786535 0.804587
0.116128 1.000000 0.798756
0.331739 1.000000 0.808395
0.565701 1.000000 0.818854
0.799663 1.000000 0.829313
1.000000 1.000000 0.839773
0.002806 0.007056 0.906779
0.218847 0.015358 0.914198
0.453276 0.024367 0.922248
0.687705 0.033376 0.930298
0.922134 0.042385 0.938349
0.030735 0.242724 0.931736
0.246777 0.251027 0.939155
0.481205 0.260035 0.947206
0.715634 0.269044 0.955256
0.950063 0.278053 0.963306
0.061041 0.498451 0.958818
0.277083 0.506753 0.966237
0.511115 0.515772 0.976334
0.745077 0.524794 0.986793
0.979039 0.533815 0.997252
0.090278 0.754206 0.991421
0.305889 0.762519 1.000000
0.539852 0.771541 1.000000
0.773814 0.780562 1.000000
1.000000 0.789584 1.000000
0.119014 1.000000 1.000000
0.334626 1.000000 1.000000
0.568588 1.000000 1.000000
0.802550 1.000000 1.000000
1.000000 1.000000 1.000000
