assets/luts/generated_genre/bs_scifi_blade_runner_amber_7c266fb156c78479.cube
# V4 spec-generated LUT — bs_scifi_blade_runner_amber
# Genre: sci-fi
# Look: Mythic monumental sci-fi — amber midtones, world-weary green highlights. Deakins/BR2049, van Hoytema
# Spec hash: 7c266fb156c78479
TITLE "V4 Spec LUT — bs_scifi_blade_runner_amber"
LUT_3D_SIZE 5
DOMAIN_MIN 0.0 0.0 0.0
DOMAIN_MAX 1.0 1.0 1.0
0.004535 0.000035 0.000000
0.201798 0.006320 0.000000
0.449149 0.014201 0.000000
0.702457 0.022271 0.004707
0.959581 0.030463 0.009744
0.029750 0.210946 0.004035
0.227013 0.217231 0.007899
0.474364 0.225112 0.012744
0.727672 0.233183 0.017707
0.984795 0.241375 0.022744
0.061367 0.475410 0.020335
0.258630 0.481695 0.024200
0.505981 0.489576 0.029045
0.759289 0.497647 0.034007
1.000000 0.504079 0.041383
0.090595 0.745207 0.038407
0.283649 0.750106 0.044113
0.525721 0.756249 0.051268
0.773624 0.762541 0.058596
1.000000 0.768927 0.066033
0.105002 1.000000 0.063428
0.298056 1.000000 0.069134
0.540128 1.000000 0.076289
0.788030 1.000000 0.083617
1.000000 1.000000 0.091055
0.007080 0.002169 0.182115
0.204344 0.008454 0.185980
0.451695 0.016335 0.190825
0.705003 0.024406 0.195787
0.962126 0.032598 0.200824
0.032295 0.213081 0.195115
0.229559 0.219366 0.198979
0.476909 0.227246 0.203825
0.730217 0.235317 0.208787
0.987341 0.243509 0.213824
0.063912 0.477545 0.211416
0.261176 0.483830 0.215280
0.508527 0.491710 0.220126
0.760546 0.499357 0.225652
1.000000 0.505743 0.233089
0.091711 0.746870 0.230113
0.284765 0.751770 0.235819
0.526837 0.757913 0.242974
0.774739 0.764205 0.250302
1.000000 0.770591 0.257740
0.106118 1.000000 0.255134
0.299172 1.000000 0.260840
0.541244 1.000000 0.267996
0.789146 1.000000 0.275323
1.000000 1.000000 0.282761
0.010272 0.004845 0.421713
0.207536 0.011131 0.425577
0.454886 0.019011 0.430423
0.708194 0.027082 0.435385
0.965318 0.035274 0.440422
0.035487 0.215757 0.434713
0.232750 0.222042 0.438577
0.480101 0.229923 0.443423
0.733409 0.237993 0.448385
0.990533 0.246186 0.453422
0.067104 0.480221 0.451014
0.264368 0.486506 0.454878
0.511718 0.494387 0.459724
0.761945 0.501443 0.466034
1.000000 0.507829 0.473472
0.093110 0.748957 0.470495
0.286164 0.753856 0.476201
0.528236 0.760000 0.483356
0.776138 0.766291 0.490684
1.000000 0.772677 0.498122
0.107517 1.000000 0.495516
0.300571 1.000000 0.501223
0.542643 1.000000 0.508378
0.790545 1.000000 0.515705
1.000000 1.000000 0.523143
0.013541 0.007586 0.667081
0.210804 0.013871 0.670946
0.458155 0.021752 0.675791
0.711463 0.029823 0.680754
0.968586 0.038015 0.685791
0.038755 0.218498 0.680081
0.236019 0.224783 0.683946
0.483370 0.232664 0.688791
0.736678 0.240734 0.693753
0.993801 0.248926 0.698790
0.070373 0.482962 0.696382
0.267636 0.489247 0.700246
0.514987 0.497128 0.705092
0.763378 0.503580 0.712205
1.000000 0.509966 0.719643
0.094543 0.751093 0.716667
0.287597 0.755993 0.722373
0.529669 0.762136 0.729528
0.777571 0.768427 0.736856
1.000000 0.774814 0.744293
0.108950 1.000000 0.741688
0.302004 1.000000 0.747394
0.544076 1.000000 0.754549
0.791978 1.000000 0.761877
1.000000 1.000000 0.769315
0.016858 0.010368 0.916146
0.214122 0.016653 0.920010
0.461473 0.024534 0.924855
0.714781 0.032605 0.929818
0.971904 0.040797 0.934855
0.042073 0.221280 0.929145
0.239337 0.227565 0.933010
0.486688 0.235446 0.937855
0.739996 0.243516 0.942818
0.997119 0.251709 0.947855
0.073691 0.485744 0.945446
0.270954 0.492029 0.949310
0.516930 0.499457 0.954757
0.764833 0.505749 0.962085
1.000000 0.512135 0.969523
0.095998 0.753262 0.966546
0.289051 0.758161 0.972252
0.531123 0.764305 0.979408
0.779026 0.770596 0.986735
1.000000 0.776982 0.994173
0.110404 1.000000 0.991567
0.303458 1.000000 0.997274
0.545530 1.000000 1.000000
0.793433 1.000000 1.000000
1.000000 1.000000 1.000000
