assets/luts/generated_genre/bs_scifi_blade_runner_amber_7c266fb156c78479.cube
# V4 spec-generated LUT — bs_scifi_blade_runner_amber
# Genre: sci-fi
# Look: Mythic monumental sci-fi — amber midtones, world-weary green highlights. Deakins/BR2049, van Hoytema
# Spec hash: 7c266fb156c78479
TITLE "V4 Spec LUT — bs_scifi_blade_runner_amber"
LUT_3D_SIZE 9
DOMAIN_MIN 0.0 0.0 0.0
DOMAIN_MAX 1.0 1.0 1.0
0.004535 0.000035 0.000000
0.082283 0.002512 0.000000
0.201798 0.006320 0.000000
0.324494 0.010229 0.000000
0.449149 0.014201 0.000000
0.575237 0.018218 0.002215
0.702457 0.022271 0.004707
0.830617 0.026355 0.007217
0.959581 0.030463 0.009744
0.014473 0.083162 0.000000
0.092221 0.085639 0.000000
0.211736 0.089447 0.000023
0.334432 0.093356 0.002426
0.459087 0.097328 0.004868
0.585175 0.101345 0.007338
0.712395 0.105399 0.009830
0.840555 0.109482 0.012341
0.969519 0.113591 0.014867
0.029750 0.210946 0.004035
0.107498 0.213423 0.005558
0.227013 0.217231 0.007899
0.349709 0.221140 0.010302
0.474364 0.225112 0.012744
0.600451 0.229129 0.015214
0.727672 0.233183 0.017707
0.855832 0.237266 0.020217
0.984795 0.241375 0.022744
0.045433 0.342131 0.012120
0.123181 0.344608 0.013643
0.242697 0.348416 0.015985
0.365392 0.352325 0.018388
0.490047 0.356296 0.020830
0.616135 0.360314 0.023300
0.743355 0.364367 0.025792
0.871515 0.368450 0.028303
1.000000 0.372559 0.030829
0.061367 0.475410 0.020335
0.139115 0.477887 0.021858
0.258630 0.481695 0.024200
0.381326 0.485604 0.026603
0.505981 0.489576 0.029045
0.632069 0.493593 0.031515
0.759289 0.497647 0.034007
0.884855 0.500876 0.037653
1.000000 0.504079 0.041383
0.077484 0.610221 0.028644
0.155232 0.612698 0.030168
0.274747 0.616506 0.032509
0.396598 0.620137 0.035282
0.518593 0.623233 0.038888
0.641990 0.626365 0.042535
0.766495 0.629525 0.046215
0.891920 0.632708 0.049923
1.000000 0.635911 0.053653
0.090595 0.745207 0.038407
0.166684 0.747138 0.040656
0.283649 0.750106 0.044113
0.403726 0.753153 0.047662
0.525721 0.756249 0.051268
0.649118 0.759381 0.054915
0.773624 0.762541 0.058596
0.899049 0.765724 0.062303
1.000000 0.768927 0.066033
0.097776 0.879205 0.050878
0.173865 0.881136 0.053127
0.290830 0.884104 0.056585
0.410907 0.887152 0.060134
0.532902 0.890248 0.063740
0.656299 0.893379 0.067387
0.780805 0.896539 0.071067
0.906229 0.899722 0.074774
1.000000 0.902925 0.078505
0.105002 1.000000 0.063428
0.181091 1.000000 0.065677
0.298056 1.000000 0.069134
0.418133 1.000000 0.072684
0.540128 1.000000 0.076289
0.663525 1.000000 0.079937
0.788030 1.000000 0.083617
0.913455 1.000000 0.087324
1.000000 1.000000 0.091055
0.005538 0.000876 0.066346
0.083286 0.003353 0.067869
0.202802 0.007161 0.070210
0.325497 0.011070 0.072614
0.450152 0.015042 0.075056
0.576240 0.019059 0.077526
0.703460 0.023112 0.080018
0.831620 0.027196 0.082529
0.960584 0.031305 0.085055
0.015476 0.084003 0.071470
0.093224 0.086480 0.072993
0.212740 0.090288 0.075334
0.335435 0.094198 0.077738
0.460090 0.098169 0.080180
0.586178 0.102186 0.082650
0.713398 0.106240 0.085142
0.841558 0.110323 0.087652
0.970522 0.114432 0.090179
0.030753 0.211787 0.079346
0.108501 0.214264 0.080869
0.228016 0.218072 0.083210
0.350712 0.221982 0.085614
0.475367 0.225953 0.088056
0.601455 0.229970 0.090526
0.728675 0.234024 0.093018
0.856835 0.238107 0.095529
0.985799 0.242216 0.098055
0.046436 0.342972 0.087432
0.124184 0.345449 0.088955
0.243700 0.349257 0.091296
0.366395 0.353166 0.093700
0.491051 0.357138 0.096141
0.617138 0.361155 0.098612
0.744359 0.365208 0.101104
0.872519 0.369292 0.103614
1.000000 0.373401 0.106141
0.062370 0.476251 0.095647
0.140118 0.478729 0.097170
0.259634 0.482536 0.099511
0.382329 0.486446 0.101914
0.506984 0.490417 0.104356
0.633072 0.494435 0.106826
0.759870 0.498349 0.109503
0.885295 0.501532 0.113211
1.000000 0.504735 0.116941
0.078487 0.611062 0.103956
0.156235 0.613539 0.105479
0.275750 0.617347 0.107820
0.397038 0.620793 0.110840
0.519033 0.623889 0.114446
0.642429 0.627021 0.118093
0.766935 0.630180 0.121773
0.892360 0.633363 0.125481
1.000000 0.636566 0.129211
0.091035 0.745862 0.113965
0.167124 0.747793 0.116214
0.284089 0.750762 0.119671
0.404166 0.753809 0.123220
0.526161 0.756905 0.126826
0.649558 0.760037 0.130473
0.774063 0.763196 0.134153
0.899488 0.766380 0.137861
1.000000 0.769583 0.141591
0.098216 0.879861 0.126436
0.174305 0.881792 0.128685
0.291270 0.884760 0.132142
0.411347 0.887808 0.135692
0.533342 0.890904 0.139298
0.656739 0.894035 0.142945
0.781244 0.897195 0.146625
0.906669 0.900378 0.150332
1.000000 0.903581 0.154063
0.105442 1.000000 0.138986
0.181531 1.000000 0.141235
0.298496 1.000000 0.144692
0.418573 1.000000 0.148241
0.540568 1.000000 0.151847
0.663965 1.000000 0.155495
0.788470 1.000000 0.159175
0.913895 1.000000 0.162882
1.000000 1.000000 0.166613
0.007080 0.002169 0.182115
0.084828 0.004646 0.183638
0.204344 0.008454 0.185980
0.327039 0.012363 0.188383
0.451695 0.016335 0.190825
0.577782 0.020352 0.193295
0.705003 0.024406 0.195787
0.833163 0.028489 0.198298
0.962126 0.032598 0.200824
0.017018 0.085296 0.187239
0.094766 0.087774 0.188762
0.214282 0.091581 0.191103
0.336977 0.095491 0.193507
0.461633 0.099462 0.195949
0.587720 0.103480 0.198419
0.714941 0.107533 0.200911
0.843101 0.111616 0.203422
0.972064 0.115725 0.205948
0.032295 0.213081 0.195115
0.110043 0.215558 0.196638
0.229559 0.219366 0.198979
0.352254 0.223275 0.201383
0.476909 0.227246 0.203825
0.602997 0.231264 0.206295
0.730217 0.235317 0.208787
0.858377 0.239400 0.211298
0.987341 0.243509 0.213824
0.047978 0.344265 0.203201
0.125727 0.346742 0.204724
0.245242 0.350550 0.207065
0.367938 0.354459 0.209469
0.492593 0.358431 0.211911
0.618680 0.362448 0.214381
0.745901 0.366501 0.216873
0.874061 0.370585 0.219384
1.000000 0.374694 0.221910
0.063912 0.477545 0.211416
0.141660 0.480022 0.212939
0.261176 0.483830 0.215280
0.383871 0.487739 0.217684
0.508527 0.491710 0.220126
0.634614 0.495728 0.222596
0.760546 0.499357 0.225652
0.885971 0.502540 0.229359
1.000000 0.505743 0.233089
0.080029 0.612355 0.219725
0.157777 0.614833 0.221248
0.277293 0.618640 0.223589
0.397714 0.621801 0.226988
0.519709 0.624897 0.230594
0.643105 0.628029 0.234241
0.767611 0.631188 0.237922
0.893036 0.634371 0.241629
1.000000 0.637574 0.245359
0.091711 0.746870 0.230113
0.167800 0.748801 0.232362
0.284765 0.751770 0.235819
0.404842 0.754817 0.239368
0.526837 0.757913 0.242974
0.650234 0.761045 0.246622
0.774739 0.764205 0.250302
0.900164 0.767388 0.254009
1.000000 0.770591 0.257740
0.098892 0.880869 0.242584
0.174981 0.882800 0.244833
0.291946 0.885768 0.248291
0.412023 0.888816 0.251840
0.534018 0.891912 0.255446
0.657415 0.895043 0.259093
0.781920 0.898203 0.262773
0.907345 0.901386 0.266481
1.000000 0.904589 0.270211
0.106118 1.000000 0.255134
0.182207 1.000000 0.257383
0.299172 1.000000 0.260840
0.419249 1.000000 0.264390
0.541244 1.000000 0.267996
0.664641 1.000000 0.271643
0.789146 1.000000 0.275323
0.914571 1.000000 0.279030
1.000000 1.000000 0.282761
0.008663 0.003497 0.300965
0.086412 0.005974 0.302488
0.205927 0.009782 0.304829
0.328623 0.013691 0.307233
0.453278 0.017663 0.309675
0.579365 0.021680 0.312145
0.706586 0.025733 0.314637
0.834746 0.029817 0.317148
0.963709 0.033925 0.319674
0.018601 0.086624 0.306089
0.096350 0.089101 0.307612
0.215865 0.092909 0.309953
0.338561 0.096818 0.312357
0.463216 0.100790 0.314799
0.589303 0.104807 0.317269
0.716524 0.108861 0.319761
0.844684 0.112944 0.322271
0.973647 0.117053 0.324798
0.033878 0.214408 0.313965
0.111627 0.216885 0.315488
0.231142 0.220693 0.317829
0.353837 0.224602 0.320233
0.478493 0.228574 0.322675
0.604580 0.232591 0.325145
0.731801 0.236645 0.327637
0.859961 0.240728 0.330148
0.988924 0.244837 0.332674
0.049562 0.345593 0.322051
0.127310 0.348070 0.323574
0.246825 0.351878 0.325915
0.369521 0.355787 0.328319
0.494176 0.359758 0.330761
0.620263 0.363776 0.333231
0.747484 0.367829 0.335723
0.875644 0.371912 0.338233
1.000000 0.376021 0.340760
0.065495 0.478872 0.330266
0.143244 0.481349 0.331789
0.262759 0.485157 0.334130
0.385455 0.489066 0.336534
0.510110 0.493038 0.338975
0.636197 0.497055 0.341446
0.761240 0.500392 0.344891
0.886665 0.503575 0.348598
1.000000 0.506778 0.352328
0.081612 0.613683 0.338575
0.159361 0.616160 0.340098
0.278331 0.619789 0.342678
0.398408 0.622836 0.346227
0.520403 0.625932 0.349833
0.643799 0.629064 0.353480
0.768305 0.632223 0.357160
0.893730 0.635406 0.360868
1.000000 0.638609 0.364598
0.092405 0.747905 0.349352
0.168494 0.749836 0.351601
0.285459 0.752805 0.355058
0.405536 0.755852 0.358607
0.527531 0.758948 0.362213
0.650928 0.762080 0.365860
0.775433 0.765239 0.369541
0.900858 0.768423 0.373248
1.000000 0.771626 0.376978
0.099586 0.881904 0.361823
0.175675 0.883835 0.364072
0.292640 0.886803 0.367530
0.412717 0.889851 0.371079
0.534712 0.892947 0.374685
0.658109 0.896078 0.378332
0.782614 0.899238 0.382012
0.908039 0.902421 0.385720
1.000000 0.905624 0.389450
0.106812 1.000000 0.374373
0.182901 1.000000 0.376622
0.299866 1.000000 0.380079
0.419943 1.000000 0.383629
0.541938 1.000000 0.387235
0.665335 1.000000 0.390882
0.789840 1.000000 0.394562
0.915265 1.000000 0.398269
1.000000 1.000000 0.402000
0.010272 0.004845 0.421713
0.088020 0.007323 0.423236
0.207536 0.011131 0.425577
0.330231 0.015040 0.427981
0.454886 0.019011 0.430423
0.580974 0.023029 0.432893
0.708194 0.027082 0.435385
0.836354 0.031165 0.437896
0.965318 0.035274 0.440422
0.020210 0.087973 0.426837
0.097958 0.090450 0.428360
0.217474 0.094258 0.430701
0.340169 0.098167 0.433105
0.464824 0.102139 0.435547
0.590912 0.106156 0.438017
0.718132 0.110209 0.440509
0.846292 0.114293 0.443020
0.975256 0.118402 0.445546
0.035487 0.215757 0.434713
0.113235 0.218234 0.436236
0.232750 0.222042 0.438577
0.355446 0.225951 0.440981
0.480101 0.229923 0.443423
0.606189 0.233940 0.445893
0.733409 0.237993 0.448385
0.861569 0.242077 0.450896
0.990533 0.246186 0.453422
0.051170 0.346941 0.442799
0.128918 0.349418 0.444322
0.248434 0.353226 0.446663
0.371129 0.357136 0.449067
0.495785 0.361107 0.451509
0.621872 0.365124 0.453979
0.749093 0.369178 0.456471
0.877253 0.373261 0.458981
1.000000 0.377370 0.461508
0.067104 0.480221 0.451014
0.144852 0.482698 0.452537
0.264368 0.486506 0.454878
0.387063 0.490415 0.457282
0.511718 0.494387 0.459724
0.637440 0.498284 0.462354
0.761945 0.501443 0.466034
0.887370 0.504626 0.469741
1.000000 0.507829 0.473472
0.083221 0.615032 0.459323
0.160969 0.617509 0.460846
0.279036 0.620840 0.463821
0.399113 0.623887 0.467370
0.521108 0.626983 0.470976
0.644505 0.630115 0.474624
0.769010 0.633275 0.478304
0.894435 0.636458 0.482011
1.000000 0.639661 0.485742
0.093110 0.748957 0.470495
0.169199 0.750888 0.472744
0.286164 0.753856 0.476201
0.406241 0.756904 0.479751
0.528236 0.760000 0.483356
0.651633 0.763131 0.487004
0.776138 0.766291 0.490684
0.901563 0.769474 0.494391
1.000000 0.772677 0.498122
0.100291 0.882955 0.482967
0.176380 0.884886 0.485216
0.293345 0.887855 0.488673
0.413422 0.890902 0.492222
0.535417 0.893998 0.495828
0.658814 0.897130 0.499475
0.783319 0.900289 0.503156
0.908744 0.903472 0.506863
1.000000 0.906675 0.510593
0.107517 1.000000 0.495516
0.183606 1.000000 0.497765
0.300571 1.000000 0.501223
0.420648 1.000000 0.504772
0.542643 1.000000 0.508378
0.666040 1.000000 0.512025
0.790545 1.000000 0.515705
0.915970 1.000000 0.519413
1.000000 1.000000 0.523143
0.011899 0.006210 0.543848
0.089647 0.008687 0.545372
0.209163 0.012495 0.547713
0.331858 0.016404 0.550116
0.456513 0.020376 0.552558
0.582601 0.024393 0.555028
0.709821 0.028446 0.557521
0.837981 0.032530 0.560031
0.966945 0.036638 0.562558
0.021837 0.089337 0.548972
0.099585 0.091814 0.550495
0.219101 0.095622 0.552837
0.341796 0.099531 0.555240
0.466451 0.103503 0.557682
0.592539 0.107520 0.560152
0.719759 0.111574 0.562644
0.847919 0.115657 0.565155
0.976883 0.119766 0.567681
0.037114 0.217121 0.556848
0.114862 0.219598 0.558371
0.234377 0.223406 0.560713
0.357073 0.227315 0.563116
0.481728 0.231287 0.565558
0.607816 0.235304 0.568028
0.735036 0.239358 0.570520
0.863196 0.243441 0.573031
0.992160 0.247550 0.575557
0.052797 0.348306 0.564934
0.130545 0.350783 0.566457
0.250061 0.354591 0.568798
0.372756 0.358500 0.571202
0.497412 0.362471 0.573644
0.623499 0.366489 0.576114
0.750720 0.370542 0.578606
0.878880 0.374625 0.581117
1.000000 0.378559 0.583876
0.068731 0.481585 0.573149
0.146479 0.484062 0.574672
0.265995 0.487870 0.577013
0.388690 0.491779 0.579417
0.513345 0.495751 0.581859
0.638153 0.499347 0.584889
0.762659 0.502507 0.588569
0.888083 0.505690 0.592276
1.000000 0.508893 0.596007
0.084848 0.616396 0.581458
0.162596 0.618873 0.582981
0.279749 0.621904 0.586356
0.399826 0.624951 0.589906
0.521821 0.628047 0.593511
0.645218 0.631178 0.597159
0.769723 0.634338 0.600839
0.895148 0.637521 0.604546
1.000000 0.640724 0.608277
0.093824 0.750020 0.593030
0.169913 0.751951 0.595279
0.286877 0.754920 0.598737
0.406955 0.757967 0.602286
0.528949 0.761063 0.605892
0.652346 0.764195 0.609539
0.776852 0.767354 0.613219
0.902277 0.770537 0.616926
1.000000 0.773740 0.620657
0.101004 0.884019 0.605502
0.177094 0.885950 0.607751
0.294058 0.888918 0.611208
0.414135 0.891965 0.614757
0.536130 0.895061 0.618363
0.659527 0.898193 0.622011
0.784033 0.901353 0.625691
0.909458 0.904536 0.629398
1.000000 0.907739 0.633129
0.108230 1.000000 0.618052
0.184319 1.000000 0.620301
0.301284 1.000000 0.623758
0.421361 1.000000 0.627307
0.543356 1.000000 0.630913
0.666753 1.000000 0.634560
0.791259 1.000000 0.638241
0.916684 1.000000 0.641948
1.000000 1.000000 0.645678
0.013541 0.007586 0.667081
0.091289 0.010063 0.668605
0.210804 0.013871 0.670946
0.333500 0.017781 0.673349
0.458155 0.021752 0.675791
0.584242 0.025769 0.678261
0.711463 0.029823 0.680754
0.839623 0.033906 0.683264
0.968586 0.038015 0.685791
0.023479 0.090714 0.672205
0.101227 0.093191 0.673728
0.220742 0.096999 0.676069
0.343438 0.100908 0.678473
0.468093 0.104880 0.680915
0.594180 0.108897 0.683385
0.721401 0.112950 0.685877
0.849561 0.117033 0.688388
0.978524 0.121142 0.690914
0.038755 0.218498 0.680081
0.116504 0.220975 0.681604
0.236019 0.224783 0.683946
0.358715 0.228692 0.686349
0.483370 0.232664 0.688791
0.609457 0.236681 0.691261
0.736678 0.240734 0.693753
0.864838 0.244818 0.696264
0.993801 0.248926 0.698790
0.054439 0.349682 0.688167
0.132187 0.352159 0.689690
0.251702 0.355967 0.692031
0.374398 0.359876 0.694435
0.499053 0.363848 0.696877
0.625141 0.367865 0.699347
0.752361 0.371919 0.701839
0.880521 0.376002 0.704350
1.000000 0.379632 0.707513
0.070373 0.482962 0.696382
0.148121 0.485439 0.697905
0.267636 0.489247 0.700246
0.390332 0.493156 0.702650
0.514987 0.497128 0.705092
0.638873 0.500420 0.708525
0.763378 0.503580 0.712205
0.888803 0.506763 0.715913
1.000000 0.509966 0.719643
0.086490 0.617773 0.704691
0.163504 0.620008 0.706536
0.280469 0.622977 0.709993
0.400546 0.626024 0.713542
0.522541 0.629120 0.717148
0.645937 0.632252 0.720795
0.770443 0.635411 0.724475
0.895868 0.638594 0.728183
1.000000 0.641797 0.731913
0.094543 0.751093 0.716667
0.170632 0.753024 0.718916
0.287597 0.755993 0.722373
0.407674 0.759040 0.725922
0.529669 0.762136 0.729528
0.653066 0.765268 0.733175
0.777571 0.768427 0.736856
0.902996 0.771611 0.740563
1.000000 0.774814 0.744293
0.101724 0.885092 0.729138
0.177813 0.887023 0.731387
0.294778 0.889991 0.734845
0.414855 0.893038 0.738394
0.536850 0.896135 0.742000
0.660247 0.899266 0.745647
0.784752 0.902426 0.749327
0.910177 0.905609 0.753034
1.000000 0.908812 0.756765
0.108950 1.000000 0.741688
0.185039 1.000000 0.743937
0.302004 1.000000 0.747394
0.422081 1.000000 0.750944
0.544076 1.000000 0.754549
0.667473 1.000000 0.758197
0.791978 1.000000 0.761877
0.917403 1.000000 0.765584
1.000000 1.000000 0.769315
0.015194 0.008973 0.791224
0.092943 0.011450 0.792748
0.212458 0.015258 0.795089
0.335154 0.019167 0.797492
0.459809 0.023139 0.799934
0.585896 0.027156 0.802404
0.713117 0.031210 0.804897
0.841277 0.035293 0.807407
0.970240 0.039402 0.809934
0.025132 0.092100 0.796348
0.102881 0.094578 0.797871
0.222396 0.098385 0.800212
0.345092 0.102295 0.802616
0.469747 0.106266 0.805058
0.595834 0.110284 0.807528
0.723055 0.114337 0.810020
0.851215 0.118420 0.812531
0.980178 0.122529 0.815057
0.040409 0.219884 0.804224
0.118157 0.222362 0.805747
0.237673 0.226169 0.808089
0.360368 0.230079 0.810492
0.485024 0.234050 0.812934
0.611111 0.238068 0.815404
0.738332 0.242121 0.817896
0.866492 0.246204 0.820407
0.995455 0.250313 0.822933
0.056093 0.351069 0.812310
0.133841 0.353546 0.813833
0.253356 0.357354 0.816174
0.376052 0.361263 0.818578
0.500707 0.365235 0.821020
0.626794 0.369252 0.823490
0.754015 0.373305 0.825982
0.882175 0.377389 0.828493
1.000000 0.380713 0.832062
0.072026 0.484348 0.820525
0.149775 0.486826 0.822048
0.269290 0.490633 0.824389
0.391986 0.494543 0.826793
0.516201 0.498370 0.829427
0.639597 0.501501 0.833075
0.764103 0.504661 0.836755
0.889528 0.507844 0.840462
1.000000 0.511047 0.844193
0.088140 0.619158 0.828836
0.164229 0.621089 0.831085
0.281194 0.624058 0.834542
0.401271 0.627105 0.838091
0.523266 0.630201 0.841697
0.646662 0.633333 0.845345
0.771168 0.636492 0.849025
0.896593 0.639675 0.852732
1.000000 0.642878 0.856463
0.095268 0.752174 0.841216
0.171357 0.754105 0.843465
0.288322 0.757074 0.846922
0.408399 0.760121 0.850472
0.530394 0.763217 0.854077
0.653791 0.766349 0.857725
0.778296 0.769508 0.861405
0.903721 0.772692 0.865112
1.000000 0.775895 0.868843
0.102449 0.886173 0.853688
0.178538 0.888104 0.855937
0.295503 0.891072 0.859394
0.415580 0.894119 0.862943
0.537575 0.897216 0.866549
0.660972 0.900347 0.870196
0.785477 0.903507 0.873876
0.910902 0.906690 0.877584
1.000000 0.909893 0.881314
0.109675 1.000000 0.866237
0.185764 1.000000 0.868486
0.302729 1.000000 0.871944
0.422806 1.000000 0.875493
0.544801 1.000000 0.879099
0.668198 1.000000 0.882746
0.792703 1.000000 0.886426
0.918128 1.000000 0.890134
1.000000 1.000000 0.893864
0.016858 0.010368 0.916146
0.094607 0.012846 0.917669
0.214122 0.016653 0.920010
0.336818 0.020563 0.922414
0.461473 0.024534 0.924855
0.587560 0.028552 0.927325
0.714781 0.032605 0.929818
0.842941 0.036688 0.932328
0.971904 0.040797 0.934855
0.026797 0.093496 0.921269
0.104545 0.095973 0.922792
0.224060 0.099781 0.925134
0.346756 0.103690 0.927537
0.471411 0.107662 0.929979
0.597498 0.111679 0.932449
0.724719 0.115732 0.934941
0.852879 0.119816 0.937452
0.981842 0.123925 0.939978
0.042073 0.221280 0.929145
0.119822 0.223757 0.930669
0.239337 0.227565 0.933010
0.362033 0.231474 0.935413
0.486688 0.235446 0.937855
0.612775 0.239463 0.940325
0.739996 0.243516 0.942818
0.868156 0.247600 0.945328
0.997119 0.251709 0.947855
0.057757 0.352464 0.937231
0.135505 0.354941 0.938754
0.255020 0.358749 0.941096
0.377716 0.362659 0.943499
0.502371 0.366630 0.945941
0.628459 0.370647 0.948411
0.755679 0.374701 0.950903
0.883273 0.378598 0.953662
1.000000 0.381801 0.957392
0.073691 0.485744 0.945446
0.151439 0.488221 0.946969
0.270954 0.492029 0.949310
0.393650 0.495938 0.951714
0.516930 0.499457 0.954757
0.640327 0.502589 0.958405
0.764833 0.505749 0.962085
0.890257 0.508932 0.965792
1.000000 0.512135 0.969523
0.088869 0.620246 0.954166
0.164958 0.622177 0.956415
0.281923 0.625145 0.959872
0.402000 0.628193 0.963421
0.523995 0.631289 0.967027
0.647392 0.634420 0.970675
0.771897 0.637580 0.974355
0.897322 0.640763 0.978062
1.000000 0.643966 0.981793
0.095998 0.753262 0.966546
0.172087 0.755193 0.968795
0.289051 0.758161 0.972252
0.409129 0.761209 0.975802
0.531123 0.764305 0.979408
0.654520 0.767436 0.983055
0.779026 0.770596 0.986735
0.904451 0.773779 0.990442
1.000000 0.776982 0.994173
0.103178 0.887261 0.979018
0.179268 0.889192 0.981267
0.296232 0.892160 0.984724
0.416309 0.895207 0.988273
0.538304 0.898303 0.991879
0.661701 0.901435 0.995526
0.786207 0.904595 0.999207
0.911632 0.907778 1.000000
1.000000 0.910981 1.000000
0.110404 1.000000 0.991567
0.186493 1.000000 0.993817
0.303458 1.000000 0.997274
0.423535 1.000000 1.000000
0.545530 1.000000 1.000000
0.668927 1.000000 1.000000
0.793433 1.000000 1.000000
0.918858 1.000000 1.000000
1.000000 1.000000 1.000000
