assets/luts/generated_genre/bs_scifi_clinical_white_cc03daab8756df30.cube
# V4 spec-generated LUT — bs_scifi_clinical_white
# Genre: sci-fi
# Look: Sterile machined sci-fi — future-clean blue highlights. Van Hoytema/Ad Astra, Fraser/Foundation.
# Spec hash: cc03daab8756df30
TITLE "V4 Spec LUT — bs_scifi_clinical_white"
LUT_3D_SIZE 9
DOMAIN_MIN 0.0 0.0 0.0
DOMAIN_MAX 1.0 1.0 1.0
0.000000 0.000000 0.012058
0.089635 0.000000 0.015452
0.206850 0.003360 0.019477
0.324064 0.007865 0.023502
0.441278 0.012369 0.027527
0.558493 0.016874 0.031553
0.675707 0.021378 0.035578
0.792922 0.025882 0.039603
0.910136 0.030387 0.043628
0.003584 0.102863 0.023475
0.102411 0.106661 0.026869
0.219626 0.111166 0.030894
0.336840 0.115670 0.034919
0.454054 0.120174 0.038944
0.571269 0.124679 0.042969
0.688483 0.129183 0.046995
0.805698 0.133688 0.051020
0.922912 0.138192 0.055045
0.018737 0.230727 0.037016
0.117564 0.234524 0.040410
0.234779 0.239029 0.044435
0.351993 0.243533 0.048460
0.469208 0.248038 0.052485
0.586422 0.252542 0.056510
0.703636 0.257046 0.060535
0.820851 0.261551 0.064561
0.938065 0.266055 0.068586
0.033891 0.358590 0.050557
0.132717 0.362387 0.053951
0.249932 0.366892 0.057976
0.367146 0.371396 0.062001
0.484361 0.375901 0.066026
0.601575 0.380405 0.070051
0.718790 0.384910 0.074076
0.836004 0.389414 0.078102
0.953218 0.393918 0.082127
0.049044 0.486453 0.064098
0.147871 0.490251 0.067491
0.265085 0.494755 0.071517
0.382299 0.499259 0.075542
0.499514 0.503764 0.079567
0.616720 0.508268 0.083635
0.733701 0.512779 0.088864
0.850682 0.517290 0.094094
0.967663 0.521801 0.099323
0.064197 0.614316 0.077639
0.163024 0.618114 0.081032
0.280145 0.622621 0.085539
0.397126 0.627131 0.090768
0.514107 0.631642 0.095998
0.631088 0.636153 0.101227
0.748069 0.640663 0.106457
0.865050 0.645174 0.111686
0.982031 0.649685 0.116916
0.078902 0.742191 0.093492
0.177532 0.745994 0.097902
0.294513 0.750505 0.103131
0.411494 0.755016 0.108361
0.528475 0.759526 0.113590
0.645456 0.764037 0.118820
0.762437 0.768548 0.124049
0.879418 0.773058 0.129279
0.996400 0.777569 0.134509
0.093270 0.870075 0.111085
0.191900 0.873878 0.115494
0.308881 0.878389 0.120724
0.425862 0.882900 0.125953
0.542843 0.887411 0.131183
0.659824 0.891921 0.136412
0.776806 0.896432 0.141642
0.893787 0.900943 0.146872
1.000000 0.905453 0.152101
0.107638 0.997960 0.128678
0.206268 1.000000 0.133087
0.323249 1.000000 0.138316
0.440230 1.000000 0.143546
0.557212 1.000000 0.148775
0.674193 1.000000 0.154005
0.791174 1.000000 0.159235
0.908155 1.000000 0.164464
1.000000 1.000000 0.169694
0.000000 0.000000 0.112154
0.090977 0.000198 0.115548
0.208192 0.004703 0.119573
0.325406 0.009207 0.123598
0.442621 0.013711 0.127623
0.559835 0.018216 0.131649
0.677049 0.022720 0.135674
0.794264 0.027225 0.139699
0.911478 0.031729 0.143724
0.004926 0.104206 0.123571
0.103753 0.108003 0.126965
0.220968 0.112508 0.130990
0.338182 0.117012 0.135015
0.455397 0.121517 0.139040
0.572611 0.126021 0.143065
0.689826 0.130526 0.147091
0.807040 0.135030 0.151116
0.924254 0.139534 0.155141
0.020080 0.232069 0.137112
0.118907 0.235867 0.140506
0.236121 0.240371 0.144531
0.353335 0.244875 0.148556
0.470550 0.249380 0.152581
0.587764 0.253884 0.156606
0.704979 0.258389 0.160632
0.822193 0.262893 0.164657
0.939407 0.267397 0.168682
0.035233 0.359932 0.150653
0.134060 0.363730 0.154047
0.251274 0.368234 0.158072
0.368489 0.372739 0.162097
0.485703 0.377243 0.166122
0.602917 0.381747 0.170147
0.720132 0.386252 0.174172
0.837346 0.390756 0.178198
0.954561 0.395261 0.182223
0.050386 0.487795 0.164194
0.149213 0.491593 0.167588
0.266427 0.496097 0.171613
0.383642 0.500602 0.175638
0.500856 0.505106 0.179663
0.617993 0.509613 0.184090
0.734974 0.514123 0.189319
0.851955 0.518634 0.194549
0.968936 0.523145 0.199778
0.065539 0.615658 0.177735
0.164366 0.619456 0.181128
0.281418 0.623965 0.185994
0.398399 0.628475 0.191223
0.515380 0.632986 0.196453
0.632361 0.637497 0.201682
0.749342 0.642008 0.206912
0.866323 0.646518 0.212141
0.983304 0.651029 0.217371
0.080175 0.743535 0.193947
0.178805 0.747338 0.198357
0.295786 0.751849 0.203586
0.412767 0.756360 0.208816
0.529748 0.760870 0.214045
0.646729 0.765381 0.219275
0.763710 0.769892 0.224504
0.880691 0.774402 0.229734
0.997672 0.778913 0.234964
0.094543 0.871420 0.211540
0.193173 0.875223 0.215949
0.310154 0.879733 0.221179
0.427135 0.884244 0.226408
0.544116 0.888755 0.231638
0.661097 0.893265 0.236867
0.778078 0.897776 0.242097
0.895059 0.902287 0.247327
1.000000 0.906797 0.252556
0.108911 0.999304 0.229133
0.207541 1.000000 0.233542
0.324522 1.000000 0.238771
0.441503 1.000000 0.244001
0.558484 1.000000 0.249230
0.675465 1.000000 0.254460
0.792446 1.000000 0.259690
0.909427 1.000000 0.264919
1.000000 1.000000 0.270149
0.000000 0.000000 0.225672
0.092500 0.001720 0.229066
0.209714 0.006225 0.233091
0.326928 0.010729 0.237116
0.444143 0.015234 0.241141
0.561357 0.019738 0.245166
0.678572 0.024243 0.249192
0.795786 0.028747 0.253217
0.913000 0.033251 0.257242
0.006449 0.105728 0.237089
0.105276 0.109526 0.240483
0.222490 0.114030 0.244508
0.339704 0.118534 0.248533
0.456919 0.123039 0.252558
0.574133 0.127543 0.256583
0.691348 0.132048 0.260608
0.808562 0.136552 0.264634
0.925777 0.141057 0.268659
0.021602 0.233591 0.250630
0.120429 0.237389 0.254023
0.237643 0.241893 0.258049
0.354858 0.246398 0.262074
0.472072 0.250902 0.266099
0.589286 0.255406 0.270124
0.706501 0.259911 0.274149
0.823715 0.264415 0.278174
0.940930 0.268920 0.282200
0.036755 0.361454 0.264171
0.135582 0.365252 0.267564
0.252796 0.369756 0.271590
0.370011 0.374261 0.275615
0.487225 0.378765 0.279640
0.604440 0.383270 0.283665
0.721654 0.387774 0.287690
0.838868 0.392278 0.291715
0.956011 0.396785 0.296111
0.051908 0.489317 0.277712
0.150735 0.493115 0.281105
0.267949 0.497619 0.285130
0.385164 0.502124 0.289156
0.502378 0.506628 0.293181
0.619436 0.511137 0.298015
0.736417 0.515648 0.303244
0.853398 0.520158 0.308474
0.970379 0.524669 0.313703
0.067061 0.617180 0.291253
0.165880 0.620978 0.294689
0.282861 0.625489 0.299918
0.399842 0.630000 0.305148
0.516823 0.634511 0.310378
0.633804 0.639021 0.315607
0.750785 0.643532 0.320837
0.867766 0.648043 0.326066
0.984747 0.652553 0.331296
0.081618 0.745060 0.307872
0.180248 0.748863 0.312281
0.297229 0.753373 0.317511
0.414210 0.757884 0.322741
0.531191 0.762395 0.327970
0.648172 0.766905 0.333200
0.765153 0.771416 0.338429
0.882135 0.775927 0.343659
0.999116 0.780438 0.348888
0.095986 0.872944 0.325465
0.194616 0.876747 0.329874
0.311597 0.881258 0.335104
0.428578 0.885768 0.340333
0.545559 0.890279 0.345563
0.662541 0.894790 0.350792
0.779522 0.899300 0.356022
0.896503 0.903811 0.361251
1.000000 0.908322 0.366481
0.110354 1.000000 0.343057
0.208984 1.000000 0.347467
0.325965 1.000000 0.352696
0.442947 1.000000 0.357926
0.559928 1.000000 0.363155
0.676909 1.000000 0.368385
0.793890 1.000000 0.373614
0.910871 1.000000 0.378844
1.000000 1.000000 0.384073
0.000000 0.000000 0.339190
0.094022 0.003243 0.342584
0.211236 0.007747 0.346609
0.328451 0.012251 0.350634
0.445665 0.016756 0.354659
0.562879 0.021260 0.358684
0.680094 0.025765 0.362709
0.797308 0.030269 0.366735
0.914523 0.034774 0.370760
0.007971 0.107250 0.350607
0.106798 0.111048 0.354000
0.224012 0.115552 0.358025
0.341227 0.120057 0.362051
0.458441 0.124561 0.366076
0.575656 0.129066 0.370101
0.692870 0.133570 0.374126
0.810084 0.138074 0.378151
0.927299 0.142579 0.382176
0.023124 0.235113 0.364147
0.121951 0.238911 0.367541
0.239165 0.243415 0.371566
0.356380 0.247920 0.375592
0.473594 0.252424 0.379617
0.590809 0.256929 0.383642
0.708023 0.261433 0.387667
0.825238 0.265938 0.391692
0.942452 0.270442 0.395717
0.038277 0.362976 0.377688
0.137104 0.366774 0.381082
0.254319 0.371279 0.385107
0.371533 0.375783 0.389132
0.488747 0.380287 0.393158
0.605962 0.384792 0.397183
0.723176 0.389296 0.401208
0.840391 0.393801 0.405233
0.957455 0.398309 0.410035
0.053430 0.490839 0.391229
0.152257 0.494637 0.394623
0.269472 0.499142 0.398648
0.386686 0.503646 0.402673
0.503898 0.508151 0.406710
0.620879 0.512661 0.411939
0.737861 0.517172 0.417169
0.854842 0.521683 0.422398
0.971823 0.526193 0.427628
0.068583 0.618703 0.404770
0.167323 0.622503 0.408614
0.284304 0.627013 0.413843
0.401285 0.631524 0.419073
0.518267 0.636035 0.424302
0.635248 0.640546 0.429532
0.752229 0.645056 0.434761
0.869210 0.649567 0.439991
0.986191 0.654078 0.445221
0.083061 0.746584 0.421797
0.181691 0.750387 0.426206
0.298673 0.754898 0.431436
0.415654 0.759408 0.436665
0.532635 0.763919 0.441895
0.649616 0.768430 0.447124
0.766597 0.772940 0.452354
0.883578 0.777451 0.457584
1.000000 0.781962 0.462813
0.097429 0.874468 0.439390
0.196060 0.878271 0.443799
0.313041 0.882782 0.449028
0.430022 0.887293 0.454258
0.547003 0.891803 0.459487
0.663984 0.896314 0.464717
0.780965 0.900825 0.469947
0.897946 0.905335 0.475176
1.000000 0.909846 0.480406
0.111798 1.000000 0.456982
0.210428 1.000000 0.461391
0.327409 1.000000 0.466621
0.444390 1.000000 0.471850
0.561371 1.000000 0.477080
0.678352 1.000000 0.482310
0.795333 1.000000 0.487539
0.912314 1.000000 0.492769
1.000000 1.000000 0.497998
0.000000 0.000967 0.452708
0.095544 0.004765 0.456101
0.212758 0.009269 0.460126
0.329973 0.013774 0.464152
0.447187 0.018278 0.468177
0.564402 0.022783 0.472202
0.681616 0.027287 0.476227
0.798831 0.031791 0.480252
0.916045 0.036296 0.484277
0.009493 0.108772 0.464124
0.108320 0.112570 0.467518
0.225535 0.117075 0.471543
0.342749 0.121579 0.475568
0.459963 0.126083 0.479594
0.577178 0.130588 0.483619
0.694392 0.135092 0.487644
0.811607 0.139597 0.491669
0.928821 0.144101 0.495694
0.024646 0.236635 0.477665
0.123473 0.240433 0.481059
0.240688 0.244938 0.485084
0.357902 0.249442 0.489109
0.475116 0.253946 0.493134
0.592331 0.258451 0.497160
0.709545 0.262955 0.501185
0.826760 0.267460 0.505210
0.943974 0.271964 0.509235
0.039799 0.364499 0.491206
0.138626 0.368296 0.494600
0.255841 0.372801 0.498625
0.373055 0.377305 0.502650
0.490270 0.381810 0.506675
0.607484 0.386314 0.510701
0.724698 0.390818 0.514726
0.841913 0.395323 0.518751
0.958898 0.399833 0.523960
0.054953 0.492362 0.504747
0.153780 0.496160 0.508141
0.270994 0.500664 0.512166
0.388208 0.505168 0.516191
0.505342 0.509675 0.520635
0.622323 0.514186 0.525864
0.739304 0.518696 0.531094
0.856285 0.523207 0.536323
0.973266 0.527718 0.541553
0.070106 0.620225 0.518288
0.168767 0.624027 0.522538
0.285748 0.628538 0.527768
0.402729 0.633049 0.532998
0.519710 0.637559 0.538227
0.636691 0.642070 0.543457
0.753672 0.646581 0.548686
0.870653 0.651091 0.553916
0.987634 0.655602 0.559145
0.084505 0.748108 0.535722
0.183135 0.751911 0.540131
0.300116 0.756422 0.545361
0.417097 0.760933 0.550590
0.534078 0.765443 0.555820
0.651059 0.769954 0.561049
0.768040 0.774465 0.566279
0.885021 0.778976 0.571508
1.000000 0.783486 0.576738
0.098873 0.875993 0.553314
0.197503 0.879796 0.557724
0.314484 0.884306 0.562953
0.431465 0.888817 0.568183
0.548446 0.893328 0.573412
0.665427 0.897838 0.578642
0.782408 0.902349 0.583871
0.899389 0.906860 0.589101
1.000000 0.911370 0.594330
0.113241 1.000000 0.570907
0.211871 1.000000 0.575316
0.328852 1.000000 0.580546
0.445833 1.000000 0.585775
0.562814 1.000000 0.591005
0.679795 1.000000 0.596234
0.796776 1.000000 0.601464
0.913758 1.000000 0.606693
1.000000 1.000000 0.611923
0.000000 0.002489 0.566225
0.097066 0.006287 0.569619
0.214281 0.010792 0.573644
0.331495 0.015296 0.577669
0.448709 0.019800 0.581695
0.565924 0.024305 0.585720
0.683138 0.028809 0.589745
0.800353 0.033314 0.593770
0.917567 0.037818 0.597795
0.011015 0.110295 0.577642
0.109842 0.114092 0.581036
0.227057 0.118597 0.585061
0.344271 0.123101 0.589086
0.461486 0.127606 0.593111
0.578700 0.132110 0.597137
0.695914 0.136614 0.601162
0.813129 0.141119 0.605187
0.930343 0.145623 0.609212
0.026169 0.238158 0.591183
0.124995 0.241955 0.594577
0.242210 0.246460 0.598602
0.359424 0.250964 0.602627
0.476639 0.255469 0.606652
0.593853 0.259973 0.610677
0.711068 0.264478 0.614703
0.828282 0.268982 0.618728
0.945496 0.273486 0.622753
0.041322 0.366021 0.604724
0.140149 0.369819 0.608118
0.257363 0.374323 0.612143
0.374577 0.378827 0.616168
0.491792 0.383332 0.620193
0.609006 0.387836 0.624218
0.726221 0.392341 0.628244
0.843360 0.396847 0.632655
0.960341 0.401358 0.637885
0.056475 0.493884 0.618265
0.155302 0.497682 0.621659
0.272516 0.502186 0.625684
0.389731 0.506691 0.629709
0.506785 0.511199 0.634559
0.623766 0.515710 0.639789
0.740747 0.520221 0.645018
0.857728 0.524731 0.650248
0.974709 0.529242 0.655478
0.071580 0.621748 0.632054
0.170210 0.625551 0.636463
0.287191 0.630062 0.641693
0.404172 0.634573 0.646922
0.521153 0.639084 0.652152
0.638134 0.643594 0.657381
0.755115 0.648105 0.662611
0.872096 0.652616 0.667841
0.989078 0.657126 0.673070
0.085948 0.749633 0.649647
0.184578 0.753436 0.654056
0.301559 0.757946 0.659285
0.418540 0.762457 0.664515
0.535521 0.766968 0.669744
0.652502 0.771478 0.674974
0.769484 0.775989 0.680204
0.886465 0.780500 0.685433
1.000000 0.785011 0.690663
0.100316 0.877517 0.667239
0.198946 0.881320 0.671648
0.315927 0.885831 0.676878
0.432908 0.890341 0.682107
0.549890 0.894852 0.687337
0.666871 0.899363 0.692567
0.783852 0.903873 0.697796
0.900833 0.908384 0.703026
1.000000 0.912895 0.708255
0.114684 1.000000 0.684832
0.213315 1.000000 0.689241
0.330296 1.000000 0.694470
0.447277 1.000000 0.699700
0.564258 1.000000 0.704930
0.681239 1.000000 0.710159
0.798220 1.000000 0.715389
0.915201 1.000000 0.720618
1.000000 1.000000 0.725848
0.000000 0.004012 0.679743
0.098588 0.007809 0.683137
0.215803 0.012314 0.687162
0.333017 0.016818 0.691187
0.450232 0.021323 0.695212
0.567446 0.025827 0.699238
0.684661 0.030331 0.703263
0.801875 0.034836 0.707288
0.919089 0.039340 0.711313
0.012538 0.111817 0.691160
0.111365 0.115615 0.694554
0.228579 0.120119 0.698579
0.345793 0.124623 0.702604
0.463008 0.129128 0.706629
0.580222 0.133632 0.710654
0.697437 0.138137 0.714679
0.814651 0.142641 0.718705
0.931865 0.147145 0.722730
0.027691 0.239680 0.704701
0.126518 0.243478 0.708095
0.243732 0.247982 0.712120
0.360947 0.252487 0.716145
0.478161 0.256991 0.720170
0.595375 0.261495 0.724195
0.712590 0.266000 0.728220
0.829804 0.270504 0.732246
0.947019 0.275009 0.736271
0.042844 0.367543 0.718242
0.141671 0.371341 0.721635
0.258885 0.375845 0.725661
0.376100 0.380350 0.729686
0.493314 0.384854 0.733711
0.610528 0.389358 0.737736
0.727743 0.393863 0.741761
0.844804 0.398371 0.746580
0.961785 0.402882 0.751810
0.057997 0.495406 0.731783
0.156824 0.499204 0.735176
0.274038 0.503708 0.739202
0.391247 0.508213 0.743255
0.508228 0.512724 0.748484
0.625210 0.517234 0.753714
0.742191 0.521745 0.758943
0.859172 0.526256 0.764173
0.976153 0.530766 0.769402
0.073023 0.623273 0.745979
0.171653 0.627076 0.750388
0.288634 0.631587 0.755618
0.405616 0.636097 0.760847
0.522597 0.640608 0.766077
0.639578 0.645119 0.771306
0.756559 0.649629 0.776536
0.873540 0.654140 0.781765
0.990521 0.658651 0.786995
0.087391 0.751157 0.763571
0.186022 0.754960 0.767981
0.303003 0.759471 0.773210
0.419984 0.763981 0.778440
0.536965 0.768492 0.783669
0.653946 0.773003 0.788899
0.770927 0.777514 0.794128
0.887908 0.782024 0.799358
1.000000 0.786535 0.804587
0.101760 0.879041 0.781164
0.200390 0.882844 0.785573
0.317371 0.887355 0.790803
0.434352 0.891866 0.796032
0.551333 0.896376 0.801262
0.668314 0.900887 0.806491
0.785295 0.905398 0.811721
0.902276 0.909908 0.816950
1.000000 0.914419 0.822180
0.116128 1.000000 0.798756
0.214758 1.000000 0.803166
0.331739 1.000000 0.808395
0.448720 1.000000 0.813625
0.565701 1.000000 0.818854
0.682682 1.000000 0.824084
0.799663 1.000000 0.829313
0.916644 1.000000 0.834543
1.000000 1.000000 0.839773
0.001284 0.005534 0.793261
0.100111 0.009332 0.796655
0.217325 0.013836 0.800680
0.334540 0.018340 0.804705
0.451754 0.022845 0.808730
0.568968 0.027349 0.812755
0.686183 0.031854 0.816780
0.803397 0.036358 0.820806
0.920612 0.040862 0.824831
0.014060 0.113339 0.804678
0.112887 0.117137 0.808071
0.230101 0.121641 0.812097
0.347316 0.126146 0.816122
0.464530 0.130650 0.820147
0.581744 0.135154 0.824172
0.698959 0.139659 0.828197
0.816173 0.144163 0.832222
0.933388 0.148668 0.836248
0.029213 0.241202 0.818219
0.128040 0.245000 0.821612
0.245254 0.249504 0.825637
0.362469 0.254009 0.829663
0.479683 0.258513 0.833688
0.596898 0.263018 0.837713
0.714112 0.267522 0.841738
0.831326 0.272026 0.845763
0.948541 0.276531 0.849788
0.044366 0.369065 0.831759
0.143193 0.372863 0.835153
0.260407 0.377367 0.839178
0.377622 0.381872 0.843204
0.494836 0.386376 0.847229
0.612051 0.390881 0.851254
0.729265 0.395385 0.855279
0.846247 0.399896 0.860505
0.963228 0.404406 0.865735
0.059519 0.496928 0.845300
0.158346 0.500726 0.848694
0.275561 0.505231 0.852719
0.392691 0.509737 0.857179
0.509672 0.514248 0.862409
0.626653 0.518759 0.867638
0.743634 0.523269 0.872868
0.860615 0.527780 0.878098
0.977596 0.532291 0.883327
0.074467 0.624797 0.859904
0.173097 0.628600 0.864313
0.290078 0.633111 0.869542
0.407059 0.637622 0.874772
0.524040 0.642132 0.880001
0.641021 0.646643 0.885231
0.758002 0.651154 0.890461
0.874983 0.655664 0.895690
0.991964 0.660175 0.900920
0.088835 0.752681 0.877496
0.187465 0.756484 0.881905
0.304446 0.760995 0.887135
0.421427 0.765506 0.892364
0.538408 0.770016 0.897594
0.655389 0.774527 0.902824
0.772370 0.779038 0.908053
0.889351 0.783549 0.913283
1.000000 0.788059 0.918512
0.103203 0.880566 0.895089
0.201833 0.884369 0.899498
0.318814 0.888879 0.904727
0.435795 0.893390 0.909957
0.552776 0.897901 0.915187
0.669757 0.902411 0.920416
0.786738 0.906922 0.925646
0.903720 0.911433 0.930875
1.000000 0.915943 0.936105
0.117571 1.000000 0.912681
0.216201 1.000000 0.917090
0.333182 1.000000 0.922320
0.450163 1.000000 0.927550
0.567144 1.000000 0.932779
0.684126 1.000000 0.938009
0.801107 1.000000 0.943238
0.918088 1.000000 0.948468
1.000000 1.000000 0.953697
0.002806 0.007056 0.906779
0.101633 0.010854 0.910172
0.218847 0.015358 0.914198
0.336062 0.019863 0.918223
0.453276 0.024367 0.922248
0.570491 0.028871 0.926273
0.687705 0.033376 0.930298
0.804919 0.037880 0.934323
0.922134 0.042385 0.938349
0.015582 0.114861 0.918195
0.114409 0.118659 0.921589
0.231623 0.123163 0.925614
0.348838 0.127668 0.929639
0.466052 0.132172 0.933665
0.583267 0.136677 0.937690
0.700481 0.141181 0.941715
0.817695 0.145685 0.945740
0.934910 0.150190 0.949765
0.030735 0.242724 0.931736
0.129562 0.246522 0.935130
0.246777 0.251027 0.939155
0.363991 0.255531 0.943180
0.481205 0.260035 0.947206
0.598420 0.264540 0.951231
0.715634 0.269044 0.955256
0.832849 0.273549 0.959281
0.950063 0.278053 0.963306
0.045888 0.370587 0.945277
0.144715 0.374385 0.948671
0.261930 0.378890 0.952696
0.379144 0.383394 0.956721
0.496359 0.387899 0.960747
0.613573 0.392403 0.964772
0.730709 0.396909 0.969200
0.847690 0.401420 0.974430
0.964671 0.405931 0.979659
0.061041 0.498451 0.958818
0.159868 0.502248 0.962212
0.277083 0.506753 0.966237
0.394134 0.511262 0.971104
0.511115 0.515772 0.976334
0.628096 0.520283 0.981563
0.745077 0.524794 0.986793
0.862058 0.529304 0.992022
0.979039 0.533815 0.997252
0.075910 0.626321 0.973828
0.174540 0.630124 0.978238
0.291521 0.634635 0.983467
0.408502 0.639146 0.988697
0.525483 0.643657 0.993926
0.642464 0.648167 0.999156
0.759446 0.652678 1.000000
0.876427 0.657189 1.000000
0.993408 0.661699 1.000000
0.090278 0.754206 0.991421
0.188908 0.758009 0.995830
0.305889 0.762519 1.000000
0.422870 0.767030 1.000000
0.539852 0.771541 1.000000
0.656833 0.776052 1.000000
0.773814 0.780562 1.000000
0.890795 0.785073 1.000000
1.000000 0.789584 1.000000
0.104646 0.882090 1.000000
0.203276 0.885893 1.000000
0.320258 0.890404 1.000000
0.437239 0.894914 1.000000
0.554220 0.899425 1.000000
0.671201 0.903936 1.000000
0.788182 0.908446 1.000000
0.905163 0.912957 1.000000
1.000000 0.917468 1.000000
0.119014 1.000000 1.000000
0.217645 1.000000 1.000000
0.334626 1.000000 1.000000
0.451607 1.000000 1.000000
0.568588 1.000000 1.000000
0.685569 1.000000 1.000000
0.802550 1.000000 1.000000
0.919531 1.000000 1.000000
1.000000 1.000000 1.000000
