assets/luts/generated_genre/bs_thriller_fincher_amber_teal_fda8754fcbe2e451.cube
# V4 spec-generated LUT — bs_thriller_fincher_amber_teal
# Genre: thriller
# Look: Clinical thriller — Fincher amber-shadow / teal-mid. Messerschmidt/Mindhunter, Cronenweth/Gone Girl.
# Spec hash: fda8754fcbe2e451
TITLE "V4 Spec LUT — bs_thriller_fincher_amber_teal"
LUT_3D_SIZE 9
DOMAIN_MIN 0.0 0.0 0.0
DOMAIN_MAX 1.0 1.0 1.0
0.023044 0.010144 0.000000
0.088379 0.012188 0.000000
0.200906 0.015709 0.000000
0.316586 0.019329 0.000000
0.434169 0.023009 0.004085
0.553131 0.026731 0.009797
0.673180 0.030488 0.015561
0.794126 0.034272 0.021369
0.915839 0.038081 0.027213
0.026705 0.081269 0.000000
0.092040 0.083313 0.000000
0.204567 0.086834 0.003438
0.320248 0.090454 0.008992
0.437830 0.094133 0.014638
0.556792 0.097856 0.020351
0.676841 0.101613 0.026115
0.797787 0.105397 0.031922
0.919501 0.109206 0.037767
0.033011 0.203766 0.013074
0.098346 0.205811 0.016211
0.210873 0.209332 0.021614
0.326553 0.212952 0.027169
0.444136 0.216631 0.032815
0.563098 0.220354 0.038527
0.683147 0.224110 0.044291
0.804093 0.227895 0.050099
0.925806 0.231704 0.055943
0.039493 0.329697 0.031760
0.104829 0.331742 0.034897
0.217355 0.335263 0.040300
0.333036 0.338883 0.045855
0.450619 0.342562 0.051501
0.569581 0.346285 0.057213
0.689629 0.350041 0.062977
0.810576 0.353826 0.068785
0.932289 0.357635 0.074629
0.046082 0.457699 0.050753
0.111418 0.459744 0.053891
0.223945 0.463265 0.059294
0.339625 0.466885 0.064848
0.457208 0.470564 0.070494
0.576170 0.474287 0.076206
0.696218 0.478043 0.081971
0.819245 0.481874 0.085791
0.943561 0.485741 0.089148
0.052749 0.587202 0.069969
0.118084 0.589247 0.073107
0.230611 0.592768 0.078510
0.346718 0.596397 0.083657
0.466815 0.600133 0.086901
0.588321 0.603912 0.090183
0.710937 0.607726 0.093495
0.834470 0.611569 0.096831
0.958785 0.615436 0.100189
0.062262 0.717951 0.086700
0.128994 0.720026 0.088503
0.243927 0.723601 0.091607
0.362081 0.727276 0.094798
0.482178 0.731012 0.098042
0.603684 0.734791 0.101324
0.726300 0.738605 0.104636
0.849833 0.742448 0.107973
0.974149 0.746315 0.111331
0.077740 0.849809 0.097925
0.144472 0.851884 0.099728
0.259405 0.855459 0.102832
0.377559 0.859135 0.106023
0.497656 0.862870 0.109267
0.619162 0.866649 0.112549
0.741778 0.870463 0.115861
0.865311 0.874306 0.119198
0.989627 0.878173 0.122556
0.093316 0.982503 0.109221
0.160048 0.984578 0.111024
0.274981 0.988153 0.114128
0.393135 0.991828 0.117320
0.513233 0.995564 0.120564
0.634738 0.999343 0.123846
0.757354 1.000000 0.127158
0.880887 1.000000 0.130494
1.000000 1.000000 0.133852
0.023413 0.010838 0.049656
0.088749 0.012883 0.052793
0.201275 0.016404 0.058197
0.316956 0.020024 0.063751
0.434539 0.023703 0.069397
0.553501 0.027426 0.075109
0.673549 0.031182 0.080874
0.794496 0.034967 0.086681
0.916209 0.038775 0.092525
0.027075 0.081963 0.060210
0.092410 0.084007 0.063347
0.204937 0.087529 0.068750
0.320617 0.091148 0.074305
0.438200 0.094828 0.079951
0.557162 0.098550 0.085663
0.677210 0.102307 0.091427
0.798157 0.106092 0.097235
0.919870 0.109900 0.103079
0.033380 0.204461 0.078386
0.098716 0.206505 0.081524
0.211242 0.210026 0.086927
0.326923 0.213646 0.092481
0.444506 0.217325 0.098127
0.563468 0.221048 0.103840
0.683516 0.224805 0.109604
0.804463 0.228589 0.115411
0.926176 0.232398 0.121256
0.039863 0.330392 0.097072
0.105198 0.332436 0.100210
0.217725 0.335957 0.105613
0.333405 0.339577 0.111167
0.450988 0.343256 0.116813
0.569950 0.346979 0.122526
0.689999 0.350736 0.128290
0.810945 0.354520 0.134097
0.932659 0.358329 0.139942
0.046452 0.458393 0.116066
0.111787 0.460438 0.119203
0.224314 0.463959 0.124606
0.339995 0.467579 0.130161
0.457577 0.471258 0.135807
0.576539 0.474981 0.141519
0.696588 0.478737 0.147283
0.820090 0.482579 0.150650
0.944405 0.486446 0.154008
0.053118 0.587897 0.135282
0.118454 0.589941 0.138419
0.230981 0.593462 0.143822
0.347562 0.597102 0.148516
0.467659 0.600838 0.151760
0.589165 0.604617 0.155042
0.711781 0.608431 0.158354
0.835314 0.612274 0.161691
0.959630 0.616141 0.165048
0.063106 0.718655 0.151559
0.129838 0.720731 0.153362
0.244771 0.724306 0.156466
0.362925 0.727981 0.159658
0.483022 0.731717 0.162902
0.604528 0.735496 0.166184
0.727144 0.739310 0.169496
0.850677 0.743153 0.172832
0.974993 0.747019 0.176190
0.078584 0.850514 0.162784
0.145316 0.852589 0.164587
0.260249 0.856164 0.167691
0.378403 0.859839 0.170883
0.498500 0.863575 0.174127
0.620006 0.867354 0.177409
0.742622 0.871168 0.180721
0.866155 0.875011 0.184057
0.990471 0.878878 0.187415
0.094160 0.983208 0.174080
0.160892 0.985283 0.175883
0.275825 0.988858 0.178987
0.393979 0.992533 0.182179
0.514077 0.996269 0.185423
0.635582 1.000000 0.188705
0.758198 1.000000 0.192017
0.881731 1.000000 0.195353
1.000000 1.000000 0.198711
0.024050 0.012034 0.162143
0.089385 0.014078 0.165281
0.201912 0.017600 0.170684
0.317592 0.021219 0.176238
0.435175 0.024899 0.181884
0.554137 0.028621 0.187596
0.674186 0.032378 0.193361
0.795132 0.036163 0.199168
0.916846 0.039971 0.205012
0.027711 0.083159 0.172697
0.093047 0.085203 0.175834
0.205573 0.088724 0.181237
0.321254 0.092344 0.186792
0.438837 0.096024 0.192438
0.557799 0.099746 0.198150
0.677847 0.103503 0.203914
0.798794 0.107287 0.209722
0.920507 0.111096 0.215566
0.034017 0.205656 0.190874
0.099352 0.207701 0.194011
0.211879 0.211222 0.199414
0.327560 0.214842 0.204969
0.445142 0.218521 0.210615
0.564104 0.222244 0.216327
0.684153 0.226000 0.222091
0.805099 0.229785 0.227898
0.926813 0.233594 0.233743
0.040500 0.331587 0.209560
0.105835 0.333632 0.212697
0.218362 0.337153 0.218100
0.334042 0.340773 0.223655
0.451625 0.344452 0.229301
0.570587 0.348175 0.235013
0.690635 0.351931 0.240777
0.811582 0.355716 0.246584
0.933295 0.359525 0.252429
0.047089 0.459589 0.228553
0.112424 0.461634 0.231690
0.224951 0.465155 0.237093
0.340631 0.468775 0.242648
0.458214 0.472454 0.248294
0.577176 0.476177 0.254006
0.698010 0.479951 0.259020
0.821543 0.483793 0.262356
0.945859 0.487660 0.265714
0.053755 0.589093 0.247769
0.119090 0.591137 0.250906
0.231617 0.594658 0.256309
0.349016 0.598316 0.260222
0.469113 0.602052 0.263466
0.590619 0.605831 0.266748
0.713234 0.609645 0.270060
0.836767 0.613488 0.273397
0.961083 0.617355 0.276755
0.064559 0.719870 0.263266
0.131292 0.721945 0.265068
0.246225 0.725520 0.268173
0.364379 0.729195 0.271364
0.484476 0.732931 0.274608
0.605982 0.736710 0.277890
0.728598 0.740524 0.281202
0.852130 0.744367 0.284539
0.976446 0.748233 0.287897
0.080037 0.851728 0.274491
0.146770 0.853803 0.276293
0.261703 0.857378 0.279398
0.379857 0.861053 0.282589
0.499954 0.864789 0.285833
0.621460 0.868568 0.289115
0.744076 0.872382 0.292427
0.867608 0.876225 0.295764
0.991924 0.880092 0.299122
0.095614 0.984422 0.285787
0.162346 0.986497 0.287589
0.277279 0.990072 0.290694
0.395433 0.993747 0.293885
0.515530 0.997483 0.297129
0.637036 1.000000 0.300411
0.759652 1.000000 0.303723
0.883185 1.000000 0.307060
1.000000 1.000000 0.310418
0.024704 0.013263 0.277783
0.090040 0.015308 0.280920
0.202566 0.018829 0.286324
0.318247 0.022449 0.291878
0.435830 0.026128 0.297524
0.554792 0.029851 0.303236
0.674840 0.033607 0.309001
0.795787 0.037392 0.314808
0.917500 0.041201 0.320652
0.028366 0.084388 0.288337
0.093701 0.086432 0.291474
0.206228 0.089954 0.296877
0.321908 0.093574 0.302432
0.439491 0.097253 0.308078
0.558453 0.100975 0.313790
0.678501 0.104732 0.319554
0.799448 0.108517 0.325362
0.921161 0.112325 0.331206
0.034671 0.206886 0.306514
0.100007 0.208930 0.309651
0.212533 0.212451 0.315054
0.328214 0.216071 0.320608
0.445797 0.219751 0.326254
0.564759 0.223473 0.331967
0.684807 0.227230 0.337731
0.805754 0.231014 0.343538
0.927467 0.234823 0.349383
0.041154 0.332817 0.325200
0.106489 0.334861 0.328337
0.219016 0.338382 0.333740
0.334696 0.342002 0.339294
0.452279 0.345682 0.344940
0.571241 0.349404 0.350653
0.691290 0.353161 0.356417
0.812236 0.356945 0.362224
0.933950 0.360754 0.368069
0.047743 0.460819 0.344193
0.113078 0.462863 0.347330
0.225605 0.466384 0.352733
0.341286 0.470004 0.358288
0.458868 0.473683 0.363934
0.577830 0.477406 0.369646
0.699505 0.481199 0.373857
0.823038 0.485041 0.377194
0.947354 0.488908 0.380551
0.054409 0.590322 0.363409
0.119745 0.592366 0.366546
0.232356 0.595889 0.371868
0.350510 0.599565 0.375060
0.470608 0.603300 0.378304
0.592113 0.607080 0.381586
0.714729 0.610893 0.384898
0.838262 0.614736 0.388234
0.962578 0.618603 0.391592
0.066054 0.721118 0.378103
0.132786 0.723193 0.379906
0.247719 0.726768 0.383010
0.365873 0.730443 0.386201
0.485971 0.734179 0.389445
0.607477 0.737958 0.392727
0.730092 0.741772 0.396039
0.853625 0.745615 0.399376
0.977941 0.749482 0.402734
0.081532 0.852976 0.389328
0.148264 0.855051 0.391131
0.263197 0.858626 0.394235
0.381352 0.862302 0.397427
0.501449 0.866037 0.400670
0.622955 0.869817 0.403952
0.745570 0.873630 0.407264
0.869103 0.877473 0.410601
0.993419 0.881340 0.413959
0.097108 0.985670 0.400624
0.163841 0.987745 0.402427
0.278774 0.991320 0.405531
0.396928 0.994996 0.408723
0.517025 0.998731 0.411967
0.638531 1.000000 0.415249
0.761146 1.000000 0.418561
0.884679 1.000000 0.421897
1.000000 1.000000 0.425255
0.025370 0.014513 0.395325
0.090705 0.016557 0.398462
0.203232 0.020078 0.403865
0.318912 0.023698 0.409420
0.436495 0.027378 0.415066
0.555457 0.031100 0.420778
0.675505 0.034857 0.426542
0.796452 0.038641 0.432350
0.918165 0.042450 0.438194
0.029031 0.085638 0.405879
0.094366 0.087682 0.409016
0.206893 0.091203 0.414419
0.322573 0.094823 0.419973
0.440156 0.098502 0.425619
0.559118 0.102225 0.431332
0.679167 0.105982 0.437096
0.800113 0.109766 0.442903
0.921826 0.113575 0.448748
0.035337 0.208135 0.424055
0.100672 0.210180 0.427192
0.213199 0.213701 0.432595
0.328879 0.217321 0.438150
0.446462 0.221000 0.443796
0.565424 0.224723 0.449508
0.685472 0.228479 0.455272
0.806419 0.232264 0.461080
0.928132 0.236073 0.466924
0.041819 0.334066 0.442741
0.107154 0.336111 0.445878
0.219681 0.339632 0.451281
0.335362 0.343252 0.456836
0.452944 0.346931 0.462482
0.571907 0.350654 0.468194
0.691955 0.354410 0.473958
0.812902 0.358195 0.479766
0.934615 0.362004 0.485610
0.048408 0.462068 0.461734
0.113744 0.464113 0.464872
0.226270 0.467634 0.470275
0.341951 0.471254 0.475829
0.459534 0.474933 0.481475
0.578496 0.478656 0.487187
0.701024 0.482468 0.490583
0.824557 0.486310 0.493919
0.948873 0.490177 0.497277
0.055075 0.591571 0.480950
0.120410 0.593616 0.484088
0.233875 0.597158 0.488594
0.352029 0.600833 0.491786
0.472127 0.604569 0.495030
0.593632 0.608348 0.498312
0.716248 0.612162 0.501624
0.839781 0.616005 0.504960
0.964097 0.619871 0.508318
0.067573 0.722386 0.494829
0.134305 0.724462 0.496631
0.249238 0.728037 0.499736
0.367393 0.731712 0.502927
0.487490 0.735448 0.506171
0.608996 0.739227 0.509453
0.731611 0.743041 0.512765
0.855144 0.746883 0.516102
0.979460 0.750750 0.519460
0.083051 0.854244 0.506054
0.149783 0.856320 0.507856
0.264716 0.859895 0.510961
0.382871 0.863570 0.514152
0.502968 0.867306 0.517396
0.624474 0.871085 0.520678
0.747089 0.874899 0.523990
0.870622 0.878742 0.527327
0.994938 0.882608 0.530685
0.098627 0.986938 0.517350
0.165360 0.989014 0.519153
0.280293 0.992589 0.522257
0.398447 0.996264 0.525449
0.518544 1.000000 0.528692
0.640050 1.000000 0.531974
0.762665 1.000000 0.535286
0.886198 1.000000 0.538623
1.000000 1.000000 0.541981
0.026042 0.015777 0.514245
0.091378 0.017821 0.517382
0.203905 0.021343 0.522785
0.319585 0.024962 0.528340
0.437168 0.028642 0.533986
0.556130 0.032364 0.539698
0.676178 0.036121 0.545462
0.797125 0.039906 0.551270
0.918838 0.043714 0.557114
0.029704 0.086902 0.524799
0.095039 0.088946 0.527936
0.207566 0.092467 0.533339
0.323246 0.096087 0.538894
0.440829 0.099767 0.544540
0.559791 0.103489 0.550252
0.679840 0.107246 0.556016
0.800786 0.111030 0.561824
0.922499 0.114839 0.567668
0.036010 0.209399 0.542975
0.101345 0.211444 0.546113
0.213872 0.214965 0.551516
0.329552 0.218585 0.557070
0.447135 0.222264 0.562716
0.566097 0.225987 0.568428
0.686145 0.229743 0.574193
0.807092 0.233528 0.580000
0.928805 0.237337 0.585844
0.042492 0.335330 0.561661
0.107827 0.337375 0.564799
0.220354 0.340896 0.570202
0.336035 0.344516 0.575756
0.453617 0.348195 0.581402
0.572579 0.351918 0.587114
0.692628 0.355674 0.592879
0.813575 0.359459 0.598686
0.935362 0.363269 0.604459
0.049081 0.463332 0.580655
0.114417 0.465377 0.583792
0.226943 0.468898 0.589195
0.342624 0.472518 0.594750
0.460207 0.476197 0.600395
0.579945 0.479937 0.605366
0.702561 0.483751 0.608678
0.826094 0.487594 0.612014
0.950410 0.491460 0.615372
0.055748 0.592836 0.599871
0.121083 0.594880 0.603008
0.235412 0.598442 0.606689
0.353566 0.602117 0.609881
0.473664 0.605852 0.613124
0.595169 0.609632 0.616406
0.717785 0.613446 0.619718
0.841318 0.617288 0.623055
0.965634 0.621155 0.626413
0.069110 0.723670 0.612924
0.135842 0.725745 0.614726
0.250775 0.729320 0.617831
0.368929 0.732996 0.621022
0.489027 0.736731 0.624266
0.610532 0.740511 0.627548
0.733148 0.744324 0.630860
0.856681 0.748167 0.634197
0.980997 0.752034 0.637555
0.084588 0.855528 0.624149
0.151320 0.857604 0.625951
0.266253 0.861179 0.629056
0.384407 0.864854 0.632247
0.504505 0.868589 0.635491
0.626011 0.872369 0.638773
0.748626 0.876183 0.642085
0.872159 0.880025 0.645422
0.996475 0.883892 0.648780
0.100164 0.988222 0.635445
0.166897 0.990298 0.637248
0.281829 0.993873 0.640352
0.399984 0.997548 0.643543
0.520081 1.000000 0.646787
0.641587 1.000000 0.650069
0.764202 1.000000 0.653381
0.887735 1.000000 0.656718
1.000000 1.000000 0.660076
0.026722 0.017053 0.634251
0.092057 0.019097 0.637389
0.204584 0.022618 0.642792
0.320264 0.026238 0.648346
0.437847 0.029918 0.653992
0.556809 0.033640 0.659704
0.676857 0.037397 0.665469
0.797804 0.041181 0.671276
0.919517 0.044990 0.677120
0.030383 0.088177 0.644805
0.095718 0.090222 0.647942
0.208245 0.093743 0.653345
0.323925 0.097363 0.658900
0.441508 0.101042 0.664546
0.560470 0.104765 0.670258
0.680519 0.108522 0.676022
0.801465 0.112306 0.681830
0.923179 0.116115 0.687674
0.036689 0.210675 0.662982
0.102024 0.212720 0.666119
0.214551 0.216241 0.671522
0.330231 0.219861 0.677077
0.447814 0.223540 0.682722
0.566776 0.227263 0.688435
0.686825 0.231019 0.694199
0.807771 0.234804 0.700006
0.929484 0.238613 0.705851
0.043171 0.336606 0.681668
0.108507 0.338651 0.684805
0.221033 0.342172 0.690208
0.336714 0.345792 0.695763
0.454297 0.349471 0.701408
0.573259 0.353194 0.707121
0.693307 0.356950 0.712885
0.814254 0.360735 0.718692
0.936913 0.364565 0.723633
0.049760 0.464608 0.700661
0.115096 0.466653 0.703798
0.227622 0.470174 0.709201
0.343303 0.473794 0.714756
0.460886 0.477473 0.720402
0.581496 0.481232 0.724539
0.704112 0.485046 0.727851
0.827645 0.488889 0.731188
0.951961 0.492756 0.734546
0.056427 0.594111 0.719877
0.122030 0.596162 0.722758
0.236963 0.599737 0.725863
0.355117 0.603412 0.729054
0.475214 0.607147 0.732298
0.596720 0.610927 0.735580
0.719336 0.614741 0.738892
0.842869 0.618583 0.742229
0.967185 0.622450 0.745587
0.070661 0.724965 0.732097
0.137393 0.727041 0.733900
0.252326 0.730616 0.737004
0.370480 0.734291 0.740196
0.490578 0.738026 0.743440
0.612083 0.741806 0.746722
0.734699 0.745620 0.750034
0.858232 0.749462 0.753370
0.982548 0.753329 0.756728
0.086139 0.856823 0.743322
0.152871 0.858899 0.745125
0.267804 0.862474 0.748229
0.385958 0.866149 0.751421
0.506056 0.869885 0.754665
0.627561 0.873664 0.757947
0.750177 0.877478 0.761259
0.873710 0.881320 0.764595
0.998026 0.885187 0.767953
0.101715 0.989517 0.754618
0.168447 0.991593 0.756421
0.283380 0.995168 0.759525
0.401535 0.998843 0.762717
0.521632 1.000000 0.765961
0.643138 1.000000 0.769243
0.765753 1.000000 0.772555
0.889286 1.000000 0.775892
1.000000 1.000000 0.779249
0.027406 0.018338 0.755155
0.092741 0.020382 0.758293
0.205268 0.023904 0.763696
0.320948 0.027524 0.769250
0.438531 0.031203 0.774896
0.557493 0.034925 0.780608
0.677542 0.038682 0.786373
0.798488 0.042467 0.792180
0.920202 0.046275 0.798025
0.031067 0.089463 0.765709
0.096402 0.091507 0.768846
0.208929 0.095028 0.774249
0.324610 0.098648 0.779804
0.442193 0.102328 0.785450
0.561155 0.106050 0.791162
0.681203 0.109807 0.796926
0.802150 0.113591 0.802734
0.923863 0.117400 0.808578
0.037373 0.211960 0.783886
0.102708 0.214005 0.787023
0.215235 0.217526 0.792426
0.330915 0.221146 0.797981
0.448498 0.224825 0.803627
0.567460 0.228548 0.809339
0.687509 0.232305 0.815103
0.808455 0.236089 0.820911
0.930169 0.239898 0.826755
0.043855 0.337891 0.802572
0.109191 0.339936 0.805709
0.221717 0.343457 0.811112
0.337398 0.347077 0.816667
0.454981 0.350756 0.822313
0.573943 0.354479 0.828025
0.693991 0.358235 0.833789
0.814938 0.362020 0.839597
0.938475 0.365870 0.843698
0.050445 0.465893 0.821565
0.115780 0.467938 0.824702
0.228307 0.471459 0.830105
0.343987 0.475079 0.835660
0.461570 0.478758 0.841306
0.583059 0.482537 0.844604
0.705674 0.486351 0.847916
0.829207 0.490194 0.851253
0.953523 0.494060 0.854611
0.057111 0.595397 0.840781
0.123593 0.597467 0.842823
0.238526 0.601042 0.845928
0.356680 0.604717 0.849119
0.476777 0.608452 0.852363
0.598283 0.612232 0.855645
0.720898 0.616046 0.858957
0.844431 0.619888 0.862294
0.968747 0.623755 0.865652
0.072223 0.726270 0.852162
0.138956 0.728346 0.853965
0.253889 0.731921 0.857069
0.372043 0.735596 0.860261
0.492140 0.739331 0.863505
0.613646 0.743111 0.866787
0.736261 0.746925 0.870099
0.859794 0.750767 0.873435
0.984110 0.754634 0.876793
0.087701 0.858128 0.863387
0.154434 0.860204 0.865190
0.269367 0.863779 0.868294
0.387521 0.867454 0.871486
0.507618 0.871189 0.874730
0.629124 0.874969 0.878012
0.751739 0.878783 0.881324
0.875272 0.882625 0.884660
0.999588 0.886492 0.888018
0.103277 0.990822 0.874684
0.170010 0.992898 0.876486
0.284943 0.996473 0.879590
0.403097 1.000000 0.882782
0.523194 1.000000 0.886026
0.644700 1.000000 0.889308
0.767316 1.000000 0.892620
0.890848 1.000000 0.895957
1.000000 1.000000 0.899315
0.028094 0.019631 0.876826
0.093430 0.021676 0.879963
0.205956 0.025197 0.885366
0.321637 0.028817 0.890921
0.439220 0.032496 0.896567
0.558182 0.036219 0.902279
0.678230 0.039975 0.908043
0.799177 0.043760 0.913851
0.920890 0.047569 0.919695
0.031756 0.090756 0.887380
0.097091 0.092801 0.890517
0.209618 0.096322 0.895920
0.325298 0.099942 0.901475
0.442881 0.103621 0.907121
0.561843 0.107344 0.912833
0.681891 0.111100 0.918597
0.802838 0.114885 0.924404
0.924551 0.118694 0.930249
0.038061 0.213254 0.905556
0.103397 0.215298 0.908693
0.215924 0.218820 0.914097
0.331604 0.222439 0.919651
0.449187 0.226119 0.925297
0.568149 0.229841 0.931009
0.688197 0.233598 0.936774
0.809144 0.237383 0.942581
0.930857 0.241191 0.948425
0.044544 0.339185 0.924242
0.109879 0.341229 0.927379
0.222406 0.344751 0.932783
0.338087 0.348370 0.938337
0.455669 0.352050 0.943983
0.574631 0.355772 0.949695
0.694680 0.359529 0.955460
0.815732 0.363316 0.961166
0.940048 0.367183 0.964524
0.051133 0.467187 0.943235
0.116468 0.469231 0.946373
0.228995 0.472752 0.951776
0.344676 0.476372 0.957330
0.463125 0.480071 0.962148
0.584631 0.483850 0.965430
0.707247 0.487664 0.968742
0.830780 0.491507 0.972079
0.955095 0.495374 0.975437
0.058433 0.596704 0.961847
0.125165 0.598780 0.963649
0.240098 0.602355 0.966754
0.358252 0.606030 0.969945
0.478349 0.609766 0.973189
0.599855 0.613545 0.976471
0.722471 0.617359 0.979783
0.846004 0.621201 0.983120
0.970320 0.625068 0.986478
0.073796 0.727583 0.972988
0.140528 0.729659 0.974791
0.255461 0.733234 0.977895
0.373615 0.736909 0.981087
0.493712 0.740644 0.984331
0.615218 0.744424 0.987613
0.737834 0.748238 0.990925
0.861367 0.752080 0.994262
0.985683 0.755947 0.997619
0.089274 0.859441 0.984213
0.156006 0.861517 0.986016
0.270939 0.865092 0.989120
0.389093 0.868767 0.992312
0.509191 0.872503 0.995556
0.630696 0.876282 0.998838
0.753312 0.880096 1.000000
0.876845 0.883938 1.000000
1.000000 0.887805 1.000000
0.104850 0.992135 0.995510
0.171582 0.994211 0.997312
0.286515 0.997786 1.000000
0.404669 1.000000 1.000000
0.524767 1.000000 1.000000
0.646273 1.000000 1.000000
0.768888 1.000000 1.000000
0.892421 1.000000 1.000000
1.000000 1.000000 1.000000
