assets/luts/generated_genre/bs_thriller_fincher_amber_teal_fda8754fcbe2e451.cube
# V4 spec-generated LUT — bs_thriller_fincher_amber_teal
# Genre: thriller
# Look: Clinical thriller — Fincher amber-shadow / teal-mid. Messerschmidt/Mindhunter, Cronenweth/Gone Girl.
# Spec hash: fda8754fcbe2e451
TITLE "V4 Spec LUT — bs_thriller_fincher_amber_teal"
LUT_3D_SIZE 5
DOMAIN_MIN 0.0 0.0 0.0
DOMAIN_MAX 1.0 1.0 1.0
0.023044 0.010144 0.000000
0.200906 0.015709 0.000000
0.434169 0.023009 0.004085
0.673180 0.030488 0.015561
0.915839 0.038081 0.027213
0.033011 0.203766 0.013074
0.210873 0.209332 0.021614
0.444136 0.216631 0.032815
0.683147 0.224110 0.044291
0.925806 0.231704 0.055943
0.046082 0.457699 0.050753
0.223945 0.463265 0.059294
0.457208 0.470564 0.070494
0.696218 0.478043 0.081971
0.943561 0.485741 0.089148
0.062262 0.717951 0.086700
0.243927 0.723601 0.091607
0.482178 0.731012 0.098042
0.726300 0.738605 0.104636
0.974149 0.746315 0.111331
0.093316 0.982503 0.109221
0.274981 0.988153 0.114128
0.513233 0.995564 0.120564
0.757354 1.000000 0.127158
1.000000 1.000000 0.133852
0.024050 0.012034 0.162143
0.201912 0.017600 0.170684
0.435175 0.024899 0.181884
0.674186 0.032378 0.193361
0.916846 0.039971 0.205012
0.034017 0.205656 0.190874
0.211879 0.211222 0.199414
0.445142 0.218521 0.210615
0.684153 0.226000 0.222091
0.926813 0.233594 0.233743
0.047089 0.459589 0.228553
0.224951 0.465155 0.237093
0.458214 0.472454 0.248294
0.698010 0.479951 0.259020
0.945859 0.487660 0.265714
0.064559 0.719870 0.263266
0.246225 0.725520 0.268173
0.484476 0.732931 0.274608
0.728598 0.740524 0.281202
0.976446 0.748233 0.287897
0.095614 0.984422 0.285787
0.277279 0.990072 0.290694
0.515530 0.997483 0.297129
0.759652 1.000000 0.303723
1.000000 1.000000 0.310418
0.025370 0.014513 0.395325
0.203232 0.020078 0.403865
0.436495 0.027378 0.415066
0.675505 0.034857 0.426542
0.918165 0.042450 0.438194
0.035337 0.208135 0.424055
0.213199 0.213701 0.432595
0.446462 0.221000 0.443796
0.685472 0.228479 0.455272
0.928132 0.236073 0.466924
0.048408 0.462068 0.461734
0.226270 0.467634 0.470275
0.459534 0.474933 0.481475
0.701024 0.482468 0.490583
0.948873 0.490177 0.497277
0.067573 0.722386 0.494829
0.249238 0.728037 0.499736
0.487490 0.735448 0.506171
0.731611 0.743041 0.512765
0.979460 0.750750 0.519460
0.098627 0.986938 0.517350
0.280293 0.992589 0.522257
0.518544 1.000000 0.528692
0.762665 1.000000 0.535286
1.000000 1.000000 0.541981
0.026722 0.017053 0.634251
0.204584 0.022618 0.642792
0.437847 0.029918 0.653992
0.676857 0.037397 0.665469
0.919517 0.044990 0.677120
0.036689 0.210675 0.662982
0.214551 0.216241 0.671522
0.447814 0.223540 0.682722
0.686825 0.231019 0.694199
0.929484 0.238613 0.705851
0.049760 0.464608 0.700661
0.227622 0.470174 0.709201
0.460886 0.477473 0.720402
0.704112 0.485046 0.727851
0.951961 0.492756 0.734546
0.070661 0.724965 0.732097
0.252326 0.730616 0.737004
0.490578 0.738026 0.743440
0.734699 0.745620 0.750034
0.982548 0.753329 0.756728
0.101715 0.989517 0.754618
0.283380 0.995168 0.759525
0.521632 1.000000 0.765961
0.765753 1.000000 0.772555
1.000000 1.000000 0.779249
0.028094 0.019631 0.876826
0.205956 0.025197 0.885366
0.439220 0.032496 0.896567
0.678230 0.039975 0.908043
0.920890 0.047569 0.919695
0.038061 0.213254 0.905556
0.215924 0.218820 0.914097
0.449187 0.226119 0.925297
0.688197 0.233598 0.936774
0.930857 0.241191 0.948425
0.051133 0.467187 0.943235
0.228995 0.472752 0.951776
0.463125 0.480071 0.962148
0.707247 0.487664 0.968742
0.955095 0.495374 0.975437
0.073796 0.727583 0.972988
0.255461 0.733234 0.977895
0.493712 0.740644 0.984331
0.737834 0.748238 0.990925
0.985683 0.755947 0.997619
0.104850 0.992135 0.995510
0.286515 0.997786 1.000000
0.524767 1.000000 1.000000
0.768888 1.000000 1.000000
1.000000 1.000000 1.000000
