assets/luts/generated_genre/bs_thriller_villeneuve_haze_2e18b7123de2f435.cube
# V4 spec-generated LUT — bs_thriller_villeneuve_haze
# Genre: thriller
# Look: Atmospheric thriller — dread, vast amber haze. Deakins/Blade Runner 2049 dust scenes.
# Spec hash: 2e18b7123de2f435
TITLE "V4 Spec LUT — bs_thriller_villeneuve_haze"
LUT_3D_SIZE 5
DOMAIN_MIN 0.0 0.0 0.0
DOMAIN_MAX 1.0 1.0 1.0
0.074705 0.054022 0.010980
0.271630 0.063718 0.019880
0.461725 0.073078 0.028471
0.648489 0.082274 0.036911
0.833023 0.091359 0.045251
0.107971 0.278233 0.041514
0.304895 0.287929 0.050413
0.494990 0.297289 0.059004
0.681754 0.306484 0.067445
0.866288 0.315570 0.075785
0.139989 0.494042 0.070903
0.336914 0.503737 0.079803
0.527008 0.513097 0.088394
0.713913 0.522297 0.096702
0.898832 0.531394 0.104680
0.171704 0.705954 0.099502
0.369039 0.715662 0.108016
0.559529 0.725033 0.116234
0.746683 0.734240 0.124309
0.931601 0.743338 0.132287
0.204074 0.915312 0.126772
0.401409 0.925020 0.135286
0.591899 0.934391 0.143504
0.779053 0.943599 0.151579
0.963971 0.952696 0.159558
0.078230 0.057547 0.214602
0.275154 0.067243 0.223502
0.465249 0.076602 0.232093
0.652013 0.085798 0.240534
0.836547 0.094884 0.248874
0.111495 0.281758 0.245136
0.308420 0.291453 0.254036
0.498514 0.300813 0.262627
0.685278 0.310009 0.271068
0.869812 0.319094 0.279407
0.143513 0.497566 0.274526
0.340438 0.507262 0.283426
0.530532 0.516621 0.292017
0.717586 0.525825 0.300185
0.902505 0.534923 0.308163
0.175377 0.709482 0.302984
0.372712 0.719190 0.311498
0.563203 0.728562 0.319717
0.750356 0.737769 0.327792
0.935275 0.746866 0.335770
0.207747 0.918841 0.330254
0.405082 0.928549 0.338768
0.595573 0.937920 0.346987
0.782726 0.947127 0.355062
0.967645 0.956225 0.363040
0.081588 0.060905 0.408644
0.278513 0.070601 0.417543
0.468607 0.079961 0.426135
0.655371 0.089156 0.434575
0.839905 0.098242 0.442915
0.114853 0.285116 0.439177
0.311778 0.294812 0.448077
0.501872 0.304171 0.456668
0.688636 0.313367 0.465109
0.873171 0.322453 0.473449
0.146872 0.500924 0.468567
0.343796 0.510620 0.477467
0.533934 0.519981 0.486018
0.721087 0.529188 0.494092
0.906006 0.538285 0.502071
0.178878 0.712845 0.496892
0.376213 0.722553 0.505406
0.566703 0.731924 0.513624
0.753857 0.741132 0.521699
0.938775 0.750229 0.529677
0.211248 0.922203 0.524162
0.408583 0.931911 0.532676
0.599073 0.941283 0.540895
0.786226 0.950490 0.548969
0.971145 0.959587 0.556948
0.084881 0.064198 0.598899
0.281806 0.073894 0.607798
0.471900 0.083253 0.616390
0.658664 0.092449 0.624830
0.843198 0.101535 0.633170
0.118146 0.288409 0.629432
0.315071 0.298105 0.638332
0.505165 0.307464 0.646923
0.691929 0.316660 0.655364
0.876463 0.325746 0.663704
0.150164 0.504217 0.658822
0.347089 0.513913 0.667722
0.537366 0.523278 0.676142
0.724519 0.532485 0.684216
0.909438 0.541582 0.692195
0.182310 0.716142 0.687016
0.379645 0.725850 0.695530
0.570135 0.735221 0.703748
0.757289 0.744429 0.711823
0.942207 0.753526 0.719801
0.214680 0.925500 0.714286
0.412015 0.935208 0.722800
0.602505 0.944580 0.731019
0.789659 0.953787 0.739093
0.974577 0.962884 0.747072
0.088131 0.067449 0.786716
0.285056 0.077144 0.795616
0.475151 0.086504 0.804207
0.661915 0.095700 0.812648
0.846449 0.104785 0.820988
0.121397 0.291659 0.817250
0.318321 0.301355 0.826150
0.508416 0.310715 0.834741
0.695180 0.319910 0.843182
0.879714 0.328996 0.851521
0.153415 0.507468 0.846640
0.350340 0.517163 0.855540
0.540754 0.526533 0.863830
0.727907 0.535740 0.871905
0.912826 0.544837 0.879883
0.185698 0.719397 0.874704
0.383033 0.729105 0.883218
0.573524 0.738476 0.891437
0.760677 0.747683 0.899512
0.945596 0.756781 0.907490
0.218068 0.928755 0.901974
0.415403 0.938463 0.910488
0.605894 0.947835 0.918707
0.793047 0.957042 0.926782
0.977965 0.966139 0.934760
