assets/luts/generated_genre/bs_thriller_villeneuve_haze_2e18b7123de2f435.cube
# V4 spec-generated LUT — bs_thriller_villeneuve_haze
# Genre: thriller
# Look: Atmospheric thriller — dread, vast amber haze. Deakins/Blade Runner 2049 dust scenes.
# Spec hash: 2e18b7123de2f435
TITLE "V4 Spec LUT — bs_thriller_villeneuve_haze"
LUT_3D_SIZE 9
DOMAIN_MIN 0.0 0.0 0.0
DOMAIN_MAX 1.0 1.0 1.0
0.074705 0.054022 0.010980
0.174537 0.058938 0.015491
0.271630 0.063718 0.019880
0.367206 0.068424 0.024199
0.461725 0.073078 0.028471
0.555434 0.077692 0.032706
0.648489 0.082274 0.036911
0.740993 0.086828 0.041092
0.833023 0.091359 0.045251
0.091597 0.167877 0.026485
0.191429 0.172792 0.030997
0.288522 0.177573 0.035385
0.384098 0.182279 0.039704
0.478617 0.186932 0.043976
0.572326 0.191546 0.048211
0.665381 0.196128 0.052416
0.757885 0.200683 0.056597
0.849915 0.205214 0.060756
0.107971 0.278233 0.041514
0.207802 0.283149 0.046025
0.304895 0.287929 0.050413
0.400471 0.292635 0.054733
0.494990 0.297289 0.059004
0.588700 0.301903 0.063240
0.681754 0.306484 0.067445
0.774258 0.311039 0.071626
0.866288 0.315570 0.075785
0.124072 0.386761 0.056293
0.223904 0.391677 0.060805
0.320997 0.396457 0.065193
0.416572 0.401163 0.069512
0.511092 0.405817 0.073784
0.604801 0.410431 0.078019
0.697856 0.415012 0.082225
0.790360 0.419567 0.086405
0.882390 0.424098 0.090565
0.139989 0.494042 0.070903
0.239820 0.498957 0.075415
0.336914 0.503737 0.079803
0.432489 0.508443 0.084122
0.527008 0.513097 0.088394
0.620718 0.517711 0.092629
0.713913 0.522297 0.096702
0.806610 0.526857 0.100702
0.898832 0.531394 0.104680
0.155765 0.600375 0.085384
0.255596 0.605290 0.089896
0.352713 0.610071 0.094262
0.448488 0.614783 0.098394
0.543204 0.619443 0.102481
0.637109 0.624062 0.106532
0.730357 0.628650 0.110555
0.823054 0.633210 0.114555
0.915275 0.637747 0.118534
0.171704 0.705954 0.099502
0.271743 0.710875 0.103818
0.369039 0.715662 0.108016
0.464813 0.720373 0.112148
0.559529 0.725033 0.116234
0.653434 0.729653 0.120286
0.746683 0.734240 0.124309
0.839379 0.738801 0.128308
0.931601 0.743338 0.132287
0.187931 0.810906 0.113172
0.287970 0.815828 0.117489
0.385266 0.820615 0.121686
0.481041 0.825326 0.125819
0.575757 0.829986 0.129905
0.669662 0.834606 0.133957
0.762910 0.839193 0.137980
0.855607 0.843754 0.141979
0.947829 0.848291 0.145958
0.204074 0.915312 0.126772
0.304113 0.920233 0.131088
0.401409 0.925020 0.135286
0.497183 0.929732 0.139418
0.591899 0.934391 0.143504
0.685804 0.939011 0.147556
0.779053 0.943599 0.151579
0.871749 0.948159 0.155579
0.963971 0.952696 0.159558
0.076507 0.055824 0.115063
0.176338 0.060739 0.119575
0.273432 0.065520 0.123963
0.369007 0.070226 0.128283
0.463526 0.074879 0.132554
0.557236 0.079493 0.136789
0.650290 0.084075 0.140995
0.742794 0.088630 0.145175
0.834824 0.093161 0.149335
0.093399 0.169678 0.130568
0.193230 0.174594 0.135080
0.290324 0.179374 0.139468
0.385899 0.184080 0.143788
0.480418 0.188734 0.148059
0.574128 0.193348 0.152294
0.667182 0.197929 0.156500
0.759686 0.202484 0.160681
0.851716 0.207015 0.164840
0.109772 0.280035 0.145597
0.209603 0.284950 0.150109
0.306697 0.289731 0.154497
0.402272 0.294436 0.158816
0.496791 0.299090 0.163088
0.590501 0.303704 0.167323
0.683555 0.308286 0.171529
0.776059 0.312840 0.175709
0.868089 0.317372 0.179868
0.125874 0.388563 0.160377
0.225705 0.393478 0.164889
0.322799 0.398259 0.169277
0.418374 0.402964 0.173596
0.512893 0.407618 0.177868
0.606603 0.412232 0.182103
0.699657 0.416814 0.186308
0.792161 0.421368 0.190489
0.884191 0.425900 0.194648
0.141790 0.495843 0.174987
0.241622 0.500758 0.179498
0.338715 0.505539 0.183886
0.434290 0.510245 0.188206
0.528810 0.514898 0.192478
0.622543 0.519513 0.196691
0.715791 0.524101 0.200714
0.808488 0.528661 0.204714
0.900709 0.533198 0.208692
0.157567 0.602176 0.189468
0.257398 0.607091 0.193979
0.354591 0.611875 0.198274
0.450365 0.616587 0.202406
0.545081 0.621246 0.206493
0.638986 0.625866 0.210544
0.732234 0.630454 0.214567
0.824931 0.635014 0.218567
0.917153 0.639551 0.222546
0.173581 0.707757 0.203514
0.273621 0.712679 0.207830
0.370917 0.717465 0.212028
0.466691 0.722177 0.216160
0.561407 0.726837 0.220246
0.655312 0.731457 0.224298
0.748560 0.736044 0.228321
0.841257 0.740604 0.232320
0.933479 0.745141 0.236299
0.189809 0.812710 0.217184
0.289848 0.817632 0.221501
0.387144 0.822418 0.225698
0.482918 0.827130 0.229831
0.577634 0.831790 0.233917
0.671539 0.836410 0.237969
0.764788 0.840997 0.241992
0.857484 0.845557 0.245991
0.949706 0.850094 0.249970
0.205951 0.917116 0.230784
0.305991 0.922037 0.235100
0.403287 0.926824 0.239298
0.499061 0.931536 0.243430
0.593777 0.936195 0.247516
0.687682 0.940815 0.251568
0.780930 0.945402 0.255591
0.873627 0.949963 0.259591
0.965849 0.954500 0.263570
0.078230 0.057547 0.214602
0.178061 0.062462 0.219114
0.275154 0.067243 0.223502
0.370730 0.071948 0.227822
0.465249 0.076602 0.232093
0.558959 0.081216 0.236328
0.652013 0.085798 0.240534
0.744517 0.090352 0.244714
0.836547 0.094884 0.248874
0.095122 0.171401 0.230107
0.194953 0.176316 0.234619
0.292046 0.181097 0.239007
0.387622 0.185803 0.243327
0.482141 0.190457 0.247598
0.575851 0.195071 0.251833
0.668905 0.199652 0.256039
0.761409 0.204207 0.260220
0.853439 0.208738 0.264379
0.111495 0.281758 0.245136
0.211326 0.286673 0.249648
0.308420 0.291453 0.254036
0.403995 0.296159 0.258355
0.498514 0.300813 0.262627
0.592224 0.305427 0.266862
0.685278 0.310009 0.271068
0.777782 0.314563 0.275248
0.869812 0.319094 0.279407
0.127597 0.390286 0.259916
0.227428 0.395201 0.264428
0.324521 0.399981 0.268816
0.420097 0.404687 0.273135
0.514616 0.409341 0.277407
0.608326 0.413955 0.281642
0.701380 0.418537 0.285847
0.793884 0.423091 0.290028
0.885915 0.427623 0.294186
0.143513 0.497566 0.274526
0.243344 0.502481 0.279037
0.340438 0.507262 0.283426
0.436013 0.511967 0.287745
0.530532 0.516621 0.292017
0.624338 0.521238 0.296161
0.717586 0.525825 0.300185
0.810283 0.530386 0.304184
0.902505 0.534923 0.308163
0.159289 0.603899 0.289007
0.259121 0.608814 0.293518
0.356386 0.613600 0.297744
0.452161 0.618312 0.301877
0.546877 0.622971 0.305963
0.640782 0.627591 0.310015
0.734030 0.632179 0.314038
0.826727 0.636739 0.318037
0.918949 0.641276 0.322016
0.175377 0.709482 0.302984
0.275416 0.714404 0.307300
0.372712 0.719190 0.311498
0.468487 0.723902 0.315630
0.563203 0.728562 0.319717
0.657108 0.733182 0.323768
0.750356 0.737769 0.327792
0.843053 0.742329 0.331791
0.935275 0.746866 0.335770
0.191604 0.814435 0.316655
0.291644 0.819357 0.320971
0.388940 0.824143 0.325169
0.484714 0.828855 0.329301
0.579430 0.833515 0.333388
0.673335 0.838134 0.337439
0.766583 0.842722 0.341462
0.859280 0.847282 0.345462
0.951502 0.851819 0.349441
0.207747 0.918841 0.330254
0.307786 0.923762 0.334570
0.405082 0.928549 0.338768
0.500857 0.933260 0.342900
0.595573 0.937920 0.346987
0.689478 0.942540 0.351038
0.782726 0.947127 0.355062
0.875423 0.951688 0.359061
0.967645 0.956225 0.363040
0.079919 0.059237 0.312240
0.179751 0.064152 0.316752
0.276844 0.068932 0.321140
0.372420 0.073638 0.325459
0.466939 0.078292 0.329731
0.560648 0.082906 0.333966
0.653703 0.087488 0.338171
0.746207 0.092042 0.342352
0.838237 0.096573 0.346511
0.096812 0.173091 0.327745
0.196643 0.178006 0.332257
0.293736 0.182787 0.336645
0.389312 0.187493 0.340964
0.483831 0.192146 0.345236
0.577541 0.196760 0.349471
0.670595 0.201342 0.353677
0.763099 0.205897 0.357857
0.855129 0.210428 0.362016
0.113185 0.283447 0.342774
0.213016 0.288363 0.347286
0.310109 0.293143 0.351674
0.405685 0.297849 0.355993
0.500204 0.302503 0.360265
0.593914 0.307117 0.364500
0.686968 0.311698 0.368705
0.779472 0.316253 0.372886
0.871502 0.320784 0.377045
0.129286 0.391975 0.357554
0.229118 0.396891 0.362065
0.326211 0.401671 0.366453
0.421786 0.406377 0.370773
0.516306 0.411031 0.375044
0.610015 0.415645 0.379280
0.703070 0.420227 0.383485
0.795574 0.424781 0.387666
0.887676 0.429315 0.391757
0.145203 0.499256 0.372163
0.245034 0.504171 0.376675
0.342128 0.508951 0.381063
0.437703 0.513657 0.385383
0.532222 0.518311 0.389654
0.626100 0.522930 0.393732
0.719348 0.527517 0.397755
0.812045 0.532078 0.401754
0.904266 0.536615 0.405733
0.160979 0.605589 0.386644
0.260852 0.610505 0.391117
0.358148 0.615292 0.395315
0.453922 0.620004 0.399447
0.548638 0.624663 0.403533
0.642543 0.629283 0.407585
0.735792 0.633871 0.411608
0.828488 0.638431 0.415607
0.920710 0.642968 0.419586
0.177139 0.711174 0.400554
0.277178 0.716096 0.404871
0.374474 0.720882 0.409068
0.470248 0.725594 0.413201
0.564964 0.730254 0.417287
0.658869 0.734874 0.421339
0.752117 0.739461 0.425362
0.844814 0.744021 0.429361
0.937036 0.748558 0.433340
0.193366 0.816127 0.414225
0.293405 0.821049 0.418541
0.390701 0.825835 0.422739
0.486475 0.830547 0.426871
0.581191 0.835207 0.430958
0.675096 0.839826 0.435009
0.768345 0.844414 0.439033
0.861041 0.848974 0.443032
0.953263 0.853511 0.447011
0.209508 0.920533 0.427825
0.309548 0.925454 0.432141
0.406844 0.930241 0.436339
0.502618 0.934952 0.440471
0.597334 0.939612 0.444557
0.691239 0.944232 0.448609
0.784487 0.948819 0.452632
0.877184 0.953380 0.456631
0.969406 0.957917 0.460610
0.081588 0.060905 0.408644
0.181419 0.065820 0.413155
0.278513 0.070601 0.417543
0.374088 0.075307 0.421863
0.468607 0.079961 0.426135
0.562317 0.084574 0.430370
0.655371 0.089156 0.434575
0.747875 0.093711 0.438756
0.839905 0.098242 0.442915
0.098480 0.174759 0.424149
0.198311 0.179675 0.428661
0.295405 0.184455 0.433049
0.390980 0.189161 0.437368
0.485499 0.193815 0.441640
0.579209 0.198429 0.445875
0.672263 0.203011 0.450080
0.764767 0.207565 0.454261
0.856798 0.212096 0.458420
0.114853 0.285116 0.439177
0.214684 0.290031 0.443689
0.311778 0.294812 0.448077
0.407353 0.299518 0.452397
0.501872 0.304171 0.456668
0.595582 0.308785 0.460903
0.688636 0.313367 0.465109
0.781140 0.317922 0.469290
0.873171 0.322453 0.473449
0.130955 0.393644 0.453957
0.230786 0.398559 0.458469
0.327880 0.403340 0.462857
0.423455 0.408046 0.467176
0.517974 0.412699 0.471448
0.611684 0.417313 0.475683
0.704738 0.421895 0.479889
0.797242 0.426450 0.484069
0.889415 0.430985 0.488094
0.146872 0.500924 0.468567
0.246703 0.505839 0.473079
0.343796 0.510620 0.477467
0.439372 0.515326 0.481786
0.533934 0.519981 0.486018
0.627839 0.524601 0.490069
0.721087 0.529188 0.494092
0.813784 0.533748 0.498092
0.906006 0.538285 0.502071
0.162648 0.607257 0.483048
0.262591 0.612176 0.487454
0.359887 0.616962 0.491652
0.455661 0.621674 0.495784
0.550377 0.626334 0.499871
0.644282 0.630954 0.503922
0.737531 0.635541 0.507945
0.830227 0.640101 0.511945
0.922449 0.644638 0.515924
0.178878 0.712845 0.496892
0.278917 0.717766 0.501208
0.376213 0.722553 0.505406
0.471987 0.727265 0.509538
0.566703 0.731924 0.513624
0.660608 0.736544 0.517676
0.753857 0.741132 0.521699
0.846553 0.745692 0.525699
0.938775 0.750229 0.529677
0.195105 0.817798 0.510563
0.295144 0.822719 0.514879
0.392440 0.827506 0.519077
0.488214 0.832218 0.523209
0.582931 0.836877 0.527295
0.676836 0.841497 0.531347
0.770084 0.846085 0.535370
0.862781 0.850645 0.539369
0.955002 0.855182 0.543348
0.211248 0.922203 0.524162
0.311287 0.927125 0.528478
0.408583 0.931911 0.532676
0.504357 0.936623 0.536808
0.599073 0.941283 0.540895
0.692978 0.945903 0.544946
0.786226 0.950490 0.548969
0.878923 0.955050 0.552969
0.971145 0.959587 0.556948
0.083241 0.062558 0.504134
0.183072 0.067473 0.508645
0.280166 0.072254 0.513033
0.375741 0.076959 0.517353
0.470260 0.081613 0.521625
0.563970 0.086227 0.525860
0.657024 0.090809 0.530065
0.749528 0.095363 0.534246
0.841558 0.099895 0.538405
0.100133 0.176412 0.519639
0.199964 0.181328 0.524150
0.297058 0.186108 0.528539
0.392633 0.190814 0.532858
0.487152 0.195468 0.537130
0.580862 0.200082 0.541365
0.673916 0.204663 0.545570
0.766420 0.209218 0.549751
0.858450 0.213749 0.553910
0.116506 0.286769 0.534667
0.216337 0.291684 0.539179
0.313431 0.296464 0.543567
0.409006 0.301170 0.547887
0.503525 0.305824 0.552158
0.597235 0.310438 0.556393
0.690289 0.315020 0.560599
0.782793 0.319574 0.564780
0.874823 0.324105 0.568939
0.132608 0.395297 0.549447
0.232439 0.400212 0.553959
0.329532 0.404993 0.558347
0.425108 0.409698 0.562666
0.519627 0.414352 0.566938
0.613337 0.418966 0.571173
0.706391 0.423548 0.575379
0.798916 0.428103 0.579539
0.891138 0.432640 0.583518
0.148524 0.502577 0.564057
0.248355 0.507492 0.568569
0.345449 0.512273 0.572957
0.441024 0.516978 0.577276
0.535656 0.521636 0.581442
0.629561 0.526255 0.585493
0.722810 0.530843 0.589517
0.815506 0.535403 0.593516
0.907728 0.539940 0.597495
0.164300 0.608910 0.578538
0.264314 0.613831 0.582878
0.361610 0.618617 0.587076
0.457384 0.623329 0.591208
0.552100 0.627989 0.595295
0.646005 0.632608 0.599346
0.739253 0.637196 0.603370
0.831950 0.641756 0.607369
0.924172 0.646293 0.611348
0.180600 0.714500 0.592316
0.280639 0.719421 0.596632
0.377935 0.724208 0.600830
0.473710 0.728920 0.604962
0.568426 0.733579 0.609049
0.662331 0.738199 0.613100
0.755579 0.742786 0.617123
0.848276 0.747347 0.621123
0.940498 0.751884 0.625102
0.196828 0.819453 0.605987
0.296867 0.824374 0.610303
0.394163 0.829161 0.614501
0.489937 0.833872 0.618633
0.584653 0.838532 0.622719
0.678558 0.843152 0.626771
0.771806 0.847739 0.630794
0.864503 0.852300 0.634794
0.956725 0.856837 0.638772
0.212970 0.923858 0.619586
0.313009 0.928780 0.623902
0.410305 0.933566 0.628100
0.506080 0.938278 0.632232
0.600796 0.942938 0.636319
0.694701 0.947557 0.640370
0.787949 0.952145 0.644394
0.880646 0.956705 0.648393
0.972868 0.961242 0.652372
0.084881 0.064198 0.598899
0.184712 0.069113 0.603410
0.281806 0.073894 0.607798
0.377381 0.078600 0.612118
0.471900 0.083253 0.616390
0.565610 0.087867 0.620625
0.658664 0.092449 0.624830
0.751168 0.097004 0.629011
0.843198 0.101535 0.633170
0.101773 0.178052 0.614404
0.201604 0.182968 0.618916
0.298698 0.187748 0.623304
0.394273 0.192454 0.627623
0.488792 0.197108 0.631895
0.582502 0.201722 0.636130
0.675556 0.206303 0.640335
0.768060 0.210858 0.644516
0.860090 0.215389 0.648675
0.118146 0.288409 0.629432
0.217977 0.293324 0.633944
0.315071 0.298105 0.638332
0.410646 0.302810 0.642652
0.505165 0.307464 0.646923
0.598875 0.312078 0.651158
0.691929 0.316660 0.655364
0.784433 0.321214 0.659545
0.876463 0.325746 0.663704
0.134248 0.396937 0.644212
0.234079 0.401852 0.648724
0.331173 0.406633 0.653112
0.426748 0.411338 0.657431
0.521267 0.415992 0.661703
0.614977 0.420606 0.665938
0.708031 0.425188 0.670144
0.800626 0.429745 0.674239
0.892847 0.434282 0.678218
0.150164 0.504217 0.658822
0.249996 0.509132 0.663334
0.347089 0.513913 0.667722
0.442664 0.518619 0.672041
0.537366 0.523278 0.676142
0.631271 0.527898 0.680193
0.724519 0.532485 0.684216
0.817216 0.537045 0.688216
0.909438 0.541582 0.692195
0.165984 0.610551 0.673262
0.266023 0.615473 0.677578
0.363319 0.620259 0.681776
0.459094 0.624971 0.685908
0.553810 0.629631 0.689995
0.647715 0.634251 0.694046
0.740963 0.638838 0.698069
0.833660 0.643398 0.702069
0.925881 0.647935 0.706048
0.182310 0.716142 0.687016
0.282349 0.721063 0.691332
0.379645 0.725850 0.695530
0.475419 0.730562 0.699662
0.570135 0.735221 0.703748
0.664040 0.739841 0.707800
0.757289 0.744429 0.711823
0.849985 0.748989 0.715823
0.942207 0.753526 0.719801
0.198537 0.821095 0.700686
0.298576 0.826016 0.705003
0.395872 0.830803 0.709200
0.491647 0.835515 0.713333
0.586363 0.840174 0.717419
0.680268 0.844794 0.721471
0.773516 0.849382 0.725494
0.866213 0.853942 0.729493
0.958435 0.858479 0.733472
0.214680 0.925500 0.714286
0.314719 0.930422 0.718602
0.412015 0.935208 0.722800
0.507789 0.939920 0.726932
0.602505 0.944580 0.731019
0.696410 0.949200 0.735070
0.789659 0.953787 0.739093
0.882355 0.958347 0.743093
0.974577 0.962884 0.747072
0.086511 0.065828 0.693063
0.186342 0.070743 0.697575
0.283435 0.075524 0.701963
0.379011 0.080229 0.706283
0.473530 0.084883 0.710554
0.567240 0.089497 0.714789
0.660294 0.094079 0.718995
0.752798 0.098633 0.723176
0.844828 0.103165 0.727335
0.103403 0.179682 0.708569
0.203234 0.184597 0.713080
0.300327 0.189378 0.717468
0.395903 0.194084 0.721788
0.490422 0.198738 0.726059
0.584132 0.203351 0.730295
0.677186 0.207933 0.734500
0.769690 0.212488 0.738681
0.861720 0.217019 0.742840
0.119776 0.290038 0.723597
0.219607 0.294954 0.728109
0.316701 0.299734 0.732497
0.412276 0.304440 0.736816
0.506795 0.309094 0.741088
0.600505 0.313708 0.745323
0.693559 0.318290 0.749529
0.786063 0.322844 0.753709
0.878093 0.327375 0.757869
0.135877 0.398567 0.738377
0.235709 0.403482 0.742889
0.332802 0.408262 0.747277
0.428378 0.412968 0.751596
0.522897 0.417622 0.755868
0.616606 0.422236 0.760103
0.709661 0.426818 0.764308
0.802324 0.431377 0.768339
0.894546 0.435914 0.772318
0.151794 0.505847 0.752987
0.251625 0.510762 0.757499
0.348719 0.515543 0.761887
0.444348 0.520250 0.766155
0.539065 0.524910 0.770241
0.632970 0.529529 0.774293
0.726218 0.534117 0.778316
0.818915 0.538677 0.782316
0.911136 0.543214 0.786295
0.167683 0.612183 0.767362
0.267722 0.617105 0.771678
0.365018 0.621891 0.775876
0.460792 0.626603 0.780008
0.555508 0.631263 0.784095
0.649413 0.635882 0.788146
0.742662 0.640470 0.792169
0.835358 0.645030 0.796169
0.927580 0.649567 0.800148
0.184009 0.717774 0.781116
0.284048 0.722695 0.785432
0.381344 0.727482 0.789630
0.477118 0.732194 0.793762
0.571834 0.736853 0.797848
0.665739 0.741473 0.801900
0.758987 0.746060 0.805923
0.851684 0.750621 0.809922
0.943906 0.755158 0.813901
0.200236 0.822727 0.794786
0.300275 0.827648 0.799103
0.397571 0.832435 0.803300
0.493345 0.837146 0.807433
0.588061 0.841806 0.811519
0.681966 0.846426 0.815571
0.775215 0.851013 0.819594
0.867911 0.855574 0.823593
0.960133 0.860111 0.827572
0.216378 0.927132 0.808386
0.316418 0.932054 0.812702
0.413714 0.936840 0.816900
0.509488 0.941552 0.821032
0.604204 0.946212 0.825119
0.698109 0.950831 0.829170
0.791357 0.955419 0.833193
0.884054 0.959979 0.837193
0.976276 0.964516 0.841172
0.088131 0.067449 0.786716
0.187963 0.072364 0.791228
0.285056 0.077144 0.795616
0.380632 0.081850 0.799936
0.475151 0.086504 0.804207
0.568860 0.091118 0.808442
0.661915 0.095700 0.812648
0.754419 0.100254 0.816828
0.846449 0.104785 0.820988
0.105024 0.181303 0.802221
0.204855 0.186218 0.806733
0.301948 0.190999 0.811121
0.397524 0.195705 0.815441
0.492043 0.200358 0.819712
0.585753 0.204972 0.823947
0.678807 0.209554 0.828153
0.771311 0.214109 0.832334
0.863341 0.218640 0.836493
0.121397 0.291659 0.817250
0.221228 0.296575 0.821762
0.318321 0.301355 0.826150
0.413897 0.306061 0.830469
0.508416 0.310715 0.834741
0.602126 0.315329 0.838976
0.695180 0.319910 0.843182
0.787684 0.324465 0.847362
0.879714 0.328996 0.851521
0.137498 0.400187 0.832030
0.237330 0.405103 0.836542
0.334423 0.409883 0.840930
0.429998 0.414589 0.845249
0.524518 0.419243 0.849521
0.618227 0.423857 0.853756
0.711317 0.428440 0.857928
0.804014 0.433000 0.861928
0.896236 0.437537 0.865906
0.153415 0.507468 0.846640
0.253246 0.512383 0.851151
0.350340 0.517163 0.855540
0.446038 0.521873 0.859743
0.540754 0.526533 0.863830
0.634659 0.531152 0.867881
0.727907 0.535740 0.871905
0.820604 0.540300 0.875904
0.912826 0.544837 0.879883
0.169372 0.613806 0.860950
0.269411 0.618728 0.865267
0.366707 0.623514 0.869464
0.462482 0.628226 0.873597
0.557198 0.632886 0.877683
0.651103 0.637505 0.881735
0.744351 0.642093 0.885758
0.837048 0.646653 0.889757
0.929270 0.651190 0.893736
0.185698 0.719397 0.874704
0.285737 0.724318 0.879020
0.383033 0.729105 0.883218
0.478808 0.733817 0.887350
0.573524 0.738476 0.891437
0.667429 0.743096 0.895488
0.760677 0.747683 0.899512
0.853374 0.752244 0.903511
0.945596 0.756781 0.907490
0.201925 0.824350 0.888375
0.301965 0.829271 0.892691
0.399260 0.834058 0.896889
0.495035 0.838769 0.901021
0.589751 0.843429 0.905108
0.683656 0.848049 0.909159
0.776904 0.852636 0.913182
0.869601 0.857197 0.917182
0.961823 0.861734 0.921161
0.218068 0.928755 0.901974
0.318107 0.933677 0.906290
0.415403 0.938463 0.910488
0.511177 0.943175 0.914620
0.605894 0.947835 0.918707
0.699799 0.952454 0.922759
0.793047 0.957042 0.926782
0.885744 0.961602 0.930781
0.977965 0.966139 0.934760
