assets/luts/generated_genre/bs_thriller_villeneuve_haze_2e18b7123de2f435.cube
# V4 spec-generated LUT — bs_thriller_villeneuve_haze
# Genre: thriller
# Look: Atmospheric thriller — dread, vast amber haze. Deakins/Blade Runner 2049 dust scenes.
# Spec hash: 2e18b7123de2f435
TITLE "V4 Spec LUT — bs_thriller_villeneuve_haze"
LUT_3D_SIZE 17
DOMAIN_MIN 0.0 0.0 0.0
DOMAIN_MAX 1.0 1.0 1.0
0.074705 0.054022 0.010980
0.125118 0.056505 0.013258
0.174537 0.058938 0.015491
0.223318 0.061340 0.017696
0.271630 0.063718 0.019880
0.319571 0.066079 0.022046
0.367206 0.068424 0.024199
0.414579 0.070757 0.026340
0.461725 0.073078 0.028471
0.508670 0.075389 0.030592
0.555434 0.077692 0.032706
0.602036 0.079986 0.034812
0.648489 0.082274 0.036911
0.694804 0.084554 0.039004
0.740993 0.086828 0.041092
0.787063 0.089096 0.043174
0.833023 0.091359 0.045251
0.083250 0.111614 0.018823
0.133663 0.114096 0.021101
0.183081 0.116529 0.023334
0.231863 0.118931 0.025539
0.280175 0.121310 0.027723
0.328116 0.123670 0.029889
0.375750 0.126016 0.032042
0.423123 0.128348 0.034183
0.470269 0.130669 0.036314
0.517214 0.132981 0.038435
0.563979 0.135283 0.040549
0.610581 0.137578 0.042655
0.657033 0.139865 0.044754
0.703349 0.142145 0.046847
0.749537 0.144420 0.048935
0.795608 0.146688 0.051017
0.841567 0.148951 0.053094
0.091597 0.167877 0.026485
0.142010 0.170359 0.028763
0.191429 0.172792 0.030997
0.240210 0.175194 0.033201
0.288522 0.177573 0.035385
0.336463 0.179933 0.037551
0.384098 0.182279 0.039704
0.431471 0.184611 0.041845
0.478617 0.186932 0.043976
0.525562 0.189244 0.046097
0.572326 0.191546 0.048211
0.618928 0.193841 0.050317
0.665381 0.196128 0.052416
0.711696 0.198408 0.054509
0.757885 0.200683 0.056597
0.803955 0.202951 0.058679
0.849915 0.205214 0.060756
0.099826 0.223341 0.034038
0.150239 0.225823 0.036316
0.199658 0.228257 0.038550
0.248439 0.230658 0.040755
0.296751 0.233037 0.042938
0.344692 0.235398 0.045105
0.392327 0.237743 0.047257
0.439700 0.240075 0.049398
0.486846 0.242397 0.051529
0.533791 0.244708 0.053651
0.580555 0.247011 0.055764
0.627157 0.249305 0.057870
0.673610 0.251592 0.059970
0.719925 0.253873 0.062063
0.766114 0.256147 0.064150
0.812184 0.258415 0.066232
0.858144 0.260678 0.068309
0.107971 0.278233 0.041514
0.158383 0.280715 0.043792
0.207802 0.283149 0.046025
0.256583 0.285550 0.048230
0.304895 0.287929 0.050413
0.352836 0.290290 0.052580
0.400471 0.292635 0.054733
0.447844 0.294967 0.056874
0.494990 0.297289 0.059004
0.541935 0.299600 0.061126
0.588700 0.301903 0.063240
0.635301 0.304197 0.065346
0.681754 0.306484 0.067445
0.728069 0.308765 0.069538
0.774258 0.311039 0.071626
0.820328 0.313307 0.073708
0.866288 0.315570 0.075785
0.116048 0.332680 0.048928
0.166461 0.335162 0.051207
0.215880 0.337595 0.053440
0.264661 0.339997 0.055645
0.312973 0.342376 0.057828
0.360914 0.344736 0.059995
0.408549 0.347081 0.062147
0.455922 0.349414 0.064288
0.503068 0.351735 0.066419
0.550013 0.354047 0.068541
0.596777 0.356349 0.070654
0.643379 0.358644 0.072760
0.689832 0.360931 0.074860
0.736147 0.363211 0.076953
0.782336 0.365485 0.079040
0.828406 0.367754 0.081122
0.874366 0.370017 0.083200
0.124072 0.386761 0.056293
0.174485 0.389244 0.058572
0.223904 0.391677 0.060805
0.272685 0.394079 0.063010
0.320997 0.396457 0.065193
0.368938 0.398818 0.067360
0.416572 0.401163 0.069512
0.463946 0.403496 0.071653
0.511092 0.405817 0.073784
0.558037 0.408128 0.075906
0.604801 0.410431 0.078019
0.651403 0.412725 0.080125
0.697856 0.415012 0.082225
0.744171 0.417293 0.084318
0.790360 0.419567 0.086405
0.836430 0.421835 0.088487
0.882390 0.424098 0.090565
0.132050 0.440535 0.063616
0.182463 0.443017 0.065895
0.231882 0.445450 0.068128
0.280663 0.447852 0.070333
0.328975 0.450231 0.072516
0.376916 0.452591 0.074683
0.424551 0.454937 0.076836
0.471924 0.457269 0.078976
0.519070 0.459590 0.081107
0.566015 0.461902 0.083229
0.612779 0.464204 0.085342
0.659381 0.466499 0.087448
0.705834 0.468786 0.089548
0.752149 0.471066 0.091641
0.798338 0.473341 0.093728
0.844502 0.475612 0.095723
0.890557 0.477877 0.097710
0.139989 0.494042 0.070903
0.190401 0.496524 0.073181
0.239820 0.498957 0.075415
0.288602 0.501359 0.077619
0.336914 0.503737 0.079803
0.384855 0.506098 0.081969
0.432489 0.508443 0.084122
0.479862 0.510776 0.086263
0.527008 0.513097 0.088394
0.573953 0.515408 0.090516
0.620718 0.517711 0.092629
0.667364 0.520007 0.094694
0.713913 0.522297 0.096702
0.760325 0.524580 0.098705
0.806610 0.526857 0.100702
0.852776 0.529128 0.102693
0.898832 0.531394 0.104680
0.147893 0.547313 0.078158
0.198305 0.549795 0.080436
0.247724 0.552228 0.082670
0.296505 0.554630 0.084874
0.344817 0.557009 0.087058
0.392758 0.559369 0.089224
0.440393 0.561715 0.091377
0.487766 0.564047 0.093518
0.534998 0.566371 0.095568
0.582041 0.568685 0.097597
0.628903 0.570991 0.099619
0.675602 0.573288 0.101634
0.722151 0.575578 0.103642
0.768563 0.577862 0.105645
0.814848 0.580139 0.107642
0.861014 0.582410 0.109634
0.907070 0.584676 0.111621
0.155765 0.600375 0.085384
0.206178 0.602857 0.087662
0.255596 0.605290 0.089896
0.304378 0.607692 0.092100
0.352713 0.610071 0.094262
0.400754 0.612435 0.096335
0.448488 0.614783 0.098394
0.495959 0.617118 0.100442
0.543204 0.619443 0.102481
0.590246 0.621757 0.104510
0.637109 0.624062 0.106532
0.683807 0.626360 0.108547
0.730357 0.628650 0.110555
0.776769 0.630933 0.112558
0.823054 0.633210 0.114555
0.869220 0.635481 0.116547
0.915275 0.637747 0.118534
0.163609 0.653246 0.092584
0.214072 0.655730 0.094816
0.263593 0.658166 0.096952
0.312477 0.660571 0.099061
0.360889 0.662953 0.101150
0.408930 0.665316 0.103223
0.456664 0.667665 0.105282
0.504136 0.670000 0.107330
0.551380 0.672324 0.109369
0.598423 0.674639 0.111398
0.645285 0.676944 0.113420
0.691984 0.679242 0.115435
0.738533 0.681532 0.117443
0.784945 0.683815 0.119446
0.831230 0.686092 0.121443
0.877396 0.688363 0.123435
0.923452 0.690629 0.125422
0.171704 0.705954 0.099502
0.222221 0.708439 0.101681
0.271743 0.710875 0.103818
0.320626 0.713280 0.105927
0.369039 0.715662 0.108016
0.417080 0.718025 0.110088
0.464813 0.720373 0.112148
0.512285 0.722709 0.114196
0.559529 0.725033 0.116234
0.606572 0.727347 0.118264
0.653434 0.729653 0.120286
0.700133 0.731950 0.122301
0.746683 0.734240 0.124309
0.793095 0.736524 0.126312
0.839379 0.738801 0.128308
0.885546 0.741072 0.130300
0.931601 0.743338 0.132287
0.179829 0.758503 0.106347
0.230346 0.760989 0.108526
0.279868 0.763425 0.110663
0.328751 0.765830 0.112772
0.377164 0.768212 0.114861
0.425205 0.770575 0.116933
0.472938 0.772923 0.118993
0.520410 0.775259 0.121041
0.567654 0.777583 0.123079
0.614697 0.779897 0.125109
0.661559 0.782203 0.127131
0.708258 0.784500 0.129146
0.754808 0.786790 0.131154
0.801220 0.789074 0.133156
0.847504 0.791351 0.135153
0.893671 0.793622 0.137145
0.939726 0.795888 0.139132
0.187931 0.810906 0.113172
0.238449 0.813392 0.115352
0.287970 0.815828 0.117489
0.336853 0.818233 0.119598
0.385266 0.820615 0.121686
0.433307 0.822978 0.123759
0.481041 0.825326 0.125819
0.528513 0.827662 0.127867
0.575757 0.829986 0.129905
0.622799 0.832300 0.131935
0.669662 0.834606 0.133957
0.716361 0.836903 0.135971
0.762910 0.839193 0.137980
0.809322 0.841477 0.139982
0.855607 0.843754 0.141979
0.901773 0.846025 0.143971
0.947829 0.848291 0.145958
0.196012 0.863173 0.119980
0.246530 0.865658 0.122160
0.296051 0.868095 0.124297
0.344935 0.870499 0.126406
0.393347 0.872881 0.128494
0.441388 0.875245 0.130567
0.489122 0.877593 0.132627
0.536594 0.879928 0.134675
0.583838 0.882253 0.136713
0.630881 0.884567 0.138743
0.677743 0.886872 0.140765
0.724442 0.889170 0.142779
0.770991 0.891460 0.144788
0.817403 0.893743 0.146790
0.863688 0.896020 0.148787
0.909854 0.898291 0.150779
0.955910 0.900557 0.152766
0.204074 0.915312 0.126772
0.254591 0.917797 0.128951
0.304113 0.920233 0.131088
0.352996 0.922638 0.133197
0.401409 0.925020 0.135286
0.449450 0.927384 0.137359
0.497183 0.929732 0.139418
0.544655 0.932067 0.141466
0.591899 0.934391 0.143504
0.638942 0.936706 0.145534
0.685804 0.939011 0.147556
0.732503 0.941309 0.149571
0.779053 0.943599 0.151579
0.825465 0.945882 0.153582
0.871749 0.948159 0.155579
0.917916 0.950430 0.157570
0.963971 0.952696 0.159558
0.075624 0.054941 0.064051
0.126036 0.057423 0.066329
0.175455 0.059856 0.068562
0.224237 0.062258 0.070767
0.272549 0.064637 0.072950
0.320490 0.066997 0.075117
0.368124 0.069343 0.077270
0.415497 0.071675 0.079411
0.462643 0.073996 0.081541
0.509588 0.076308 0.083663
0.556353 0.078610 0.085777
0.602955 0.080905 0.087883
0.649407 0.083192 0.089982
0.695723 0.085473 0.092075
0.741911 0.087747 0.094163
0.787982 0.090015 0.096245
0.833941 0.092278 0.098322
0.084169 0.112532 0.071894
0.134581 0.115015 0.074172
0.184000 0.117448 0.076405
0.232781 0.119850 0.078610
0.281093 0.122228 0.080793
0.329034 0.124589 0.082960
0.376669 0.126934 0.085113
0.424042 0.129267 0.087254
0.471188 0.131588 0.089384
0.518133 0.133899 0.091506
0.564898 0.136202 0.093620
0.611499 0.138496 0.095726
0.657952 0.140783 0.097825
0.704267 0.143064 0.099918
0.750456 0.145338 0.102006
0.796526 0.147606 0.104088
0.842486 0.149869 0.106165
0.092516 0.168795 0.079556
0.142929 0.171278 0.081834
0.192347 0.173711 0.084067
0.241129 0.176113 0.086272
0.289441 0.178491 0.088455
0.337382 0.180852 0.090622
0.385016 0.183197 0.092775
0.432389 0.185530 0.094916
0.479535 0.187851 0.097047
0.526480 0.190162 0.099168
0.573245 0.192465 0.101282
0.619847 0.194759 0.103388
0.666299 0.197047 0.105487
0.712615 0.199327 0.107580
0.758803 0.201601 0.109668
0.804874 0.203869 0.111750
0.850833 0.206132 0.113827
0.100745 0.224260 0.087109
0.151158 0.226742 0.089387
0.200576 0.229175 0.091621
0.249358 0.231577 0.093825
0.297670 0.233956 0.096009
0.345611 0.236316 0.098175
0.393245 0.238662 0.100328
0.440618 0.240994 0.102469
0.487764 0.243315 0.104600
0.534709 0.245627 0.106721
0.581474 0.247929 0.108835
0.628076 0.250224 0.110941
0.674528 0.252511 0.113040
0.720844 0.254791 0.115134
0.767032 0.257065 0.117221
0.813103 0.259334 0.119303
0.859062 0.261597 0.121380
0.108889 0.279152 0.094584
0.159302 0.281634 0.096863
0.208720 0.284067 0.099096
0.257502 0.286469 0.101301
0.305814 0.288848 0.103484
0.353755 0.291208 0.105651
0.401389 0.293554 0.107804
0.448762 0.295886 0.109945
0.495908 0.298207 0.112075
0.542853 0.300519 0.114197
0.589618 0.302821 0.116310
0.636220 0.305116 0.118416
0.682672 0.307403 0.120516
0.728988 0.309683 0.122609
0.775176 0.311957 0.124696
0.821247 0.314226 0.126779
0.867207 0.316489 0.128856
0.116967 0.333598 0.101999
0.167380 0.336080 0.104277
0.216798 0.338514 0.106511
0.265580 0.340915 0.108715
0.313892 0.343294 0.110899
0.361833 0.345655 0.113065
0.409467 0.348000 0.115218
0.456840 0.350332 0.117359
0.503986 0.352654 0.119490
0.550931 0.354965 0.121612
0.597696 0.357268 0.123725
0.644298 0.359562 0.125831
0.690750 0.361849 0.127931
0.737066 0.364130 0.130024
0.783254 0.366404 0.132111
0.829325 0.368672 0.134193
0.875284 0.370935 0.136270
0.124991 0.387680 0.109364
0.175403 0.390162 0.111642
0.224822 0.392595 0.113876
0.273604 0.394997 0.116080
0.321916 0.397376 0.118264
0.369857 0.399736 0.120431
0.417491 0.402082 0.122583
0.464864 0.404414 0.124724
0.512010 0.406735 0.126855
0.558955 0.409047 0.128977
0.605720 0.411349 0.131090
0.652322 0.413644 0.133196
0.698774 0.415931 0.135296
0.745090 0.418211 0.137389
0.791278 0.420486 0.139476
0.837349 0.422754 0.141558
0.883308 0.425017 0.143635
0.132969 0.441453 0.116687
0.183381 0.443936 0.118965
0.232800 0.446369 0.121199
0.281582 0.448771 0.123404
0.329894 0.451149 0.125587
0.377835 0.453510 0.127754
0.425469 0.455855 0.129906
0.472842 0.458188 0.132047
0.519988 0.460509 0.134178
0.566933 0.462820 0.136300
0.613698 0.465123 0.138413
0.660300 0.467417 0.140519
0.706752 0.469704 0.142619
0.753068 0.471985 0.144712
0.799293 0.474260 0.146765
0.845459 0.476531 0.148757
0.891515 0.478797 0.150744
0.140908 0.494960 0.123974
0.191320 0.497442 0.126252
0.240739 0.499875 0.128486
0.289520 0.502277 0.130690
0.337832 0.504656 0.132874
0.385773 0.507016 0.135040
0.433408 0.509362 0.137193
0.480781 0.511694 0.139334
0.527927 0.514016 0.141465
0.574872 0.516327 0.143586
0.621636 0.518629 0.145700
0.668321 0.520926 0.147728
0.714870 0.523216 0.149736
0.761282 0.525500 0.151739
0.807567 0.527777 0.153736
0.853734 0.530048 0.155728
0.899789 0.532314 0.157715
0.148811 0.548232 0.131229
0.199224 0.550714 0.133507
0.248642 0.553147 0.135740
0.297424 0.555549 0.137945
0.345736 0.557927 0.140128
0.393677 0.560288 0.142295
0.441311 0.562633 0.144448
0.488711 0.564967 0.146564
0.535955 0.567291 0.148602
0.582998 0.569605 0.150632
0.629860 0.571911 0.152653
0.676559 0.574208 0.154668
0.723109 0.576498 0.156677
0.769521 0.578781 0.158679
0.815805 0.581058 0.160676
0.861972 0.583330 0.162668
0.908027 0.585595 0.164655
0.156684 0.601293 0.138455
0.207096 0.603775 0.140733
0.256515 0.606208 0.142966
0.305296 0.608610 0.145171
0.353670 0.610991 0.147296
0.401711 0.613354 0.149369
0.449445 0.615703 0.151428
0.496917 0.618038 0.153476
0.544161 0.620362 0.155515
0.591204 0.622677 0.157544
0.638066 0.624982 0.159566
0.684765 0.627279 0.161581
0.731314 0.629570 0.163590
0.777726 0.631853 0.165592
0.824011 0.634130 0.167589
0.870177 0.636401 0.169581
0.916233 0.638667 0.171568
0.164528 0.654165 0.145655
0.215029 0.656650 0.147850
0.264551 0.659086 0.149986
0.313434 0.661491 0.152096
0.361847 0.663873 0.154184
0.409888 0.666236 0.156257
0.457621 0.668584 0.158316
0.505093 0.670920 0.160365
0.552337 0.673244 0.162403
0.599380 0.675558 0.164433
0.646242 0.677864 0.166455
0.692941 0.680161 0.168469
0.739491 0.682451 0.170478
0.785903 0.684735 0.172480
0.832187 0.687012 0.174477
0.878354 0.689283 0.176469
0.924409 0.691549 0.178456
0.172661 0.706873 0.152536
0.223179 0.709359 0.154715
0.272700 0.711795 0.156852
0.321584 0.714200 0.158961
0.369996 0.716581 0.161050
0.418037 0.718945 0.163123
0.465771 0.721293 0.165182
0.513243 0.723629 0.167230
0.560487 0.725953 0.169269
0.607530 0.728267 0.171298
0.654392 0.730573 0.173320
0.701091 0.732870 0.175335
0.747640 0.735160 0.177343
0.794052 0.737443 0.179346
0.840337 0.739720 0.181343
0.886503 0.741992 0.183335
0.932559 0.744257 0.185322
0.180786 0.759423 0.159381
0.231304 0.761908 0.161560
0.280825 0.764345 0.163697
0.329709 0.766750 0.165806
0.378121 0.769131 0.167895
0.426162 0.771495 0.169968
0.473896 0.773843 0.172027
0.521368 0.776178 0.174075
0.568612 0.778503 0.176114
0.615655 0.780817 0.178143
0.662517 0.783123 0.180165
0.709216 0.785420 0.182180
0.755765 0.787710 0.184188
0.802177 0.789993 0.186191
0.848462 0.792270 0.188188
0.894628 0.794542 0.190180
0.940684 0.796807 0.192167
0.188888 0.811826 0.166207
0.239406 0.814311 0.168386
0.288928 0.816748 0.170523
0.337811 0.819153 0.172632
0.386224 0.821534 0.174721
0.434264 0.823898 0.176793
0.481998 0.826246 0.178853
0.529470 0.828582 0.180901
0.576714 0.830906 0.182939
0.623757 0.833220 0.184969
0.670619 0.835526 0.186991
0.717318 0.837823 0.189006
0.763867 0.840113 0.191014
0.810279 0.842396 0.193017
0.856564 0.844673 0.195013
0.902730 0.846945 0.197005
0.948786 0.849210 0.198992
0.196970 0.864093 0.173015
0.247487 0.866578 0.175194
0.297009 0.869014 0.177331
0.345892 0.871419 0.179440
0.394305 0.873801 0.181529
0.442346 0.876164 0.183601
0.490079 0.878513 0.185661
0.537551 0.880848 0.187709
0.584795 0.883172 0.189747
0.631838 0.885487 0.191777
0.678700 0.887792 0.193799
0.725399 0.890089 0.195814
0.771949 0.892379 0.197822
0.818361 0.894663 0.199825
0.864645 0.896940 0.201821
0.910812 0.899211 0.203813
0.956867 0.901477 0.205800
0.205031 0.916232 0.179806
0.255549 0.918717 0.181986
0.305070 0.921153 0.184122
0.353953 0.923558 0.186231
0.402366 0.925940 0.188320
0.450407 0.928303 0.190393
0.498141 0.930652 0.192452
0.545613 0.932987 0.194500
0.592857 0.935311 0.196539
0.639900 0.937626 0.198568
0.686762 0.939931 0.200590
0.733461 0.942228 0.202605
0.780010 0.944518 0.204613
0.826422 0.946802 0.206616
0.872707 0.949079 0.208613
0.918873 0.951350 0.210605
0.964929 0.953616 0.212592
0.076507 0.055824 0.115063
0.126919 0.058306 0.117342
0.176338 0.060739 0.119575
0.225120 0.063141 0.121780
0.273432 0.065520 0.123963
0.321373 0.067880 0.126130
0.369007 0.070226 0.128283
0.416380 0.072558 0.130424
0.463526 0.074879 0.132554
0.510471 0.077191 0.134676
0.557236 0.079493 0.136789
0.603838 0.081788 0.138895
0.650290 0.084075 0.140995
0.696606 0.086355 0.143088
0.742794 0.088630 0.145175
0.788865 0.090898 0.147258
0.834824 0.093161 0.149335
0.085051 0.113415 0.122906
0.135464 0.115897 0.125185
0.184883 0.118331 0.127418
0.233664 0.120732 0.129623
0.281976 0.123111 0.131806
0.329917 0.125472 0.133973
0.377552 0.127817 0.136126
0.424925 0.130149 0.138267
0.472071 0.132471 0.140397
0.519016 0.134782 0.142519
0.565780 0.137085 0.144632
0.612382 0.139379 0.146738
0.658835 0.141666 0.148838
0.705150 0.143947 0.150931
0.751339 0.146221 0.153018
0.797409 0.148489 0.155101
0.843369 0.150752 0.157178
0.093399 0.169678 0.130568
0.143811 0.172160 0.132847
0.193230 0.174594 0.135080
0.242012 0.176996 0.137285
0.290324 0.179374 0.139468
0.338265 0.181735 0.141635
0.385899 0.184080 0.143788
0.433272 0.186413 0.145929
0.480418 0.188734 0.148059
0.527363 0.191045 0.150181
0.574128 0.193348 0.152294
0.620730 0.195642 0.154401
0.667182 0.197929 0.156500
0.713498 0.200210 0.158593
0.759686 0.202484 0.160681
0.805757 0.204752 0.162763
0.851716 0.207015 0.164840
0.101628 0.225143 0.138122
0.152040 0.227625 0.140400
0.201459 0.230058 0.142634
0.250241 0.232460 0.144838
0.298553 0.234839 0.147022
0.346494 0.237199 0.149188
0.394128 0.239544 0.151341
0.441501 0.241877 0.153482
0.488647 0.244198 0.155613
0.535592 0.246510 0.157734
0.582357 0.248812 0.159848
0.628959 0.251107 0.161954
0.675411 0.253394 0.164053
0.721727 0.255674 0.166146
0.767915 0.257948 0.168234
0.813986 0.260217 0.170316
0.859945 0.262480 0.172393
0.109772 0.280035 0.145597
0.160184 0.282517 0.147876
0.209603 0.284950 0.150109
0.258385 0.287352 0.152314
0.306697 0.289731 0.154497
0.354638 0.292091 0.156664
0.402272 0.294436 0.158816
0.449645 0.296769 0.160957
0.496791 0.299090 0.163088
0.543736 0.301402 0.165210
0.590501 0.303704 0.167323
0.637103 0.305999 0.169429
0.683555 0.308286 0.171529
0.729871 0.310566 0.173622
0.776059 0.312840 0.175709
0.822130 0.315109 0.177791
0.868089 0.317372 0.179868
0.117850 0.334481 0.153012
0.168262 0.336963 0.155290
0.217681 0.339396 0.157524
0.266463 0.341798 0.159728
0.314775 0.344177 0.161912
0.362716 0.346537 0.164078
0.410350 0.348883 0.166231
0.457723 0.351215 0.168372
0.504869 0.353537 0.170503
0.551814 0.355848 0.172624
0.598579 0.358150 0.174738
0.645181 0.360445 0.176844
0.691633 0.362732 0.178943
0.737949 0.365013 0.181037
0.784137 0.367287 0.183124
0.830208 0.369555 0.185206
0.876167 0.371818 0.187283
0.125874 0.388563 0.160377
0.176286 0.391045 0.162655
0.225705 0.393478 0.164889
0.274486 0.395880 0.167093
0.322799 0.398259 0.169277
0.370740 0.400619 0.171443
0.418374 0.402964 0.173596
0.465747 0.405297 0.175737
0.512893 0.407618 0.177868
0.559838 0.409930 0.179989
0.606603 0.412232 0.182103
0.653204 0.414527 0.184209
0.699657 0.416814 0.186308
0.745973 0.419094 0.188402
0.792161 0.421368 0.190489
0.838231 0.423637 0.192571
0.884191 0.425900 0.194648
0.133852 0.442336 0.167700
0.184264 0.444818 0.169978
0.233683 0.447252 0.172212
0.282465 0.449653 0.174416
0.330777 0.452032 0.176600
0.378718 0.454393 0.178766
0.426352 0.456738 0.180919
0.473725 0.459070 0.183060
0.520871 0.461392 0.185191
0.567816 0.463703 0.187312
0.614581 0.466006 0.189426
0.661183 0.468300 0.191532
0.707635 0.470587 0.193631
0.753951 0.472868 0.195725
0.800213 0.475144 0.197743
0.846379 0.477415 0.199735
0.892435 0.479681 0.201722
0.141790 0.495843 0.174987
0.192203 0.498325 0.177265
0.241622 0.500758 0.179498
0.290403 0.503160 0.181703
0.338715 0.505539 0.183886
0.386656 0.507899 0.186053
0.434290 0.510245 0.188206
0.481664 0.512577 0.190347
0.528810 0.514898 0.192478
0.575755 0.517210 0.194599
0.622543 0.519513 0.196691
0.669241 0.521810 0.198706
0.715791 0.524101 0.200714
0.762203 0.526384 0.202717
0.808488 0.528661 0.204714
0.854654 0.530932 0.206705
0.900709 0.533198 0.208692
0.149694 0.549115 0.182241
0.200107 0.551597 0.184520
0.249525 0.554030 0.186753
0.298307 0.556432 0.188958
0.346619 0.558810 0.191141
0.394560 0.561171 0.193308
0.442194 0.563516 0.195461
0.489631 0.565851 0.197541
0.536876 0.568175 0.199580
0.583918 0.570489 0.201609
0.630781 0.572795 0.203631
0.677479 0.575092 0.205646
0.724029 0.577382 0.207654
0.770441 0.579665 0.209657
0.816726 0.581942 0.211654
0.862892 0.584214 0.213646
0.908947 0.586479 0.215633
0.157567 0.602176 0.189468
0.207979 0.604658 0.191746
0.257398 0.607091 0.193979
0.306179 0.609493 0.196184
0.354591 0.611875 0.198274
0.402632 0.614238 0.200347
0.450365 0.616587 0.202406
0.497837 0.618922 0.204454
0.545081 0.621246 0.206493
0.592124 0.623561 0.208522
0.638986 0.625866 0.210544
0.685685 0.628164 0.212559
0.732234 0.630454 0.214567
0.778647 0.632737 0.216570
0.824931 0.635014 0.218567
0.871098 0.637285 0.220559
0.917153 0.639551 0.222546
0.165432 0.655048 0.196648
0.215949 0.657534 0.198828
0.265471 0.659970 0.200964
0.314354 0.662375 0.203073
0.362767 0.664757 0.205162
0.410808 0.667120 0.207235
0.458541 0.669468 0.209294
0.506013 0.671804 0.211342
0.553258 0.674128 0.213381
0.600300 0.676442 0.215410
0.647163 0.678748 0.217432
0.693861 0.681045 0.219447
0.740411 0.683335 0.221455
0.786823 0.685619 0.223458
0.833108 0.687896 0.225455
0.879274 0.690167 0.227447
0.925329 0.692433 0.229434
0.173581 0.707757 0.203514
0.224099 0.710243 0.205693
0.273621 0.712679 0.207830
0.322504 0.715084 0.209939
0.370917 0.717465 0.212028
0.418957 0.719829 0.214100
0.466691 0.722177 0.216160
0.514163 0.724513 0.218208
0.561407 0.726837 0.220246
0.608450 0.729151 0.222276
0.655312 0.731457 0.224298
0.702011 0.733754 0.226313
0.748560 0.736044 0.228321
0.794972 0.738327 0.230323
0.841257 0.740604 0.232320
0.887423 0.742876 0.234312
0.933479 0.745141 0.236299
0.181706 0.760307 0.210359
0.232224 0.762792 0.212538
0.281746 0.765229 0.214675
0.330629 0.767634 0.216784
0.379042 0.770015 0.218873
0.427082 0.772379 0.220945
0.474816 0.774727 0.223005
0.522288 0.777063 0.225053
0.569532 0.779387 0.227091
0.616575 0.781701 0.229121
0.663437 0.784007 0.231143
0.710136 0.786304 0.233158
0.756685 0.788594 0.235166
0.803097 0.790877 0.237168
0.849382 0.793154 0.239165
0.895548 0.795426 0.241157
0.941604 0.797691 0.243144
0.189809 0.812710 0.217184
0.240326 0.815195 0.219364
0.289848 0.817632 0.221501
0.338731 0.820037 0.223610
0.387144 0.822418 0.225698
0.435185 0.824782 0.227771
0.482918 0.827130 0.229831
0.530390 0.829466 0.231879
0.577634 0.831790 0.233917
0.624677 0.834104 0.235947
0.671539 0.836410 0.237969
0.718238 0.838707 0.239983
0.764788 0.840997 0.241992
0.811200 0.843280 0.243994
0.857484 0.845557 0.245991
0.903651 0.847829 0.247983
0.949706 0.850094 0.249970
0.197890 0.864977 0.223992
0.248407 0.867462 0.226172
0.297929 0.869898 0.228309
0.346812 0.872303 0.230418
0.395225 0.874685 0.232506
0.443266 0.877048 0.234579
0.490999 0.879397 0.236639
0.538471 0.881732 0.238687
0.585716 0.884056 0.240725
0.632758 0.886371 0.242755
0.679621 0.888676 0.244777
0.726319 0.890973 0.246791
0.772869 0.893264 0.248800
0.819281 0.895547 0.250802
0.865566 0.897824 0.252799
0.911732 0.900095 0.254791
0.957787 0.902361 0.256778
0.205951 0.917116 0.230784
0.256469 0.919601 0.232963
0.305991 0.922037 0.235100
0.354874 0.924442 0.237209
0.403287 0.926824 0.239298
0.451327 0.929187 0.241371
0.499061 0.931536 0.243430
0.546533 0.933871 0.245478
0.593777 0.936195 0.247516
0.640820 0.938510 0.249546
0.687682 0.940815 0.251568
0.734381 0.943112 0.253583
0.780930 0.945402 0.255591
0.827342 0.947686 0.257594
0.873627 0.949963 0.259591
0.919793 0.952234 0.261582
0.965849 0.954500 0.263570
0.077374 0.056691 0.165141
0.127786 0.059173 0.167419
0.177205 0.061606 0.169653
0.225986 0.064008 0.171857
0.274298 0.066387 0.174041
0.322239 0.068747 0.176207
0.369874 0.071092 0.178360
0.417247 0.073425 0.180501
0.464393 0.075746 0.182632
0.511338 0.078058 0.184753
