assets/luts/generated_genre/bs_thriller_fincher_amber_teal_fda8754fcbe2e451.cube
# V4 spec-generated LUT — bs_thriller_fincher_amber_teal
# Genre: thriller
# Look: Clinical thriller — Fincher amber-shadow / teal-mid. Messerschmidt/Mindhunter, Cronenweth/Gone Girl.
# Spec hash: fda8754fcbe2e451
TITLE "V4 Spec LUT — bs_thriller_fincher_amber_teal"
LUT_3D_SIZE 17
DOMAIN_MIN 0.0 0.0 0.0
DOMAIN_MAX 1.0 1.0 1.0
0.023044 0.010144 0.000000
0.034774 0.010511 0.000000
0.088379 0.012188 0.000000
0.144100 0.013932 0.000000
0.200906 0.015709 0.000000
0.258459 0.017510 0.000000
0.316586 0.019329 0.000000
0.375181 0.021163 0.001252
0.434169 0.023009 0.004085
0.493499 0.024865 0.006934
0.553131 0.026731 0.009797
0.613033 0.028606 0.012673
0.673180 0.030488 0.015561
0.733550 0.032377 0.018460
0.794126 0.034272 0.021369
0.854894 0.036174 0.024286
0.915839 0.038081 0.027213
0.023701 0.022913 0.000000
0.035431 0.023280 0.000000
0.089036 0.024958 0.000000
0.144758 0.026701 0.000000
0.201563 0.028479 0.000000
0.259116 0.030280 0.000000
0.317244 0.032099 0.000333
0.375838 0.033932 0.003147
0.434826 0.035778 0.005979
0.494157 0.037635 0.008828
0.553788 0.039501 0.011692
0.613690 0.041375 0.014568
0.673837 0.043257 0.017456
0.734207 0.045146 0.020355
0.794784 0.047042 0.023263
0.855551 0.048943 0.026181
0.916497 0.050850 0.029108
0.026705 0.081269 0.000000
0.038435 0.081636 0.000000
0.092040 0.083313 0.000000
0.147761 0.085057 0.000710
0.204567 0.086834 0.003438
0.262120 0.088635 0.006201
0.320248 0.090454 0.008992
0.378842 0.092288 0.011806
0.437830 0.094133 0.014638
0.497161 0.095990 0.017487
0.556792 0.097856 0.020351
0.616694 0.099730 0.023227
0.676841 0.101613 0.026115
0.737211 0.103502 0.029014
0.797787 0.105397 0.031922
0.858555 0.107299 0.034840
0.919501 0.109206 0.037767
0.029828 0.141927 0.003898
0.041557 0.142294 0.004461
0.095163 0.143972 0.007035
0.150884 0.145715 0.009711
0.207690 0.147493 0.012439
0.265243 0.149294 0.015202
0.323370 0.151113 0.017993
0.381964 0.152946 0.020807
0.440953 0.154792 0.023639
0.500283 0.156649 0.026488
0.559915 0.158515 0.029351
0.619817 0.160389 0.032228
0.679963 0.162271 0.035116
0.740334 0.164160 0.038014
0.800910 0.166056 0.040923
0.861677 0.167957 0.043841
0.922623 0.169864 0.046767
0.033011 0.203766 0.013074
0.044741 0.204133 0.013637
0.098346 0.205811 0.016211
0.154067 0.207554 0.018887
0.210873 0.209332 0.021614
0.268426 0.211133 0.024378
0.326553 0.212952 0.027169
0.385148 0.214785 0.029982
0.444136 0.216631 0.032815
0.503466 0.218488 0.035664
0.563098 0.220354 0.038527
0.623000 0.222228 0.041403
0.683147 0.224110 0.044291
0.743517 0.225999 0.047190
0.804093 0.227895 0.050099
0.864861 0.229796 0.053017
0.925806 0.231704 0.055943
0.036236 0.266419 0.022371
0.047966 0.266786 0.022934
0.101571 0.268464 0.025508
0.157292 0.270207 0.028183
0.214098 0.271985 0.030911
0.271651 0.273786 0.033675
0.329779 0.275605 0.036466
0.388373 0.277438 0.039279
0.447361 0.279284 0.042112
0.506692 0.281141 0.044960
0.566323 0.283007 0.047824
0.626225 0.284881 0.050700
0.686372 0.286763 0.053588
0.746742 0.288652 0.056487
0.807318 0.290548 0.059396
0.868086 0.292450 0.062313
0.929032 0.294357 0.065240
0.039493 0.329697 0.031760
0.051223 0.330064 0.032323
0.104829 0.331742 0.034897
0.160550 0.333485 0.037573
0.217355 0.335263 0.040300
0.274909 0.337064 0.043064
0.333036 0.338883 0.045855
0.391630 0.340716 0.048668
0.450619 0.342562 0.051501
0.509949 0.344419 0.054350
0.569581 0.346285 0.057213
0.629483 0.348159 0.060089
0.689629 0.350041 0.062977
0.749999 0.351930 0.065876
0.810576 0.353826 0.068785
0.871343 0.355727 0.071703
0.932289 0.357635 0.074629
0.042777 0.393484 0.041225
0.054507 0.393851 0.041788
0.108112 0.395528 0.044362
0.163833 0.397272 0.047038
0.220639 0.399049 0.049765
0.278192 0.400850 0.052529
0.336319 0.402669 0.055320
0.394914 0.404503 0.058133
0.453902 0.406348 0.060966
0.513232 0.408205 0.063815
0.572864 0.410071 0.066678
0.632766 0.411945 0.069554
0.692913 0.413828 0.072442
0.753283 0.415717 0.075341
0.813859 0.417612 0.078250
0.874627 0.419514 0.081168
0.936012 0.421431 0.083674
0.046082 0.457699 0.050753
0.057812 0.458066 0.051317
0.111418 0.459744 0.053891
0.167139 0.461487 0.056566
0.223945 0.463265 0.059294
0.281498 0.465066 0.062057
0.339625 0.466885 0.064848
0.398219 0.468718 0.067662
0.457208 0.470564 0.070494
0.516538 0.472421 0.073343
0.576170 0.474287 0.076206
0.636072 0.476161 0.079083
0.696218 0.478043 0.081971
0.757374 0.479950 0.084119
0.819245 0.481874 0.085791
0.881312 0.483805 0.087467
0.943561 0.485741 0.089148
0.049407 0.522287 0.060337
0.061137 0.522654 0.060900
0.114743 0.524331 0.063474
0.170464 0.526075 0.066150
0.227269 0.527852 0.068877
0.284823 0.529653 0.071641
0.342950 0.531472 0.074432
0.401544 0.533306 0.077245
0.460533 0.535152 0.080078
0.519863 0.537008 0.082927
0.580690 0.538901 0.084648
0.641873 0.540804 0.086301
0.703305 0.542715 0.087960
0.764966 0.544633 0.089626
0.826838 0.546557 0.091297
0.888905 0.548488 0.092973
0.951154 0.550424 0.094655
0.052749 0.587202 0.069969
0.064479 0.587569 0.070533
0.118084 0.589247 0.073107
0.173805 0.590990 0.075782
0.230611 0.592768 0.078510
0.288164 0.594569 0.081273
0.346718 0.596397 0.083657
0.406565 0.598259 0.085273
0.466815 0.600133 0.086901
0.527414 0.602018 0.088538
0.588321 0.603912 0.090183
0.649504 0.605816 0.091835
0.710937 0.607726 0.093495
0.772598 0.609644 0.095160
0.834470 0.611569 0.096831
0.896536 0.613499 0.098508
0.958785 0.615436 0.100189
0.056106 0.652412 0.079645
0.067836 0.652779 0.080209
0.121441 0.654457 0.082783
0.178209 0.656224 0.084458
0.236230 0.658028 0.086025
0.295014 0.659857 0.087613
0.354384 0.661704 0.089216
0.414231 0.663565 0.090833
0.474481 0.665439 0.092460
0.535080 0.667324 0.094097
0.595987 0.669219 0.095742
0.657170 0.671122 0.097395
0.718603 0.673032 0.099054
0.780264 0.674950 0.100720
0.842135 0.676875 0.102391
0.904202 0.678805 0.104067
0.966451 0.680742 0.105749
0.062262 0.717951 0.086700
0.074242 0.718323 0.087024
0.128994 0.720026 0.088503
0.185907 0.721797 0.090040
0.243927 0.723601 0.091607
0.302711 0.725430 0.093195
0.362081 0.727276 0.094798
0.421928 0.729138 0.096415
0.482178 0.731012 0.098042
0.542777 0.732897 0.099679
0.603684 0.734791 0.101324
0.664867 0.736694 0.102977
0.726300 0.738605 0.104636
0.787961 0.740523 0.106302
0.849833 0.742448 0.107973
0.911900 0.744378 0.109650
0.974149 0.746315 0.111331
0.069987 0.783767 0.092303
0.081968 0.784140 0.092627
0.136720 0.785843 0.094105
0.193633 0.787613 0.095643
0.251653 0.789418 0.097210
0.310437 0.791246 0.098798
0.369807 0.793093 0.100401
0.429654 0.794955 0.102018
0.489904 0.796829 0.103645
0.550503 0.798714 0.105282
0.611410 0.800608 0.106927
0.672593 0.802511 0.108580
0.734026 0.804422 0.110239
0.795687 0.806340 0.111905
0.857558 0.808264 0.113576
0.919625 0.810195 0.115253
0.981874 0.812131 0.116934
0.077740 0.849809 0.097925
0.089720 0.850181 0.098249
0.144472 0.851884 0.099728
0.201385 0.853655 0.101265
0.259405 0.855459 0.102832
0.318189 0.857288 0.104420
0.377559 0.859135 0.106023
0.437406 0.860996 0.107640
0.497656 0.862870 0.109267
0.558255 0.864755 0.110904
0.619162 0.866649 0.112549
0.680345 0.868553 0.114202
0.741778 0.870463 0.115861
0.803439 0.872381 0.117527
0.865311 0.874306 0.119198
0.927378 0.876236 0.120875
0.989627 0.878173 0.122556
0.085516 0.916059 0.103565
0.097497 0.916431 0.103888
0.152249 0.918134 0.105367
0.209161 0.919904 0.106905
0.267182 0.921709 0.108472
0.325966 0.923538 0.110060
0.385336 0.925384 0.111663
0.445183 0.927246 0.113280
0.505433 0.929120 0.114907
0.566032 0.931005 0.116544
0.626939 0.932899 0.118189
0.688122 0.934802 0.119842
0.749554 0.936713 0.121501
0.811216 0.938631 0.123167
0.873087 0.940556 0.124838
0.935154 0.942486 0.126514
0.997403 0.944422 0.128196
0.093316 0.982503 0.109221
0.105297 0.982875 0.109545
0.160048 0.984578 0.111024
0.216961 0.986349 0.112561
0.274981 0.988153 0.114128
0.333765 0.989982 0.115716
0.393135 0.991828 0.117320
0.452983 0.993690 0.118936
0.513233 0.995564 0.120564
0.573831 0.997449 0.122200
0.634738 0.999343 0.123846
0.695921 1.000000 0.125498
0.757354 1.000000 0.127158
0.819015 1.000000 0.128823
0.880887 1.000000 0.130494
0.942954 1.000000 0.132171
1.000000 1.000000 0.133852
0.023110 0.010268 0.000000
0.034840 0.010635 0.000000
0.088445 0.012313 0.000000
0.144167 0.014057 0.001882
0.200972 0.015834 0.004610
0.258525 0.017635 0.007374
0.316653 0.019454 0.010165
0.375247 0.021287 0.012978
0.434235 0.023133 0.015811
0.493566 0.024990 0.018659
0.553198 0.026856 0.021523
0.613099 0.028730 0.024399
0.673246 0.030612 0.027287
0.733616 0.032502 0.030186
0.794193 0.034397 0.033094
0.854960 0.036299 0.036012
0.915906 0.038206 0.038939
0.023767 0.023038 0.000000
0.035497 0.023405 0.000000
0.089103 0.025082 0.001102
0.144824 0.026826 0.003777
0.201629 0.028603 0.006505
0.259183 0.030404 0.009268
0.317310 0.032223 0.012059
0.375904 0.034057 0.014873
0.434893 0.035903 0.017705
0.494223 0.037759 0.020554
0.553855 0.039625 0.023417
0.613757 0.041500 0.026294
0.673903 0.043382 0.029182
0.734273 0.045271 0.032081
0.794850 0.047166 0.034989
0.855617 0.049068 0.037907
0.916563 0.050975 0.040833
0.026771 0.081393 0.006623
0.038501 0.081760 0.007187
0.092107 0.083438 0.009761
0.147828 0.085181 0.012436
0.204633 0.086959 0.015164
0.262187 0.088760 0.017927
0.320314 0.090579 0.020718
0.378908 0.092412 0.023532
0.437897 0.094258 0.026364
0.497227 0.096115 0.029213
0.556859 0.097981 0.032076
0.616761 0.099855 0.034953
0.676907 0.101737 0.037841
0.737277 0.103626 0.040739
0.797854 0.105522 0.043648
0.858621 0.107423 0.046566
0.919567 0.109331 0.049492
0.029894 0.142052 0.015624
0.041624 0.142419 0.016187
0.095229 0.144096 0.018761
0.150950 0.145840 0.021437
0.207756 0.147617 0.024164
0.265309 0.149418 0.026928
0.323436 0.151237 0.029719
0.382031 0.153071 0.032532
0.441019 0.154917 0.035365
0.500349 0.156773 0.038214
0.559981 0.158639 0.041077
0.619883 0.160514 0.043953
0.680030 0.162396 0.046841
0.740400 0.164285 0.049740
0.800976 0.166180 0.052649
0.861744 0.168082 0.055567
0.922690 0.169989 0.058493
0.033077 0.203891 0.024800
0.044807 0.204258 0.025363
0.098413 0.205935 0.027937
0.154134 0.207679 0.030613
0.210939 0.209457 0.033340
0.268493 0.211258 0.036104
0.326620 0.213076 0.038895
0.385214 0.214910 0.041708
0.444203 0.216756 0.044541
0.503533 0.218612 0.047390
0.563165 0.220478 0.050253
0.623066 0.222353 0.053129
0.683213 0.224235 0.056017
0.743583 0.226124 0.058916
0.804160 0.228020 0.061825
0.864927 0.229921 0.064743
0.925873 0.231828 0.067669
0.036302 0.266544 0.034097
0.048032 0.266911 0.034660
0.101638 0.268588 0.037234
0.157359 0.270332 0.039909
0.214164 0.272110 0.042637
0.271718 0.273911 0.045400
0.329845 0.275730 0.048191
0.388439 0.277563 0.051005
0.447428 0.279409 0.053837
0.506758 0.281265 0.056686
0.566390 0.283131 0.059550
0.626292 0.285006 0.062426
0.686438 0.286888 0.065314
0.746808 0.288777 0.068213
0.807385 0.290673 0.071121
0.868152 0.292574 0.074039
0.929098 0.294481 0.076966
0.039560 0.329822 0.043486
0.051290 0.330189 0.044049
0.104895 0.331866 0.046623
0.160616 0.333610 0.049299
0.217422 0.335388 0.052026
0.274975 0.337188 0.054790
0.333102 0.339007 0.057581
0.391696 0.340841 0.060394
0.450685 0.342687 0.063227
0.510015 0.344543 0.066076
0.569647 0.346409 0.068939
0.629549 0.348284 0.071815
0.689696 0.350166 0.074703
0.750066 0.352055 0.077602
0.810642 0.353951 0.080511
0.871410 0.355852 0.083429
0.932355 0.357759 0.086355
0.042843 0.393608 0.052951
0.054573 0.393975 0.053514
0.108179 0.395653 0.056088
0.163900 0.397396 0.058763
0.220705 0.399174 0.061491
0.278259 0.400975 0.064255
0.336386 0.402794 0.067046
0.394980 0.404627 0.069859
0.453969 0.406473 0.072692
0.513299 0.408330 0.075540
0.572931 0.410196 0.078404
0.632832 0.412070 0.081280
0.692979 0.413952 0.084168
0.753349 0.415841 0.087067
0.813926 0.417737 0.089975
0.874693 0.419638 0.092893
0.936164 0.421557 0.095318
0.046149 0.457824 0.062479
0.057879 0.458191 0.063042
0.111484 0.459868 0.065616
0.167205 0.461612 0.068292
0.224011 0.463389 0.071020
0.281564 0.465190 0.073783
0.339691 0.467009 0.076574
0.398286 0.468843 0.079388
0.457274 0.470689 0.082220
0.516604 0.472545 0.085069
0.576236 0.474411 0.087932
0.636138 0.476286 0.090809
0.696285 0.478168 0.093697
0.757525 0.480076 0.095764
0.819397 0.482001 0.097435
0.881464 0.483931 0.099112
0.943713 0.485868 0.100793
0.049474 0.522411 0.072063
0.061204 0.522778 0.072626
0.114809 0.524456 0.075200
0.170530 0.526199 0.077876
0.227336 0.527977 0.080603
0.284889 0.529778 0.083367
0.343016 0.531597 0.086158
0.401610 0.533430 0.088971
0.460599 0.535276 0.091804
0.519934 0.537133 0.094648
0.580841 0.539027 0.096293
0.642024 0.540930 0.097945
0.703457 0.542841 0.099605
0.765118 0.544759 0.101270
0.826990 0.546684 0.102941
0.889057 0.548614 0.104618
0.951306 0.550551 0.106299
0.052815 0.587327 0.081695
0.064545 0.587694 0.082258
0.118151 0.589372 0.084832
0.173872 0.591115 0.087508
0.230677 0.592893 0.090236
0.288231 0.594694 0.092999
0.346870 0.596524 0.095301
0.406717 0.598386 0.096918
0.466967 0.600260 0.098545
0.527566 0.602145 0.100182
0.588473 0.604039 0.101827
0.649655 0.605942 0.103480
0.711088 0.607853 0.105139
0.772749 0.609771 0.106805
0.834621 0.611695 0.108476
0.896688 0.613626 0.110152
0.958937 0.615562 0.111834
0.056172 0.652537 0.091371
0.067902 0.652904 0.091935
0.121507 0.654581 0.094508
0.178361 0.656350 0.096102
0.236381 0.658155 0.097669
0.295165 0.659983 0.099257
0.354536 0.661830 0.100861
0.414383 0.663692 0.102477
0.474633 0.665566 0.104105
0.535232 0.667451 0.105741
0.596139 0.669345 0.107387
0.657321 0.671248 0.109039
0.718754 0.673159 0.110699
0.780415 0.675077 0.112364
0.842287 0.677001 0.114035
0.904354 0.678932 0.115712
0.966603 0.680868 0.117393
0.062413 0.718077 0.098344
0.074394 0.718450 0.098668
0.129146 0.720153 0.100147
0.186058 0.721923 0.101684
0.244079 0.723728 0.103251
0.302863 0.725556 0.104839
0.362233 0.727403 0.106443
0.422080 0.729264 0.108059
0.482330 0.731139 0.109687
0.542929 0.733023 0.111324
0.603836 0.734918 0.112969
0.665019 0.736821 0.114621
0.726451 0.738732 0.116281
0.788112 0.740650 0.117946
0.849984 0.742574 0.119618
0.912051 0.744505 0.121294
0.974300 0.746441 0.122975
0.070139 0.783894 0.103947
0.082120 0.784267 0.104271
0.136871 0.785970 0.105750
0.193784 0.787740 0.107287
0.251804 0.789544 0.108854
0.310588 0.791373 0.110442
0.369959 0.793220 0.112046
0.429806 0.795081 0.113662
0.490056 0.796955 0.115290
0.550655 0.798840 0.116927
0.611562 0.800735 0.118572
0.672744 0.802638 0.120224
0.734177 0.804549 0.121884
0.795838 0.806466 0.123549
0.857710 0.808391 0.125221
0.919777 0.810322 0.126897
0.982026 0.812258 0.128578
0.077891 0.849935 0.109570
0.089872 0.850308 0.109893
0.144624 0.852011 0.111372
0.201536 0.853781 0.112909
0.259557 0.855586 0.114476
0.318341 0.857414 0.116064
0.377711 0.859261 0.117668
0.437558 0.861123 0.119284
0.497808 0.862997 0.120912
0.558407 0.864882 0.122549
0.619314 0.866776 0.124194
0.680497 0.868679 0.125846
0.741929 0.870590 0.127506
0.803590 0.872508 0.129171
0.865462 0.874432 0.130843
0.927529 0.876363 0.132519
0.989778 0.878299 0.134201
0.085668 0.916185 0.115209
0.097649 0.916558 0.115533
0.152400 0.918261 0.117012
0.209313 0.920031 0.118549
0.267333 0.921836 0.120116
0.326117 0.923664 0.121704
0.385487 0.925511 0.123308
0.445335 0.927372 0.124924
0.505585 0.929246 0.126552
0.566184 0.931131 0.128189
0.627090 0.933026 0.129834
0.688273 0.934929 0.131486
0.749706 0.936840 0.133146
0.811367 0.938758 0.134811
0.873239 0.940682 0.136482
0.935306 0.942613 0.138159
0.997555 0.944549 0.139840
0.093467 0.982629 0.120866
0.105448 0.983002 0.121189
0.160200 0.984705 0.122668
0.217112 0.986475 0.124205
0.275133 0.988280 0.125773
0.333917 0.990108 0.127360
0.393287 0.991955 0.128964
0.453134 0.993817 0.130581
0.513384 0.995691 0.132208
0.573983 0.997575 0.133845
0.634890 0.999470 0.135490
0.696073 1.000000 0.137143
0.757505 1.000000 0.138802
0.819167 1.000000 0.140468
0.881038 1.000000 0.142139
0.943105 1.000000 0.143815
1.000000 1.000000 0.145497
0.023413 0.010838 0.049656
0.035143 0.011205 0.050219
0.088749 0.012883 0.052793
0.144470 0.014626 0.055469
0.201275 0.016404 0.058197
0.258829 0.018205 0.060960
0.316956 0.020024 0.063751
0.375550 0.021857 0.066565
0.434539 0.023703 0.069397
0.493869 0.025560 0.072246
0.553501 0.027426 0.075109
0.613403 0.029300 0.077986
0.673549 0.031182 0.080874
0.733919 0.033071 0.083772
0.794496 0.034967 0.086681
0.855263 0.036868 0.089599
0.916209 0.038775 0.092525
0.024071 0.023607 0.051551
0.035801 0.023975 0.052114
0.089406 0.025652 0.054688
0.145127 0.027396 0.057364
0.201933 0.029173 0.060091
0.259486 0.030974 0.062855
0.317613 0.032793 0.065646
0.376207 0.034627 0.068459
0.435196 0.036472 0.071292
0.494526 0.038329 0.074141
0.554158 0.040195 0.077004
0.614060 0.042069 0.079880
0.674207 0.043951 0.082768
0.734577 0.045841 0.085667
0.795153 0.047736 0.088576
0.855921 0.049638 0.091494
0.916866 0.051545 0.094420
0.027075 0.081963 0.060210
0.038805 0.082330 0.060773
0.092410 0.084007 0.063347
0.148131 0.085751 0.066023
0.204937 0.087529 0.068750
0.262490 0.089329 0.071514
0.320617 0.091148 0.074305
0.379211 0.092982 0.077118
0.438200 0.094828 0.079951
0.497530 0.096684 0.082800
0.557162 0.098550 0.085663
0.617064 0.100425 0.088539
0.677210 0.102307 0.091427
0.737581 0.104196 0.094326
0.798157 0.106092 0.097235
0.858925 0.107993 0.100153
0.919870 0.109900 0.103079
0.030197 0.142621 0.069211
0.041927 0.142988 0.069774
0.095533 0.144666 0.072348
0.151254 0.146409 0.075023
0.208059 0.148187 0.077751
0.265612 0.149988 0.080514
0.323740 0.151807 0.083306
0.382334 0.153640 0.086119
0.441323 0.155486 0.088951
0.500653 0.157343 0.091800
0.560285 0.159209 0.094664
0.620186 0.161083 0.097540
0.680333 0.162965 0.100428
0.740703 0.164855 0.103327
0.801280 0.166750 0.106235
0.862047 0.168652 0.109153
0.922993 0.170559 0.112080
0.033380 0.204461 0.078386
0.045110 0.204828 0.078950
0.098716 0.206505 0.081524
0.154437 0.208249 0.084199
0.211242 0.210026 0.086927
0.268796 0.211827 0.089690
0.326923 0.213646 0.092481
0.385517 0.215480 0.095295
0.444506 0.217325 0.098127
0.503836 0.219182 0.100976
0.563468 0.221048 0.103840
0.623370 0.222922 0.106716
0.683516 0.224805 0.109604
0.743886 0.226694 0.112503
0.804463 0.228589 0.115411
0.865230 0.230491 0.118329
0.926176 0.232398 0.121256
0.036606 0.267114 0.087683
0.048336 0.267481 0.088246
0.101941 0.269158 0.090820
0.157662 0.270902 0.093496
0.214468 0.272679 0.096223
0.272021 0.274480 0.098987
0.330148 0.276299 0.101778
0.388742 0.278133 0.104592
0.447731 0.279979 0.107424
0.507061 0.281835 0.110273
0.566693 0.283701 0.113136
0.626595 0.285576 0.116012
0.686741 0.287458 0.118900
0.747112 0.289347 0.121799
0.807688 0.291242 0.124708
0.868456 0.293144 0.127626
0.929401 0.295051 0.130552
0.039863 0.330392 0.097072
0.051593 0.330759 0.097636
0.105198 0.332436 0.100210
0.160919 0.334180 0.102885
0.217725 0.335957 0.105613
0.275278 0.337758 0.108376
0.333405 0.339577 0.111167
0.392000 0.341411 0.113981
0.450988 0.343256 0.116813
0.510319 0.345113 0.119662
0.569950 0.346979 0.122526
0.629852 0.348853 0.125402
0.689999 0.350736 0.128290
0.750369 0.352625 0.131189
0.810945 0.354520 0.134097
0.871713 0.356422 0.137015
0.932659 0.358329 0.139942
0.043146 0.394178 0.106537
0.054876 0.394545 0.107101
0.108482 0.396222 0.109674
0.164203 0.397966 0.112350
0.221009 0.399743 0.115078
0.278562 0.401544 0.117841
0.336689 0.403363 0.120632
0.395283 0.405197 0.123446
0.454272 0.407043 0.126278
0.513602 0.408899 0.129127
0.573234 0.410765 0.131990
0.633136 0.412640 0.134867
0.693282 0.414522 0.137755
0.753653 0.416411 0.140653
0.814229 0.418307 0.143562
0.874996 0.420208 0.146480
0.936856 0.422136 0.148533
0.046452 0.458393 0.116066
0.058182 0.458760 0.116629
0.111787 0.460438 0.119203
0.167509 0.462182 0.121879
0.224314 0.463959 0.124606
0.281867 0.465760 0.127370
0.339995 0.467579 0.130161
0.398589 0.469412 0.132974
0.457577 0.471258 0.135807
0.516908 0.473115 0.138655
0.576539 0.474981 0.141519
0.636441 0.476855 0.144395
0.696588 0.478737 0.147283
0.758218 0.480655 0.148979
0.820090 0.482579 0.150650
0.882156 0.484510 0.152326
0.944405 0.486446 0.154008
0.049777 0.522981 0.125649
0.061507 0.523348 0.126213
0.115112 0.525025 0.128787
0.170833 0.526769 0.131462
0.227639 0.528547 0.134190
0.285192 0.530348 0.136953
0.343319 0.532166 0.139744
0.401914 0.534000 0.142558
0.460902 0.535846 0.145390
0.520627 0.537711 0.147862
0.581534 0.539606 0.149507
0.642717 0.541509 0.151160
0.704149 0.543420 0.152819
0.765811 0.545338 0.154485
0.827682 0.547262 0.156156
0.889749 0.549193 0.157833
0.951998 0.551129 0.159514
0.053118 0.587897 0.135282
0.064848 0.588264 0.135845
0.118454 0.589941 0.138419
0.174175 0.591685 0.141095
0.230981 0.593462 0.143822
0.288534 0.595263 0.146586
0.347562 0.597102 0.148516
0.407409 0.598964 0.150132
0.467659 0.600838 0.151760
0.528258 0.602723 0.153397
0.589165 0.604617 0.155042
0.650348 0.606520 0.156694
0.711781 0.608431 0.158354
0.773442 0.610349 0.160019
0.835314 0.612274 0.161691
0.897381 0.614204 0.163367
0.959630 0.616141 0.165048
0.056475 0.653107 0.144958
0.068205 0.653474 0.145521
0.122141 0.655158 0.147779
0.179054 0.656929 0.149317
0.237074 0.658733 0.150884
0.295858 0.660562 0.152472
0.355228 0.662408 0.154075
0.415075 0.664270 0.155692
0.475325 0.666144 0.157319
0.535924 0.668029 0.158956
0.596831 0.669923 0.160601
0.658014 0.671827 0.162254
0.719447 0.673737 0.163913
0.781108 0.675655 0.165579
0.842979 0.677580 0.167250
0.905046 0.679510 0.168927
0.967295 0.681447 0.170608
0.063106 0.718655 0.151559
0.075086 0.719028 0.151883
0.129838 0.720731 0.153362
0.186751 0.722501 0.154899
0.244771 0.724306 0.156466
0.303555 0.726135 0.158054
0.362925 0.727981 0.159658
0.422772 0.729843 0.161274
0.483022 0.731717 0.162902
0.543621 0.733602 0.164538
0.604528 0.735496 0.166184
0.665711 0.737399 0.167836
0.727144 0.739310 0.169496
0.788805 0.741228 0.171161
0.850677 0.743153 0.172832
0.912744 0.745083 0.174509
0.974993 0.747019 0.176190
0.070832 0.784472 0.157162
0.082812 0.784845 0.157486
0.137564 0.786548 0.158965
0.194477 0.788318 0.160502
0.252497 0.790123 0.162069
0.311281 0.791951 0.163657
0.370651 0.793798 0.165261
0.430498 0.795660 0.166877
0.490748 0.797534 0.168505
0.551347 0.799418 0.170141
0.612254 0.801313 0.171786
0.673437 0.803216 0.173439
0.734870 0.805127 0.175098
0.796531 0.807045 0.176764
0.858403 0.808969 0.178435
0.920469 0.810900 0.180112
0.982718 0.812836 0.181793
0.078584 0.850514 0.162784
0.090565 0.850886 0.163108
0.145316 0.852589 0.164587
0.202229 0.854360 0.166124
0.260249 0.856164 0.167691
0.319033 0.857993 0.169279
0.378403 0.859839 0.170883
0.438250 0.861701 0.172499
0.498500 0.863575 0.174127
0.559099 0.865460 0.175763
0.620006 0.867354 0.177409
0.681189 0.869257 0.179061
0.742622 0.871168 0.180721
0.804283 0.873086 0.182386
0.866155 0.875011 0.184057
0.928222 0.876941 0.185734
0.990471 0.878878 0.187415
0.086360 0.916763 0.168424
0.098341 0.917136 0.168748
0.153093 0.918839 0.170227
0.210005 0.920609 0.171764
0.268026 0.922414 0.173331
0.326810 0.924243 0.174919
0.386180 0.926089 0.176522
0.446027 0.927951 0.178139
0.506277 0.929825 0.179766
0.566876 0.931710 0.181403
0.627783 0.933604 0.183048
0.688966 0.935507 0.184701
0.750399 0.937418 0.186360
0.812060 0.939336 0.188026
0.873931 0.941261 0.189697
0.935998 0.943191 0.191374
0.998247 0.945127 0.193055
0.094160 0.983208 0.174080
0.106141 0.983580 0.174404
0.160892 0.985283 0.175883
0.217805 0.987054 0.177420
0.275825 0.988858 0.178987
0.334609 0.990687 0.180575
0.393979 0.992533 0.182179
0.453827 0.994395 0.183795
0.514077 0.996269 0.185423
0.574676 0.998154 0.187060
0.635582 1.000000 0.188705
0.696765 1.000000 0.190357
0.758198 1.000000 0.192017
0.819859 1.000000 0.193682
0.881731 1.000000 0.195353
0.943798 1.000000 0.197030
1.000000 1.000000 0.198711
0.023729 0.011430 0.105358
0.035459 0.011797 0.105921
0.089064 0.013475 0.108495
0.144785 0.015218 0.111170
0.201591 0.016996 0.113898
0.259144 0.018797 0.116662
0.317271 0.020616 0.119453
0.375865 0.022449 0.122266
0.434854 0.024295 0.125099
