assets/luts/generated_genre/bs_unit_test_cache_5c43c04cee53665c.cube
# V4 spec-generated LUT — bs_unit_test_cache
# Genre: n/a
# Look: 
# Spec hash: 5c43c04cee53665c
TITLE "V4 Spec LUT — bs_unit_test_cache"
LUT_3D_SIZE 9
DOMAIN_MIN 0.0 0.0 0.0
DOMAIN_MAX 1.0 1.0 1.0
0.053025 0.053025 0.053025
0.179533 0.051731 0.051731
0.304125 0.050457 0.050457
0.427681 0.049193 0.049193
0.550520 0.047937 0.047937
0.672810 0.046686 0.046686
0.794657 0.045440 0.045440
0.916130 0.044198 0.044198
1.000000 0.042959 0.042959
0.048672 0.176475 0.048672
0.175181 0.175181 0.047379
0.299772 0.173907 0.046104
0.423328 0.172643 0.044841
0.546167 0.171387 0.043584
0.668458 0.170136 0.042334
0.790304 0.168890 0.041087
0.911778 0.167647 0.039845
1.000000 0.166408 0.038606
0.044386 0.298054 0.044386
0.170894 0.296760 0.043092
0.295486 0.295486 0.041818
0.419041 0.294222 0.040554
0.541880 0.292966 0.039298
0.664171 0.291715 0.038047
0.786018 0.290469 0.036801
0.907491 0.289227 0.035558
1.000000 0.287987 0.034319
0.040135 0.418622 0.040135
0.166643 0.417328 0.038841
0.291235 0.416054 0.037567
0.414790 0.414790 0.036303
0.537629 0.413534 0.035047
0.659920 0.412283 0.033796
0.781767 0.411037 0.032550
0.903240 0.409795 0.031307
1.000000 0.408556 0.030068
0.035908 0.538491 0.035908
0.162417 0.537197 0.034615
0.287008 0.535923 0.033340
0.410564 0.534659 0.032077
0.533403 0.533403 0.030820
0.655694 0.532152 0.029570
0.777540 0.530906 0.028324
0.899014 0.529664 0.027081
1.000000 0.528425 0.025842
0.031701 0.657825 0.031701
0.158209 0.656531 0.030407
0.282801 0.655257 0.029133
0.406357 0.653993 0.027869
0.529196 0.652737 0.026613
0.651486 0.651486 0.025362
0.773333 0.650240 0.024116
0.894806 0.648998 0.022874
1.000000 0.647759 0.021635
0.027509 0.776726 0.027509
0.154017 0.775432 0.026215
0.278609 0.774158 0.024941
0.402164 0.772894 0.023677
0.525003 0.771638 0.022421
0.647294 0.770387 0.021170
0.769141 0.769141 0.019924
0.890614 0.767898 0.018682
1.000000 0.766659 0.017442
0.023329 0.895262 0.023329
0.149838 0.893968 0.022036
0.274429 0.892694 0.020761
0.397985 0.891430 0.019498
0.520824 0.890174 0.018241
0.643115 0.888923 0.016991
0.764961 0.887677 0.015745
0.886435 0.886435 0.014502
1.000000 0.885196 0.013263
0.019161 1.000000 0.019161
0.145670 1.000000 0.017867
0.270261 1.000000 0.016593
0.393817 1.000000 0.015329
0.516656 1.000000 0.014073
0.638946 1.000000 0.012822
0.760793 1.000000 0.011576
0.882267 1.000000 0.010334
1.000000 1.000000 0.009095
0.052586 0.052586 0.180388
0.179094 0.051292 0.179094
0.303686 0.050017 0.177820
0.427241 0.048754 0.176556
0.550080 0.047498 0.175300
0.672371 0.046247 0.174049
0.794217 0.045001 0.172803
0.915691 0.043758 0.171561
1.000000 0.042519 0.170322
0.048233 0.176035 0.176035
0.174741 0.174741 0.174741
0.299333 0.173467 0.173467
0.422889 0.172204 0.172204
0.545728 0.170947 0.170947
0.668018 0.169697 0.169697
0.789865 0.168450 0.168450
0.911338 0.167208 0.167208
1.000000 0.165969 0.165969
0.043946 0.297614 0.171749
0.170455 0.296321 0.170455
0.295046 0.295046 0.169181
0.418602 0.293783 0.167917
0.541441 0.292526 0.166661
0.663732 0.291276 0.165410
0.785578 0.290029 0.164164
0.907052 0.288787 0.162921
1.000000 0.287548 0.161682
0.039695 0.418183 0.167498
0.166204 0.416889 0.166204
0.290795 0.415615 0.164930
0.414351 0.414351 0.163666
0.537190 0.413095 0.162410
0.659481 0.411844 0.161159
0.781327 0.410598 0.159913
0.902801 0.409355 0.158670
1.000000 0.408116 0.157431
0.035469 0.538052 0.163271
0.161977 0.536758 0.161977
0.286569 0.535484 0.160703
0.410125 0.534220 0.159440
0.532964 0.532964 0.158183
0.655254 0.531713 0.156933
0.777101 0.530467 0.155686
0.898574 0.529224 0.154444
1.000000 0.527985 0.153205
0.031262 0.657386 0.159064
0.157770 0.656092 0.157770
0.282362 0.654818 0.156496
0.405917 0.653554 0.155232
0.528756 0.652298 0.153976
0.651047 0.651047 0.152725
0.772893 0.649801 0.151479
0.894367 0.648558 0.150237
1.000000 0.647319 0.148998
0.027069 0.776286 0.154872
0.153578 0.774992 0.153578
0.278169 0.773718 0.152304
0.401725 0.772454 0.151040
0.524564 0.771198 0.149784
0.646855 0.769947 0.148533
0.768701 0.768701 0.147287
0.890175 0.767459 0.146044
1.000000 0.766220 0.144805
0.022890 0.894823 0.150692
0.149398 0.893529 0.149398
0.273990 0.892255 0.148124
0.397546 0.890991 0.146861
0.520385 0.889735 0.145604
0.642675 0.888484 0.144354
0.764522 0.887238 0.143107
0.885995 0.885995 0.141865
1.000000 0.884756 0.140626
0.018722 1.000000 0.146524
0.145230 1.000000 0.145230
0.269822 1.000000 0.143956
0.393377 1.000000 0.142692
0.516216 1.000000 0.141436
0.638507 1.000000 0.140185
0.760354 1.000000 0.138939
0.881827 1.000000 0.137697
1.000000 1.000000 0.136458
0.052153 0.052153 0.305821
0.178661 0.050859 0.304527
0.303253 0.049585 0.303253
0.426808 0.048321 0.301989
0.549647 0.047065 0.300733
0.671938 0.045814 0.299482
0.793785 0.044568 0.298236
0.915258 0.043326 0.296994
1.000000 0.042086 0.295755
0.047800 0.175603 0.301468
0.174309 0.174309 0.300174
0.298900 0.173034 0.298900
0.422456 0.171771 0.297637
0.545295 0.170514 0.296380
0.667586 0.169264 0.295130
0.789432 0.168018 0.293883
0.910906 0.166775 0.292641
1.000000 0.165536 0.291402
0.043514 0.297182 0.297182
0.170022 0.295888 0.295888
0.294614 0.294614 0.294614
0.418169 0.293350 0.293350
0.541008 0.292094 0.292094
0.663299 0.290843 0.290843
0.785146 0.289597 0.289597
0.906619 0.288354 0.288354
1.000000 0.287115 0.287115
0.039263 0.417750 0.292931
0.165771 0.416456 0.291637
0.290363 0.415182 0.290363
0.413918 0.413918 0.289099
0.536757 0.412662 0.287843
0.659048 0.411411 0.286592
0.780895 0.410165 0.285346
0.902368 0.408923 0.284103
1.000000 0.407684 0.282864
0.035036 0.537619 0.288704
0.161545 0.536325 0.287411
0.286136 0.535051 0.286136
0.409692 0.533787 0.284873
0.532531 0.532531 0.283616
0.654822 0.531280 0.282366
0.776668 0.530034 0.281119
0.898142 0.528792 0.279877
1.000000 0.527553 0.278638
0.030829 0.656953 0.284497
0.157337 0.655659 0.283203
0.281929 0.654385 0.281929
0.405484 0.653121 0.280665
0.528323 0.651865 0.279409
0.650614 0.650614 0.278158
0.772461 0.649368 0.276912
0.893934 0.648126 0.275670
1.000000 0.646887 0.274431
0.026637 0.775853 0.280305
0.153145 0.774560 0.279011
0.277737 0.773285 0.277737
0.401292 0.772022 0.276473
0.524131 0.770765 0.275217
0.646422 0.769515 0.273966
0.768269 0.768269 0.272720
0.889742 0.767026 0.271477
1.000000 0.765787 0.270238
0.022457 0.894390 0.276125
0.148966 0.893096 0.274832
0.273557 0.891822 0.273557
0.397113 0.890558 0.272294
0.519952 0.889302 0.271037
0.642243 0.888051 0.269787
0.764089 0.886805 0.268540
0.885563 0.885563 0.267298
1.000000 0.884324 0.266059
0.018289 1.000000 0.271957
0.144797 1.000000 0.270663
0.269389 1.000000 0.269389
0.392945 1.000000 0.268125
0.515784 1.000000 0.266869
0.638074 1.000000 0.265618
0.759921 1.000000 0.264372
0.881394 1.000000 0.263130
1.000000 1.000000 0.261891
0.051724 0.051724 0.430211
0.178232 0.050430 0.428917
0.302824 0.049156 0.427643
0.426379 0.047892 0.426379
0.549218 0.046636 0.425123
0.671509 0.045385 0.423872
0.793356 0.044139 0.422626
0.914829 0.042896 0.421384
1.000000 0.041657 0.420145
0.047371 0.175173 0.425858
0.173880 0.173880 0.424565
0.298471 0.172605 0.423290
0.422027 0.171342 0.422027
0.544866 0.170085 0.420770
0.667156 0.168835 0.419520
0.789003 0.167588 0.418274
0.910477 0.166346 0.417031
1.000000 0.165107 0.415792
0.043084 0.296753 0.421572
0.169593 0.295459 0.420278
0.294184 0.294184 0.419004
0.417740 0.292921 0.417740
0.540579 0.291664 0.416484
0.662870 0.290414 0.415233
0.784716 0.289168 0.413987
0.906190 0.287925 0.412745
1.000000 0.286686 0.411506
0.038833 0.417321 0.417321
0.165342 0.416027 0.416027
0.289933 0.414753 0.414753
0.413489 0.413489 0.413489
0.536328 0.412233 0.412233
0.658619 0.410982 0.410982
0.780465 0.409736 0.409736
0.901939 0.408494 0.408494
1.000000 0.407255 0.407255
0.034607 0.537190 0.413095
0.161116 0.535896 0.411801
0.285707 0.534622 0.410526
0.409263 0.533358 0.409263
0.532102 0.532102 0.408006
0.654392 0.530851 0.406756
0.776239 0.529605 0.405510
0.897713 0.528363 0.404267
1.000000 0.527124 0.403028
0.030400 0.656524 0.408887
0.156908 0.655230 0.407593
0.281500 0.653956 0.406319
0.405055 0.652692 0.405055
0.527894 0.651436 0.403799
0.650185 0.650185 0.402548
0.772032 0.648939 0.401302
0.893505 0.647696 0.400060
1.000000 0.646457 0.398821
0.026208 0.775424 0.404695
0.152716 0.774130 0.403401
0.277307 0.772856 0.402127
0.400863 0.771593 0.400863
0.523702 0.770336 0.399607
0.645993 0.769086 0.398356
0.767839 0.767839 0.397110
0.889313 0.766597 0.395868
1.000000 0.765358 0.394629
0.022028 0.893961 0.400516
0.148537 0.892667 0.399222
0.273128 0.891393 0.397947
0.396684 0.890129 0.396684
0.519523 0.888873 0.395427
0.641813 0.887622 0.394177
0.763660 0.886376 0.392931
0.885134 0.885134 0.391688
1.000000 0.883895 0.390449
0.017860 1.000000 0.396347
0.144368 1.000000 0.395053
0.268960 1.000000 0.393779
0.392515 1.000000 0.392515
0.515355 1.000000 0.391259
0.637645 1.000000 0.390008
0.759492 1.000000 0.388762
0.880965 1.000000 0.387520
1.000000 1.000000 0.386281
0.051297 0.051297 0.553880
0.177805 0.050003 0.552586
0.302397 0.048729 0.551312
0.425953 0.047465 0.550048
0.548792 0.046209 0.548792
0.671082 0.044958 0.547541
0.792929 0.043712 0.546295
0.914402 0.042470 0.545052
1.000000 0.041231 0.543813
0.046944 0.174747 0.549527
0.173453 0.173453 0.548233
0.298044 0.172179 0.546959
0.421600 0.170915 0.545695
0.544439 0.169659 0.544439
0.666730 0.168408 0.543188
0.788576 0.167162 0.541942
0.910050 0.165919 0.540700
1.000000 0.164680 0.539461
0.042658 0.296326 0.545241
0.169166 0.295032 0.543947
0.293758 0.293758 0.542672
0.417313 0.292494 0.541409
0.540152 0.291238 0.540152
0.662443 0.289987 0.538902
0.784290 0.288741 0.537656
0.905763 0.287499 0.536413
1.000000 0.286260 0.535174
0.038407 0.416894 0.540990
0.164915 0.415600 0.539696
0.289507 0.414326 0.538421
0.413062 0.413062 0.537158
0.535901 0.411806 0.535901
0.658192 0.410555 0.534651
0.780039 0.409309 0.533405
0.901512 0.408067 0.532162
1.000000 0.406828 0.530923
0.034181 0.536763 0.536763
0.160689 0.535469 0.535469
0.285280 0.534195 0.534195
0.408836 0.532931 0.532931
0.531675 0.531675 0.531675
0.653966 0.530424 0.530424
0.775812 0.529178 0.529178
0.897286 0.527936 0.527936
1.000000 0.526697 0.526697
0.029973 0.656097 0.532556
0.156481 0.654803 0.531262
0.281073 0.653529 0.529988
0.404629 0.652265 0.528724
0.527468 0.651009 0.527468
0.649758 0.649758 0.526217
0.771605 0.648512 0.524971
0.893078 0.647270 0.523728
1.000000 0.646031 0.522489
0.025781 0.774998 0.528364
0.152289 0.773704 0.527070
0.276881 0.772430 0.525795
0.400436 0.771166 0.524532
0.523276 0.769910 0.523276
0.645566 0.768659 0.522025
0.767413 0.767413 0.520779
0.888886 0.766170 0.519536
1.000000 0.764931 0.518297
0.021602 0.893534 0.524184
0.148110 0.892240 0.522890
0.272701 0.890966 0.521616
0.396257 0.889702 0.520352
0.519096 0.888446 0.519096
0.641387 0.887195 0.517845
0.763233 0.885949 0.516599
0.884707 0.884707 0.515357
1.000000 0.883468 0.514118
0.017433 1.000000 0.520016
0.143942 1.000000 0.518722
0.268533 1.000000 0.517448
0.392089 1.000000 0.516184
0.514928 1.000000 0.514928
0.637219 1.000000 0.513677
0.759065 1.000000 0.512431
0.880539 1.000000 0.511189
1.000000 1.000000 0.509950
0.050872 0.050872 0.676996
0.177381 0.049578 0.675703
0.301972 0.048304 0.674428
0.425528 0.047041 0.673165
0.548367 0.045784 0.671908
0.670658 0.044534 0.670658
0.792504 0.043287 0.669411
0.913978 0.042045 0.668169
1.000000 0.040806 0.666930
0.046520 0.174322 0.672644
0.173028 0.173028 0.671350
0.297620 0.171754 0.670076
0.421175 0.170490 0.668812
0.544014 0.169234 0.667556
0.666305 0.167983 0.666305
0.788152 0.166737 0.665059
0.909625 0.165495 0.663817
1.000000 0.164256 0.662577
0.042233 0.295901 0.668357
0.168742 0.294607 0.667063
0.293333 0.293333 0.665789
0.416889 0.292069 0.664525
0.539728 0.290813 0.663269
0.662018 0.289562 0.662018
0.783865 0.288316 0.660772
0.905339 0.287074 0.659530
1.000000 0.285835 0.658291
0.037982 0.416469 0.664106
0.164491 0.415176 0.662812
0.289082 0.413901 0.661538
0.412638 0.412638 0.660274
0.535477 0.411381 0.659018
0.657767 0.410131 0.657767
0.779614 0.408885 0.656521
0.901088 0.407642 0.655279
1.000000 0.406403 0.654040
0.033756 0.536338 0.659880
0.160264 0.535045 0.658586
0.284856 0.533770 0.657312
0.408411 0.532507 0.656048
0.531250 0.531250 0.654792
0.653541 0.530000 0.653541
0.775388 0.528754 0.652295
0.896861 0.527511 0.651053
1.000000 0.526272 0.649813
0.029548 0.655672 0.655672
0.156057 0.654379 0.654379
0.280648 0.653104 0.653104
0.404204 0.651841 0.651841
0.527043 0.650584 0.650584
0.649334 0.649334 0.649334
0.771180 0.648087 0.648087
0.892654 0.646845 0.646845
1.000000 0.645606 0.645606
0.025356 0.774573 0.651480
0.151865 0.773279 0.650186
0.276456 0.772005 0.648912
0.400012 0.770741 0.647648
0.522851 0.769485 0.646392
0.645141 0.768234 0.645141
0.766988 0.766988 0.643895
0.888462 0.765746 0.642653
1.000000 0.764507 0.641414
0.021177 0.893109 0.647301
0.147685 0.891816 0.646007
0.272277 0.890541 0.644733
0.395832 0.889278 0.643469
0.518671 0.888021 0.642213
0.640962 0.886771 0.640962
0.762809 0.885525 0.639716
0.884282 0.884282 0.638474
1.000000 0.883043 0.637234
0.017008 1.000000 0.643133
0.143517 1.000000 0.641839
0.268108 1.000000 0.640564
0.391664 1.000000 0.639301
0.514503 1.000000 0.638044
0.636794 1.000000 0.636794
0.758640 1.000000 0.635548
0.880114 1.000000 0.634305
1.000000 1.000000 0.633066
0.050449 0.050449 0.799666
0.176958 0.049155 0.798372
0.301549 0.047881 0.797098
0.425105 0.046617 0.795834
0.547944 0.045361 0.794578
0.670234 0.044110 0.793327
0.792081 0.042864 0.792081
0.913555 0.041622 0.790839
1.000000 0.040383 0.789600
0.046097 0.173899 0.795313
0.172605 0.172605 0.794019
0.297196 0.171331 0.792745
0.420752 0.170067 0.791482
0.543591 0.168811 0.790225
0.665882 0.167560 0.788975
0.787728 0.166314 0.787728
0.909202 0.165072 0.786486
1.000000 0.163832 0.785247
0.041810 0.295478 0.791027
0.168318 0.294184 0.789733
0.292910 0.292910 0.788459
0.416466 0.291646 0.787195
0.539305 0.290390 0.785939
0.661595 0.289139 0.784688
0.783442 0.287893 0.783442
0.904915 0.286651 0.782199
1.000000 0.285412 0.780960
0.037559 0.416046 0.786776
0.164067 0.414752 0.785482
0.288659 0.413478 0.784208
0.412215 0.412215 0.782944
0.535054 0.410958 0.781688
0.657344 0.409707 0.780437
0.779191 0.408461 0.779191
0.900664 0.407219 0.777948
1.000000 0.405980 0.776709
0.033333 0.535915 0.782549
0.159841 0.534621 0.781256
0.284433 0.533347 0.779981
0.407988 0.532084 0.778718
0.530827 0.530827 0.777461
0.653118 0.529577 0.776211
0.774964 0.528330 0.774964
0.896438 0.527088 0.773722
1.000000 0.525849 0.772483
0.029125 0.655249 0.778342
0.155634 0.653955 0.777048
0.280225 0.652681 0.775774
0.403781 0.651417 0.774510
0.526620 0.650161 0.773254
0.648910 0.648910 0.772003
0.770757 0.647664 0.770757
0.892231 0.646422 0.769515
1.000000 0.645183 0.768276
0.024933 0.774150 0.774150
0.151441 0.772856 0.772856
0.276033 0.771582 0.771582
0.399589 0.770318 0.770318
0.522428 0.769062 0.769062
0.644718 0.767811 0.767811
0.766565 0.766565 0.766565
0.888038 0.765322 0.765322
1.000000 0.764083 0.764083
0.020754 0.892686 0.769970
0.147262 0.891392 0.768677
0.271854 0.890118 0.767402
0.395409 0.888855 0.766139
0.518248 0.887598 0.764882
0.640539 0.886347 0.763632
0.762385 0.885101 0.762385
0.883859 0.883859 0.761143
1.000000 0.882620 0.759904
0.016585 1.000000 0.765802
0.143094 1.000000 0.764508
0.267685 1.000000 0.763234
0.391241 1.000000 0.761970
0.514080 1.000000 0.760714
0.636371 1.000000 0.759463
0.758217 1.000000 0.758217
0.879691 1.000000 0.756975
1.000000 1.000000 0.755736
0.050027 0.050027 0.921960
0.176536 0.048733 0.920666
0.301127 0.047459 0.919392
0.424683 0.046195 0.918128
0.547522 0.044939 0.916872
0.669812 0.043688 0.915621
0.791659 0.042442 0.914375
0.913133 0.041200 0.913133
1.000000 0.039961 0.911894
0.045675 0.173477 0.917607
0.172183 0.172183 0.916313
0.296775 0.170909 0.915039
0.420330 0.169645 0.913776
0.543169 0.168389 0.912519
0.665460 0.167138 0.911269
0.787306 0.165892 0.910022
0.908780 0.164650 0.908780
1.000000 0.163411 0.907541
0.041388 0.295056 0.913321
0.167896 0.293762 0.912027
0.292488 0.292488 0.910753
0.416044 0.291224 0.909489
0.538883 0.289968 0.908233
0.661173 0.288717 0.906982
0.783020 0.287471 0.905736
0.904493 0.286229 0.904493
1.000000 0.284990 0.903254
0.037137 0.415624 0.909070
0.163645 0.414331 0.907776
0.288237 0.413056 0.906502
0.411793 0.411793 0.905238
0.534632 0.410536 0.903982
0.656922 0.409286 0.902731
0.778769 0.408039 0.901485
0.900242 0.406797 0.900242
1.000000 0.405558 0.899003
0.032911 0.535493 0.904843
0.159419 0.534200 0.903550
0.284011 0.532925 0.902275
0.407566 0.531662 0.901012
0.530405 0.530405 0.899755
0.652696 0.529155 0.898505
0.774543 0.527908 0.897258
0.896016 0.526666 0.896016
1.000000 0.525427 0.894777
0.028703 0.654827 0.900636
0.155212 0.653533 0.899342
0.279803 0.652259 0.898068
0.403359 0.650996 0.896804
0.526198 0.649739 0.895548
0.648488 0.648488 0.894297
0.770335 0.647242 0.893051
0.891809 0.646000 0.891809
1.000000 0.644761 0.890570
0.024511 0.773728 0.896444
0.151019 0.772434 0.895150
0.275611 0.771160 0.893876
0.399167 0.769896 0.892612
0.522006 0.768640 0.891356
0.644296 0.767389 0.890105
0.766143 0.766143 0.888859
0.887616 0.764901 0.887616
1.000000 0.763661 0.886377
0.020332 0.892264 0.892264
0.146840 0.890971 0.890971
0.271432 0.889696 0.889696
0.394987 0.888433 0.888433
0.517826 0.887176 0.887176
0.640117 0.885926 0.885926
0.761964 0.884679 0.884679
0.883437 0.883437 0.883437
1.000000 0.882198 0.882198
0.016163 1.000000 0.888096
0.142672 1.000000 0.886802
0.267263 1.000000 0.885528
0.390819 1.000000 0.884264
0.513658 1.000000 0.883008
0.635949 1.000000 0.881757
0.757795 1.000000 0.880511
0.879269 1.000000 0.879269
1.000000 1.000000 0.878030
0.049606 0.049606 1.000000
0.176115 0.048313 1.000000
0.300706 0.047038 1.000000
0.424262 0.045775 1.000000
0.547101 0.044518 1.000000
0.669392 0.043268 1.000000
0.791238 0.042021 1.000000
0.912712 0.040779 1.000000
1.000000 0.039540 1.000000
0.045254 0.173056 1.000000
0.171762 0.171762 1.000000
0.296354 0.170488 1.000000
0.419909 0.169224 1.000000
0.542748 0.167968 1.000000
0.665039 0.166717 1.000000
0.786886 0.165471 1.000000
0.908359 0.164229 1.000000
1.000000 0.162990 1.000000
0.040967 0.294635 1.000000
0.167476 0.293341 1.000000
0.292067 0.292067 1.000000
0.415623 0.290804 1.000000
0.538462 0.289547 1.000000
0.660752 0.288296 1.000000
0.782599 0.287050 1.000000
0.904073 0.285808 1.000000
1.000000 0.284569 1.000000
0.036716 0.415204 1.000000
0.163225 0.413910 1.000000
0.287816 0.412635 1.000000
0.411372 0.411372 1.000000
0.534211 0.410116 1.000000
0.656502 0.408865 1.000000
0.778348 0.407619 1.000000
0.899822 0.406376 1.000000
1.000000 0.405137 1.000000
0.032490 0.535073 1.000000
0.158998 0.533779 1.000000
0.283590 0.532504 1.000000
0.407145 0.531241 1.000000
0.529985 0.529985 1.000000
0.652275 0.528734 1.000000
0.774122 0.527488 1.000000
0.895595 0.526245 1.000000
1.000000 0.525006 1.000000
0.028282 0.654406 1.000000
0.154791 0.653113 1.000000
0.279382 0.651838 1.000000
0.402938 0.650575 1.000000
0.525777 0.649318 1.000000
0.648068 0.648068 1.000000
0.769914 0.646822 1.000000
0.891388 0.645579 1.000000
1.000000 0.644340 1.000000
0.024090 0.773307 1.000000
0.150599 0.772013 1.000000
0.275190 0.770739 1.000000
0.398746 0.769475 1.000000
0.521585 0.768219 1.000000
0.643876 0.766968 1.000000
0.765722 0.765722 1.000000
0.887196 0.764480 1.000000
1.000000 0.763241 1.000000
0.019911 0.891844 1.000000
0.146419 0.890550 1.000000
0.271011 0.889275 1.000000
0.394566 0.888012 1.000000
0.517406 0.886756 1.000000
0.639696 0.885505 1.000000
0.761543 0.884259 1.000000
0.883016 0.883016 1.000000
1.000000 0.881777 1.000000
0.015743 1.000000 1.000000
0.142251 1.000000 1.000000
0.266843 1.000000 1.000000
0.390398 1.000000 1.000000
0.513237 1.000000 1.000000
0.635528 1.000000 1.000000
0.757374 1.000000 1.000000
0.878848 1.000000 1.000000
1.000000 1.000000 1.000000
