assets/luts/generated_genre/bs_unit_test_cache_5c43c04cee53665c.cube
# V4 spec-generated LUT — bs_unit_test_cache
# Genre: n/a
# Look: 
# Spec hash: 5c43c04cee53665c
TITLE "V4 Spec LUT — bs_unit_test_cache"
LUT_3D_SIZE 17
DOMAIN_MIN 0.0 0.0 0.0
DOMAIN_MAX 1.0 1.0 1.0
0.053025 0.053025 0.053025
0.116635 0.052374 0.052374
0.179533 0.051731 0.051731
0.241990 0.051092 0.051092
0.304125 0.050457 0.050457
0.366007 0.049824 0.049824
0.427681 0.049193 0.049193
0.489177 0.048564 0.048564
0.550520 0.047937 0.047937
0.611726 0.047311 0.047311
0.672810 0.046686 0.046686
0.733784 0.046063 0.046063
0.794657 0.045440 0.045440
0.855437 0.044818 0.044818
0.916130 0.044198 0.044198
0.976744 0.043578 0.043578
1.000000 0.042959 0.042959
0.050836 0.115097 0.050836
0.114446 0.114446 0.050186
0.177345 0.113803 0.049543
0.239801 0.113164 0.048904
0.301936 0.112529 0.048268
0.363818 0.111896 0.047635
0.425492 0.111265 0.047005
0.486989 0.110636 0.046376
0.548331 0.110009 0.045748
0.609537 0.109383 0.045122
0.670622 0.108758 0.044498
0.731596 0.108135 0.043874
0.792468 0.107512 0.043252
0.853248 0.106890 0.042630
0.913942 0.106270 0.042009
0.974555 0.105650 0.041389
1.000000 0.105031 0.040770
0.048672 0.176475 0.048672
0.112282 0.175824 0.048022
0.175181 0.175181 0.047379
0.237637 0.174542 0.046740
0.299772 0.173907 0.046104
0.361654 0.173274 0.045471
0.423328 0.172643 0.044841
0.484825 0.172014 0.044212
0.546167 0.171387 0.043584
0.607373 0.170761 0.042958
0.668458 0.170136 0.042334
0.729431 0.169512 0.041710
0.790304 0.168890 0.041087
0.851084 0.168268 0.040466
0.911778 0.167647 0.039845
0.972391 0.167027 0.039225
1.000000 0.166408 0.038606
0.046524 0.237421 0.046524
0.110133 0.236771 0.045873
0.173032 0.236127 0.045230
0.235489 0.235489 0.044591
0.297624 0.234853 0.043955
0.359506 0.234220 0.043323
0.421179 0.233589 0.042692
0.482676 0.232960 0.042063
0.544018 0.232333 0.041435
0.605225 0.231707 0.040810
0.666309 0.231082 0.040185
0.727283 0.230459 0.039561
0.788155 0.229836 0.038939
0.848935 0.229215 0.038317
0.909629 0.228594 0.037696
0.970242 0.227974 0.037076
1.000000 0.227355 0.036457
0.044386 0.298054 0.044386
0.107996 0.297403 0.043735
0.170894 0.296760 0.043092
0.233351 0.296121 0.042453
0.295486 0.295486 0.041818
0.357368 0.294853 0.041185
0.419041 0.294222 0.040554
0.480538 0.293593 0.039925
0.541880 0.292966 0.039298
0.603087 0.292340 0.038672
0.664171 0.291715 0.038047
0.725145 0.291091 0.037423
0.786018 0.290469 0.036801
0.846797 0.289847 0.036179
0.907491 0.289227 0.035558
0.968105 0.288607 0.034939
1.000000 0.287987 0.034319
0.042257 0.358440 0.042257
0.105867 0.357789 0.041606
0.168765 0.357146 0.040963
0.231222 0.356507 0.040324
0.293357 0.355872 0.039689
0.355239 0.355239 0.039056
0.416912 0.354608 0.038425
0.478409 0.353979 0.037796
0.539751 0.353352 0.037169
0.600958 0.352726 0.036543
0.662042 0.352101 0.035918
0.723016 0.351477 0.035294
0.783889 0.350855 0.034672
0.844668 0.350233 0.034050
0.905362 0.349612 0.033429
0.965976 0.348992 0.032809
1.000000 0.348373 0.032190
0.040135 0.418622 0.040135
0.103745 0.417972 0.039484
0.166643 0.417328 0.038841
0.229100 0.416690 0.038202
0.291235 0.416054 0.037567
0.353117 0.415421 0.036934
0.414790 0.414790 0.036303
0.476287 0.414161 0.035674
0.537629 0.413534 0.035047
0.598836 0.412908 0.034421
0.659920 0.412283 0.033796
0.720894 0.411660 0.033172
0.781767 0.411037 0.032550
0.842546 0.410416 0.031928
0.903240 0.409795 0.031307
0.963854 0.409175 0.030688
1.000000 0.408556 0.030068
0.038019 0.478632 0.038019
0.101629 0.477981 0.037368
0.164527 0.477338 0.036725
0.226984 0.476699 0.036086
0.289119 0.476064 0.035451
0.351001 0.475431 0.034818
0.412675 0.474800 0.034187
0.474171 0.474171 0.033558
0.535514 0.473544 0.032931
0.596720 0.472918 0.032305
0.657804 0.472293 0.031680
0.718778 0.471669 0.031057
0.779651 0.471047 0.030434
0.840431 0.470425 0.029812
0.901124 0.469804 0.029192
0.961738 0.469185 0.028572
1.000000 0.468565 0.027953
0.035908 0.538491 0.035908
0.099518 0.537841 0.035258
0.162417 0.537197 0.034615
0.224873 0.536559 0.033976
0.287008 0.535923 0.033340
0.348890 0.535290 0.032707
0.410564 0.534659 0.032077
0.472061 0.534030 0.031448
0.533403 0.533403 0.030820
0.594609 0.532777 0.030194
0.655694 0.532152 0.029570
0.716668 0.531529 0.028946
0.777540 0.530906 0.028324
0.838320 0.530285 0.027702
0.899014 0.529664 0.027081
0.959627 0.529044 0.026461
1.000000 0.528425 0.025842
0.033803 0.598218 0.033803
0.097413 0.597567 0.033152
0.160311 0.596924 0.032509
0.222768 0.596285 0.031870
0.284903 0.595650 0.031235
0.346785 0.595017 0.030602
0.408458 0.594386 0.029971
0.469955 0.593757 0.029342
0.531297 0.593130 0.028715
0.592504 0.592504 0.028089
0.653588 0.591879 0.027464
0.714562 0.591255 0.026840
0.775434 0.590633 0.026218
0.836214 0.590011 0.025596
0.896908 0.589390 0.024975
0.957522 0.588770 0.024355
1.000000 0.588151 0.023736
0.031701 0.657825 0.031701
0.095311 0.657174 0.031050
0.158209 0.656531 0.030407
0.220666 0.655892 0.029768
0.282801 0.655257 0.029133
0.344683 0.654624 0.028500
0.406357 0.653993 0.027869
0.467853 0.653364 0.027240
0.529196 0.652737 0.026613
0.590402 0.652111 0.025987
0.651486 0.651486 0.025362
0.712460 0.650863 0.024739
0.773333 0.650240 0.024116
0.834113 0.649619 0.023494
0.894806 0.648998 0.022874
0.955420 0.648378 0.022254
1.000000 0.647759 0.021635
0.029603 0.717325 0.029603
0.093213 0.716674 0.028953
0.156112 0.716031 0.028309
0.218568 0.715392 0.027671
0.280703 0.714757 0.027035
0.342585 0.714124 0.026402
0.404259 0.713493 0.025771
0.465755 0.712864 0.025142
0.527098 0.712237 0.024515
0.588304 0.711611 0.023889
0.649388 0.710986 0.023264
0.710362 0.710362 0.022641
0.771235 0.709740 0.022018
0.832015 0.709118 0.021397
0.892709 0.708497 0.020776
0.953322 0.707877 0.020156
1.000000 0.707258 0.019537
0.027509 0.776726 0.027509
0.091119 0.776075 0.026858
0.154017 0.775432 0.026215
0.216474 0.774793 0.025576
0.278609 0.774158 0.024941
0.340491 0.773525 0.024308
0.402164 0.772894 0.023677
0.463661 0.772265 0.023048
0.525003 0.771638 0.022421
0.586210 0.771012 0.021795
0.647294 0.770387 0.021170
0.708268 0.769763 0.020546
0.769141 0.769141 0.019924
0.829920 0.768519 0.019302
0.890614 0.767898 0.018682
0.951228 0.767278 0.018062
1.000000 0.766659 0.017442
0.025418 0.836036 0.025418
0.089028 0.835385 0.024767
0.151926 0.834742 0.024124
0.214383 0.834103 0.023485
0.276518 0.833468 0.022850
0.338400 0.832835 0.022217
0.400073 0.832204 0.021586
0.461570 0.831575 0.020957
0.522912 0.830948 0.020330
0.584119 0.830322 0.019704
0.645203 0.829697 0.019079
0.706177 0.829074 0.018455
0.767050 0.828451 0.017833
0.827829 0.827829 0.017211
0.888523 0.827209 0.016590
0.949137 0.826589 0.015970
1.000000 0.825970 0.015351
0.023329 0.895262 0.023329
0.086939 0.894612 0.022679
0.149838 0.893968 0.022036
0.212294 0.893330 0.021397
0.274429 0.892694 0.020761
0.336311 0.892061 0.020128
0.397985 0.891430 0.019498
0.459482 0.890801 0.018869
0.520824 0.890174 0.018241
0.582030 0.889548 0.017615
0.643115 0.888923 0.016991
0.704089 0.888300 0.016367
0.764961 0.887677 0.015745
0.825741 0.887056 0.015123
0.886435 0.886435 0.014502
0.947048 0.885815 0.013882
1.000000 0.885196 0.013263
0.021244 0.954410 0.021244
0.084854 0.953760 0.020593
0.147752 0.953116 0.019950
0.210209 0.952478 0.019311
0.272344 0.951842 0.018676
0.334226 0.951209 0.018043
0.395900 0.950578 0.017412
0.457396 0.949949 0.016783
0.518739 0.949322 0.016156
0.579945 0.948696 0.015530
0.641029 0.948071 0.014905
0.702003 0.947448 0.014282
0.762876 0.946825 0.013659
0.823656 0.946204 0.013037
0.884349 0.945583 0.012417
0.944963 0.944963 0.011797
1.000000 0.944344 0.011178
0.019161 1.000000 0.019161
0.082771 1.000000 0.018511
0.145670 1.000000 0.017867
0.208126 1.000000 0.017229
0.270261 1.000000 0.016593
0.332143 1.000000 0.015960
0.393817 1.000000 0.015329
0.455313 1.000000 0.014700
0.516656 1.000000 0.014073
0.577862 1.000000 0.013447
0.638946 1.000000 0.012822
0.699920 1.000000 0.012199
0.760793 1.000000 0.011576
0.821573 1.000000 0.010955
0.882267 1.000000 0.010334
0.942880 1.000000 0.009714
1.000000 1.000000 0.009095
0.052804 0.052804 0.117065
0.116414 0.052153 0.116414
0.179312 0.051510 0.115771
0.241769 0.050871 0.115132
0.303904 0.050236 0.114496
0.365786 0.049603 0.113864
0.427460 0.048972 0.113233
0.488956 0.048343 0.112604
0.550299 0.047716 0.111976
0.611505 0.047090 0.111350
0.672589 0.046465 0.110726
0.733563 0.045842 0.110102
0.794436 0.045219 0.109480
0.855216 0.044597 0.108858
0.915909 0.043977 0.108237
0.976523 0.043357 0.107617
1.000000 0.042738 0.106998
0.050616 0.114876 0.114876
0.114225 0.114225 0.114225
0.177124 0.113582 0.113582
0.239581 0.112943 0.112943
0.301715 0.112308 0.112308
0.363597 0.111675 0.111675
0.425271 0.111044 0.111044
0.486768 0.110415 0.110415
0.548110 0.109788 0.109788
0.609317 0.109162 0.109162
0.670401 0.108537 0.108537
0.731375 0.107914 0.107914
0.792247 0.107291 0.107291
0.853027 0.106669 0.106669
0.913721 0.106049 0.106049
0.974334 0.105429 0.105429
1.000000 0.104810 0.104810
0.048451 0.176254 0.112712
0.112061 0.175603 0.112061
0.174960 0.174960 0.111418
0.237416 0.174321 0.110779
0.299551 0.173686 0.110144
0.361433 0.173053 0.109511
0.423107 0.172422 0.108880
0.484604 0.171793 0.108251
0.545946 0.171166 0.107624
0.607152 0.170540 0.106998
0.668237 0.169915 0.106373
0.729211 0.169291 0.105750
0.790083 0.168669 0.105127
0.850863 0.168047 0.104505
0.911557 0.167426 0.103885
0.972170 0.166807 0.103265
1.000000 0.166187 0.102646
0.046303 0.237200 0.110563
0.109913 0.236550 0.109913
0.172811 0.235906 0.109269
0.235268 0.235268 0.108630
0.297403 0.234632 0.107995
0.359285 0.233999 0.107362
0.420958 0.233369 0.106731
0.482455 0.232740 0.106102
0.543797 0.232112 0.105475
0.605004 0.231486 0.104849
0.666088 0.230861 0.104224
0.727062 0.230238 0.103601
0.787934 0.229615 0.102978
0.848714 0.228994 0.102357
0.909408 0.228373 0.101736
0.970022 0.227753 0.101116
1.000000 0.227134 0.100497
0.044165 0.297833 0.108425
0.107775 0.297182 0.107775
0.170673 0.296539 0.107131
0.233130 0.295900 0.106493
0.295265 0.295265 0.105857
0.357147 0.294632 0.105224
0.418820 0.294001 0.104594
0.480317 0.293372 0.103965
0.541659 0.292745 0.103337
0.602866 0.292119 0.102711
0.663950 0.291494 0.102087
0.724924 0.290871 0.101463
0.785797 0.290248 0.100840
0.846577 0.289626 0.100219
0.907270 0.289006 0.099598
0.967884 0.288386 0.098978
1.000000 0.287767 0.098359
0.042036 0.358219 0.106296
0.105646 0.357568 0.105646
0.168544 0.356925 0.105002
0.231001 0.356286 0.104364
0.293136 0.355651 0.103728
0.355018 0.355018 0.103095
0.416691 0.354387 0.102464
0.478188 0.353758 0.101836
0.539530 0.353131 0.101208
0.600737 0.352505 0.100582
0.661821 0.351880 0.099957
0.722795 0.351256 0.099334
0.783668 0.350634 0.098711
0.844447 0.350012 0.098090
0.905141 0.349391 0.097469
0.965755 0.348772 0.096849
1.000000 0.348152 0.096230
0.039914 0.418401 0.104174
0.103524 0.417751 0.103524
0.166422 0.417107 0.102880
0.228879 0.416469 0.102242
0.291014 0.415833 0.101606
0.352896 0.415200 0.100973
0.414569 0.414569 0.100343
0.476066 0.413941 0.099714
0.537408 0.413313 0.099086
0.598615 0.412687 0.098460
0.659699 0.412062 0.097836
0.720673 0.411439 0.097212
0.781546 0.410816 0.096589
0.842326 0.410195 0.095968
0.903019 0.409574 0.095347
0.963633 0.408954 0.094727
1.000000 0.408335 0.094108
0.037798 0.478411 0.102059
0.101408 0.477760 0.101408
0.164306 0.477117 0.100765
0.226763 0.476478 0.100126
0.288898 0.475843 0.099490
0.350780 0.475210 0.098858
0.412454 0.474579 0.098227
0.473950 0.473950 0.097598
0.535293 0.473323 0.096970
0.596499 0.472697 0.096344
0.657583 0.472072 0.095720
0.718557 0.471448 0.095096
0.779430 0.470826 0.094474
0.840210 0.470204 0.093852
0.900903 0.469584 0.093231
0.961517 0.468964 0.092611
1.000000 0.468344 0.091992
0.035688 0.538270 0.099948
0.099297 0.537620 0.099297
0.162196 0.536976 0.098654
0.224653 0.536338 0.098015
0.286787 0.535702 0.097380
0.348669 0.535069 0.096747
0.410343 0.534438 0.096116
0.471840 0.533810 0.095487
0.533182 0.533182 0.094860
0.594389 0.532556 0.094234
0.655473 0.531931 0.093609
0.716447 0.531308 0.092986
0.777319 0.530685 0.092363
0.838099 0.530064 0.091741
0.898793 0.529443 0.091121
0.959406 0.528823 0.090501
1.000000 0.528204 0.089882
0.033582 0.597997 0.097842
0.097192 0.597346 0.097192
0.160090 0.596703 0.096548
0.222547 0.596064 0.095910
0.284682 0.595429 0.095274
0.346564 0.594796 0.094641
0.408237 0.594165 0.094010
0.469734 0.593536 0.093381
0.531076 0.592909 0.092754
0.592283 0.592283 0.092128
0.653367 0.591658 0.091503
0.714341 0.591034 0.090880
0.775214 0.590412 0.090257
0.835993 0.589790 0.089636
0.896687 0.589169 0.089015
0.957301 0.588550 0.088395
1.000000 0.587930 0.087776
0.031480 0.657604 0.095741
0.095090 0.656954 0.095090
0.157988 0.656310 0.094447
0.220445 0.655672 0.093808
0.282580 0.655036 0.093172
0.344462 0.654403 0.092540
0.406136 0.653772 0.091909
0.467632 0.653143 0.091280
0.528975 0.652516 0.090652
0.590181 0.651890 0.090026
0.651265 0.651265 0.089402
0.712239 0.650642 0.088778
0.773112 0.650019 0.088156
0.833892 0.649398 0.087534
0.894585 0.648777 0.086913
0.955199 0.648157 0.086293
1.000000 0.647538 0.085674
0.029382 0.717104 0.093643
0.092992 0.716453 0.092992
0.155891 0.715810 0.092349
0.218347 0.715171 0.091710
0.280482 0.714536 0.091075
0.342364 0.713903 0.090442
0.404038 0.713272 0.089811
0.465534 0.712643 0.089182
0.526877 0.712016 0.088555
0.588083 0.711390 0.087929
0.649168 0.710765 0.087304
0.710141 0.710141 0.086680
0.771014 0.709519 0.086058
0.831794 0.708897 0.085436
0.892488 0.708276 0.084815
0.953101 0.707656 0.084195
1.000000 0.707037 0.083576
0.027288 0.776505 0.091548
0.090898 0.775854 0.090898
0.153796 0.775211 0.090254
0.216253 0.774572 0.089616
0.278388 0.773937 0.088980
0.340270 0.773304 0.088347
0.401943 0.772673 0.087717
0.463440 0.772044 0.087088
0.524783 0.771417 0.086460
0.585989 0.770791 0.085834
0.647073 0.770166 0.085210
0.708047 0.769542 0.084586
0.768920 0.768920 0.083963
0.829700 0.768298 0.083342
0.890393 0.767677 0.082721
0.951007 0.767057 0.082101
1.000000 0.766438 0.081482
0.025197 0.835815 0.089457
0.088807 0.835164 0.088807
0.151705 0.834521 0.088163
0.214162 0.833882 0.087525
0.276297 0.833247 0.086889
0.338179 0.832614 0.086256
0.399852 0.831983 0.085625
0.461349 0.831354 0.084996
0.522691 0.830727 0.084369
0.583898 0.830101 0.083743
0.644982 0.829476 0.083118
0.705956 0.828853 0.082495
0.766829 0.828230 0.081872
0.827608 0.827608 0.081251
0.888302 0.826988 0.080630
0.948916 0.826368 0.080010
1.000000 0.825749 0.079391
0.023108 0.895041 0.087369
0.086718 0.894391 0.086718
0.149617 0.893747 0.086075
0.212074 0.893109 0.085436
0.274208 0.892473 0.084801
0.336090 0.891840 0.084168
0.397764 0.891209 0.083537
0.459261 0.890581 0.082908
0.520603 0.889953 0.082281
0.581809 0.889327 0.081655
0.642894 0.888702 0.081030
0.703868 0.888079 0.080407
0.764740 0.887456 0.079784
0.825520 0.886835 0.079162
0.886214 0.886214 0.078542
0.946827 0.885594 0.077922
1.000000 0.884975 0.077303
0.021023 0.954189 0.085284
0.084633 0.953539 0.084633
0.147531 0.952895 0.083990
0.209988 0.952257 0.083351
0.272123 0.951621 0.082715
0.334005 0.950988 0.082083
0.395679 0.950357 0.081452
0.457175 0.949729 0.080823
0.518518 0.949101 0.080195
0.579724 0.948475 0.079570
0.640808 0.947850 0.078945
0.701782 0.947227 0.078321
0.762655 0.946604 0.077699
0.823435 0.945983 0.077077
0.884128 0.945362 0.076456
0.944742 0.944742 0.075836
1.000000 0.944123 0.075217
0.018940 1.000000 0.083201
0.082550 1.000000 0.082550
0.145449 1.000000 0.081907
0.207905 1.000000 0.081268
0.270040 1.000000 0.080633
0.331922 1.000000 0.080000
0.393596 1.000000 0.079369
0.455092 1.000000 0.078740
0.516435 1.000000 0.078113
0.577641 1.000000 0.077487
0.638726 1.000000 0.076862
0.699699 1.000000 0.076238
0.760572 1.000000 0.075616
0.821352 1.000000 0.074994
0.882046 1.000000 0.074373
0.942659 1.000000 0.073753
1.000000 1.000000 0.073134
0.052586 0.052586 0.180388
0.116195 0.051935 0.179737
0.179094 0.051292 0.179094
0.241551 0.050653 0.178455
0.303686 0.050017 0.177820
0.365568 0.049385 0.177187
0.427241 0.048754 0.176556
0.488738 0.048125 0.175927
0.550080 0.047498 0.175300
0.611287 0.046872 0.174674
0.672371 0.046247 0.174049
0.733345 0.045623 0.173425
0.794217 0.045001 0.172803
0.854997 0.044379 0.172181
0.915691 0.043758 0.171561
0.976305 0.043138 0.170941
1.000000 0.042519 0.170322
0.050397 0.114658 0.178199
0.114007 0.114007 0.177549
0.176905 0.113364 0.176905
0.239362 0.112725 0.176267
0.301497 0.112089 0.175631
0.363379 0.111457 0.174998
0.425053 0.110826 0.174368
0.486549 0.110197 0.173739
0.547892 0.109569 0.173111
0.609098 0.108944 0.172485
0.670182 0.108319 0.171861
0.731156 0.107695 0.171237
0.792029 0.107073 0.170614
0.852809 0.106451 0.169993
0.913502 0.105830 0.169372
0.974116 0.105210 0.168752
1.000000 0.104591 0.168133
0.048233 0.176035 0.176035
0.111843 0.175385 0.175385
0.174741 0.174741 0.174741
0.237198 0.174103 0.174103
0.299333 0.173467 0.173467
0.361215 0.172834 0.172834
0.422889 0.172204 0.172204
0.484385 0.171575 0.171575
0.545728 0.170947 0.170947
0.606934 0.170321 0.170321
0.668018 0.169697 0.169697
0.728992 0.169073 0.169073
0.789865 0.168450 0.168450
0.850645 0.167829 0.167829
0.911338 0.167208 0.167208
0.971952 0.166588 0.166588
1.000000 0.165969 0.165969
0.046084 0.236982 0.173886
0.109694 0.236331 0.173236
0.172593 0.235688 0.172593
0.235049 0.235049 0.171954
0.297184 0.234414 0.171318
0.359066 0.233781 0.170685
0.420740 0.233150 0.170055
0.482236 0.232521 0.169426
0.543579 0.231894 0.168798
0.604785 0.231268 0.168172
0.665869 0.230643 0.167548
0.726843 0.230019 0.166924
0.787716 0.229397 0.166301
0.848496 0.228775 0.165680
0.909190 0.228155 0.165059
0.969803 0.227535 0.164439
1.000000 0.226915 0.163820
0.043946 0.297614 0.171749
0.107556 0.296964 0.171098
0.170455 0.296321 0.170455
0.232911 0.295682 0.169816
0.295046 0.295046 0.169181
0.356928 0.294413 0.168548
0.418602 0.293783 0.167917
0.480099 0.293154 0.167288
0.541441 0.292526 0.166661
0.602647 0.291900 0.166035
0.663732 0.291276 0.165410
0.724705 0.290652 0.164786
0.785578 0.290029 0.164164
0.846358 0.289408 0.163542
0.907052 0.288787 0.162921
0.967665 0.288167 0.162301
1.000000 0.287548 0.161682
0.041817 0.358000 0.169620
0.105427 0.357350 0.168969
0.168326 0.356706 0.168326
0.230782 0.356068 0.167687
0.292917 0.355432 0.167051
0.354799 0.354799 0.166419
0.416473 0.354169 0.165788
0.477969 0.353540 0.165159
0.539312 0.352912 0.164532
0.600518 0.352286 0.163906
0.661603 0.351661 0.163281
0.722576 0.351038 0.162657
0.783449 0.350415 0.162035
0.844229 0.349794 0.161413
0.904923 0.349173 0.160792
0.965536 0.348553 0.160172
1.000000 0.347934 0.159553
0.039695 0.418183 0.167498
0.103305 0.417532 0.166847
0.166204 0.416889 0.166204
0.228660 0.416250 0.165565
0.290795 0.415615 0.164930
0.352677 0.414982 0.164297
0.414351 0.414351 0.163666
0.475848 0.413722 0.163037
0.537190 0.413095 0.162410
0.598396 0.412469 0.161784
0.659481 0.411844 0.161159
0.720454 0.411220 0.160535
0.781327 0.410598 0.159913
0.842107 0.409976 0.159291
0.902801 0.409355 0.158670
0.963414 0.408736 0.158050
1.000000 0.408116 0.157431
0.037580 0.478192 0.165382
0.101189 0.477542 0.164731
0.164088 0.476899 0.164088
0.226545 0.476260 0.163449
0.288680 0.475624 0.162814
0.350562 0.474991 0.162181
0.412235 0.474361 0.161550
0.473732 0.473732 0.160921
0.535074 0.473104 0.160294
0.596281 0.472478 0.159668
0.657365 0.471854 0.159043
0.718339 0.471230 0.158419
0.779211 0.470607 0.157797
0.839991 0.469986 0.157175
0.900685 0.469365 0.156555
0.961299 0.468745 0.155935
1.000000 0.468126 0.155315
0.035469 0.538052 0.163271
0.099079 0.537401 0.162621
0.161977 0.536758 0.161977
0.224434 0.536119 0.161339
0.286569 0.535484 0.160703
0.348451 0.534851 0.160070
0.410125 0.534220 0.159440
0.471621 0.533591 0.158811
0.532964 0.532964 0.158183
0.594170 0.532338 0.157557
0.655254 0.531713 0.156933
0.716228 0.531089 0.156309
0.777101 0.530467 0.155686
0.837881 0.529845 0.155065
0.898574 0.529224 0.154444
0.959188 0.528605 0.153824
1.000000 0.527985 0.153205
0.033363 0.597778 0.161165
0.096973 0.597128 0.160515
0.159872 0.596484 0.159872
0.222328 0.595846 0.159233
0.284463 0.595210 0.158597
0.346345 0.594577 0.157965
0.408019 0.593947 0.157334
0.469515 0.593318 0.156705
0.530858 0.592690 0.156077
0.592064 0.592064 0.155451
0.653149 0.591439 0.154827
0.714122 0.590816 0.154203
0.774995 0.590193 0.153581
0.835775 0.589572 0.152959
0.896469 0.588951 0.152338
0.957082 0.588331 0.151718
1.000000 0.587712 0.151099
0.031262 0.657386 0.159064
0.094872 0.656735 0.158413
0.157770 0.656092 0.157770
0.220227 0.655453 0.157131
0.282362 0.654818 0.156496
0.344244 0.654185 0.155863
0.405917 0.653554 0.155232
0.467414 0.652925 0.154603
0.528756 0.652298 0.153976
0.589963 0.651672 0.153350
0.651047 0.651047 0.152725
0.712021 0.650423 0.152101
0.772893 0.649801 0.151479
0.833673 0.649179 0.150857
0.894367 0.648558 0.150237
0.954981 0.647938 0.149617
1.000000 0.647319 0.148998
0.029164 0.716885 0.156966
0.092774 0.716235 0.156315
0.155672 0.715591 0.155672
0.218129 0.714953 0.155033
0.280264 0.714317 0.154398
0.342146 0.713684 0.153765
0.403819 0.713053 0.153134
0.465316 0.712425 0.152505
0.526658 0.711797 0.151878
0.587865 0.711171 0.151252
0.648949 0.710546 0.150627
0.709923 0.709923 0.150004
0.770796 0.709300 0.149381
0.831575 0.708679 0.148759
0.892269 0.708058 0.148139
0.952883 0.707438 0.147519
1.000000 0.706819 0.146900
0.027069 0.776286 0.154872
0.090679 0.775636 0.154221
0.153578 0.774992 0.153578
0.216034 0.774354 0.152939
0.278169 0.773718 0.152304
0.340051 0.773085 0.151671
0.401725 0.772454 0.151040
0.463222 0.771826 0.150411
0.524564 0.771198 0.149784
0.585770 0.770572 0.149158
0.646855 0.769947 0.148533
0.707828 0.769324 0.147909
0.768701 0.768701 0.147287
0.829481 0.768080 0.146665
0.890175 0.767459 0.146044
0.950788 0.766839 0.145424
1.000000 0.766220 0.144805
0.024978 0.835596 0.152781
0.088588 0.834946 0.152130
0.151487 0.834303 0.151487
0.213943 0.833664 0.150848
0.276078 0.833028 0.150212
0.337960 0.832396 0.149580
0.399634 0.831765 0.148949
0.461130 0.831136 0.148320
0.522473 0.830508 0.147692
0.583679 0.829882 0.147066
0.644764 0.829258 0.146442
0.705737 0.828634 0.145818
0.766610 0.828012 0.145196
0.827390 0.827390 0.144574
0.888084 0.826769 0.143953
0.948697 0.826149 0.143333
1.000000 0.825530 0.142714
0.022890 0.894823 0.150692
0.086500 0.894172 0.150042
0.149398 0.893529 0.149398
0.211855 0.892890 0.148760
0.273990 0.892255 0.148124
0.335872 0.891622 0.147491
0.397546 0.890991 0.146861
0.459042 0.890362 0.146232
0.520385 0.889735 0.145604
0.581591 0.889109 0.144978
0.642675 0.888484 0.144354
0.703649 0.887860 0.143730
0.764522 0.887238 0.143107
0.825302 0.886616 0.142486
0.885995 0.885995 0.141865
0.946609 0.885376 0.141245
1.000000 0.884756 0.140626
0.020805 0.953971 0.148607
0.084415 0.953320 0.147956
0.147313 0.952677 0.147313
0.209770 0.952038 0.146674
0.271905 0.951403 0.146039
0.333787 0.950770 0.145406
0.395460 0.950139 0.144775
0.456957 0.949510 0.144146
0.518299 0.948883 0.143519
0.579506 0.948257 0.142893
0.640590 0.947632 0.142268
0.701564 0.947008 0.141645
0.762436 0.946386 0.141022
0.823216 0.945764 0.140400
0.883910 0.945143 0.139780
0.944524 0.944524 0.139160
1.000000 0.943904 0.138541
0.018722 1.000000 0.146524
0.082332 1.000000 0.145873
0.145230 1.000000 0.145230
0.207687 1.000000 0.144591
0.269822 1.000000 0.143956
0.331704 1.000000 0.143323
0.393377 1.000000 0.142692
0.454874 1.000000 0.142063
0.516216 1.000000 0.141436
0.577423 1.000000 0.140810
0.638507 1.000000 0.140185
0.699481 1.000000 0.139562
0.760354 1.000000 0.138939
0.821133 1.000000 0.138317
0.881827 1.000000 0.137697
0.942441 1.000000 0.137077
1.000000 1.000000 0.136458
0.052369 0.052369 0.243266
0.115979 0.051718 0.242616
0.178877 0.051075 0.241972
0.241334 0.050436 0.241334
0.303469 0.049801 0.240698
0.365351 0.049168 0.240065
0.427024 0.048537 0.239435
0.488521 0.047908 0.238806
0.549863 0.047281 0.238178
0.611070 0.046655 0.237552
0.672154 0.046030 0.236928
0.733128 0.045406 0.236304
0.794001 0.044784 0.235681
0.854780 0.044162 0.235060
