assets/luts/generated_genre/bs_unit_test_bw_579b405dc4353556.cube
# V4 spec-generated LUT — bs_unit_test_bw
# Genre: n/a
# Look: 
# Spec hash: 579b405dc4353556
TITLE "V4 Spec LUT — bs_unit_test_bw"
LUT_3D_SIZE 5
DOMAIN_MIN 0.0 0.0 0.0
DOMAIN_MAX 1.0 1.0 1.0
0.000001 0.000001 0.000001
0.053151 0.053151 0.053151
0.106301 0.106301 0.106301
0.159451 0.159451 0.159451
0.212601 0.212601 0.212601
0.178800 0.178800 0.178800
0.231950 0.231950 0.231950
0.285100 0.285100 0.285100
0.338250 0.338250 0.338250
0.391400 0.391400 0.391400
0.357600 0.357600 0.357600
0.410750 0.410750 0.410750
0.463900 0.463900 0.463900
0.517050 0.517050 0.517050
0.570200 0.570200 0.570200
0.536400 0.536400 0.536400
0.589550 0.589550 0.589550
0.642700 0.642700 0.642700
0.695850 0.695850 0.695850
0.749000 0.749000 0.749000
0.715200 0.715200 0.715200
0.768350 0.768350 0.768350
0.821500 0.821500 0.821500
0.874650 0.874650 0.874650
0.927800 0.927800 0.927800
0.018051 0.018051 0.018051
0.071201 0.071201 0.071201
0.124351 0.124351 0.124351
0.177501 0.177501 0.177501
0.230651 0.230651 0.230651
0.196850 0.196850 0.196850
0.250000 0.250000 0.250000
0.303150 0.303150 0.303150
0.356300 0.356300 0.356300
0.409450 0.409450 0.409450
0.375650 0.375650 0.375650
0.428800 0.428800 0.428800
0.481950 0.481950 0.481950
0.535100 0.535100 0.535100
0.588250 0.588250 0.588250
0.554450 0.554450 0.554450
0.607600 0.607600 0.607600
0.660750 0.660750 0.660750
0.713900 0.713900 0.713900
0.767050 0.767050 0.767050
0.733250 0.733250 0.733250
0.786400 0.786400 0.786400
0.839550 0.839550 0.839550
0.892700 0.892700 0.892700
0.945850 0.945850 0.945850
0.036101 0.036101 0.036101
0.089251 0.089251 0.089251
0.142401 0.142401 0.142401
0.195551 0.195551 0.195551
0.248701 0.248701 0.248701
0.214900 0.214900 0.214900
0.268050 0.268050 0.268050
0.321200 0.321200 0.321200
0.374350 0.374350 0.374350
0.427500 0.427500 0.427500
0.393700 0.393700 0.393700
0.446850 0.446850 0.446850
0.500000 0.500000 0.500000
0.553150 0.553150 0.553150
0.606300 0.606300 0.606300
0.572500 0.572500 0.572500
0.625650 0.625650 0.625650
0.678800 0.678800 0.678800
0.731950 0.731950 0.731950
0.785100 0.785100 0.785100
0.751300 0.751300 0.751300
0.804450 0.804450 0.804450
0.857600 0.857600 0.857600
0.910750 0.910750 0.910750
0.963900 0.963900 0.963900
0.054151 0.054151 0.054151
0.107301 0.107301 0.107301
0.160451 0.160451 0.160451
0.213601 0.213601 0.213601
0.266751 0.266751 0.266751
0.232950 0.232950 0.232950
0.286100 0.286100 0.286100
0.339250 0.339250 0.339250
0.392400 0.392400 0.392400
0.445550 0.445550 0.445550
0.411750 0.411750 0.411750
0.464900 0.464900 0.464900
0.518050 0.518050 0.518050
0.571200 0.571200 0.571200
0.624350 0.624350 0.624350
0.590550 0.590550 0.590550
0.643700 0.643700 0.643700
0.696850 0.696850 0.696850
0.750000 0.750000 0.750000
0.803150 0.803150 0.803150
0.769350 0.769350 0.769350
0.822500 0.822500 0.822500
0.875650 0.875650 0.875650
0.928800 0.928800 0.928800
0.981950 0.981950 0.981950
0.072201 0.072201 0.072201
0.125351 0.125351 0.125351
0.178501 0.178501 0.178501
0.231651 0.231651 0.231651
0.284801 0.284801 0.284801
0.251000 0.251000 0.251000
0.304150 0.304150 0.304150
0.357300 0.357300 0.357300
0.410450 0.410450 0.410450
0.463600 0.463600 0.463600
0.429800 0.429800 0.429800
0.482950 0.482950 0.482950
0.536100 0.536100 0.536100
0.589250 0.589250 0.589250
0.642400 0.642400 0.642400
0.608600 0.608600 0.608600
0.661750 0.661750 0.661750
0.714900 0.714900 0.714900
0.768050 0.768050 0.768050
0.821200 0.821200 0.821200
0.787400 0.787400 0.787400
0.840550 0.840550 0.840550
0.893700 0.893700 0.893700
0.946850 0.946850 0.946850
1.000000 1.000000 1.000000
