assets/luts/generated_genre/bs_unit_test_cache_5c43c04cee53665c.cube
# V4 spec-generated LUT — bs_unit_test_cache
# Genre: n/a
# Look: 
# Spec hash: 5c43c04cee53665c
TITLE "V4 Spec LUT — bs_unit_test_cache"
LUT_3D_SIZE 5
DOMAIN_MIN 0.0 0.0 0.0
DOMAIN_MAX 1.0 1.0 1.0
0.053025 0.053025 0.053025
0.304125 0.050457 0.050457
0.550520 0.047937 0.047937
0.794657 0.045440 0.045440
1.000000 0.042959 0.042959
0.044386 0.298054 0.044386
0.295486 0.295486 0.041818
0.541880 0.292966 0.039298
0.786018 0.290469 0.036801
1.000000 0.287987 0.034319
0.035908 0.538491 0.035908
0.287008 0.535923 0.033340
0.533403 0.533403 0.030820
0.777540 0.530906 0.028324
1.000000 0.528425 0.025842
0.027509 0.776726 0.027509
0.278609 0.774158 0.024941
0.525003 0.771638 0.022421
0.769141 0.769141 0.019924
1.000000 0.766659 0.017442
0.019161 1.000000 0.019161
0.270261 1.000000 0.016593
0.516656 1.000000 0.014073
0.760793 1.000000 0.011576
1.000000 1.000000 0.009095
0.052153 0.052153 0.305821
0.303253 0.049585 0.303253
0.549647 0.047065 0.300733
0.793785 0.044568 0.298236
1.000000 0.042086 0.295755
0.043514 0.297182 0.297182
0.294614 0.294614 0.294614
0.541008 0.292094 0.292094
0.785146 0.289597 0.289597
1.000000 0.287115 0.287115
0.035036 0.537619 0.288704
0.286136 0.535051 0.286136
0.532531 0.532531 0.283616
0.776668 0.530034 0.281119
1.000000 0.527553 0.278638
0.026637 0.775853 0.280305
0.277737 0.773285 0.277737
0.524131 0.770765 0.275217
0.768269 0.768269 0.272720
1.000000 0.765787 0.270238
0.018289 1.000000 0.271957
0.269389 1.000000 0.269389
0.515784 1.000000 0.266869
0.759921 1.000000 0.264372
1.000000 1.000000 0.261891
0.051297 0.051297 0.553880
0.302397 0.048729 0.551312
0.548792 0.046209 0.548792
0.792929 0.043712 0.546295
1.000000 0.041231 0.543813
0.042658 0.296326 0.545241
0.293758 0.293758 0.542672
0.540152 0.291238 0.540152
0.784290 0.288741 0.537656
1.000000 0.286260 0.535174
0.034181 0.536763 0.536763
0.285280 0.534195 0.534195
0.531675 0.531675 0.531675
0.775812 0.529178 0.529178
1.000000 0.526697 0.526697
0.025781 0.774998 0.528364
0.276881 0.772430 0.525795
0.523276 0.769910 0.523276
0.767413 0.767413 0.520779
1.000000 0.764931 0.518297
0.017433 1.000000 0.520016
0.268533 1.000000 0.517448
0.514928 1.000000 0.514928
0.759065 1.000000 0.512431
1.000000 1.000000 0.509950
0.050449 0.050449 0.799666
0.301549 0.047881 0.797098
0.547944 0.045361 0.794578
0.792081 0.042864 0.792081
1.000000 0.040383 0.789600
0.041810 0.295478 0.791027
0.292910 0.292910 0.788459
0.539305 0.290390 0.785939
0.783442 0.287893 0.783442
1.000000 0.285412 0.780960
0.033333 0.535915 0.782549
0.284433 0.533347 0.779981
0.530827 0.530827 0.777461
0.774964 0.528330 0.774964
1.000000 0.525849 0.772483
0.024933 0.774150 0.774150
0.276033 0.771582 0.771582
0.522428 0.769062 0.769062
0.766565 0.766565 0.766565
1.000000 0.764083 0.764083
0.016585 1.000000 0.765802
0.267685 1.000000 0.763234
0.514080 1.000000 0.760714
0.758217 1.000000 0.758217
1.000000 1.000000 0.755736
0.049606 0.049606 1.000000
0.300706 0.047038 1.000000
0.547101 0.044518 1.000000
0.791238 0.042021 1.000000
1.000000 0.039540 1.000000
0.040967 0.294635 1.000000
0.292067 0.292067 1.000000
0.538462 0.289547 1.000000
0.782599 0.287050 1.000000
1.000000 0.284569 1.000000
0.032490 0.535073 1.000000
0.283590 0.532504 1.000000
0.529985 0.529985 1.000000
0.774122 0.527488 1.000000
1.000000 0.525006 1.000000
0.024090 0.773307 1.000000
0.275190 0.770739 1.000000
0.521585 0.768219 1.000000
0.765722 0.765722 1.000000
1.000000 0.763241 1.000000
0.015743 1.000000 1.000000
0.266843 1.000000 1.000000
0.513237 1.000000 1.000000
0.757374 1.000000 1.000000
1.000000 1.000000 1.000000
