assets/luts/generated_genre/bs_unit_test_bw_579b405dc4353556.cube
# V4 spec-generated LUT — bs_unit_test_bw
# Genre: n/a
# Look: 
# Spec hash: 579b405dc4353556
TITLE "V4 Spec LUT — bs_unit_test_bw"
LUT_3D_SIZE 17
DOMAIN_MIN 0.0 0.0 0.0
DOMAIN_MAX 1.0 1.0 1.0
0.000001 0.000001 0.000001
0.013288 0.013288 0.013288
0.026576 0.026576 0.026576
0.039863 0.039863 0.039863
0.053151 0.053151 0.053151
0.066438 0.066438 0.066438
0.079726 0.079726 0.079726
0.093013 0.093013 0.093013
0.106301 0.106301 0.106301
0.119588 0.119588 0.119588
0.132876 0.132876 0.132876
0.146163 0.146163 0.146163
0.159451 0.159451 0.159451
0.172738 0.172738 0.172738
0.186026 0.186026 0.186026
0.199313 0.199313 0.199313
0.212601 0.212601 0.212601
0.044700 0.044700 0.044700
0.057988 0.057988 0.057988
0.071275 0.071275 0.071275
0.084563 0.084563 0.084563
0.097850 0.097850 0.097850
0.111138 0.111138 0.111138
0.124425 0.124425 0.124425
0.137713 0.137713 0.137713
0.151000 0.151000 0.151000
0.164288 0.164288 0.164288
0.177575 0.177575 0.177575
0.190863 0.190863 0.190863
0.204150 0.204150 0.204150
0.217438 0.217438 0.217438
0.230725 0.230725 0.230725
0.244013 0.244013 0.244013
0.257300 0.257300 0.257300
0.089400 0.089400 0.089400
0.102688 0.102688 0.102688
0.115975 0.115975 0.115975
0.129263 0.129263 0.129263
0.142550 0.142550 0.142550
0.155838 0.155838 0.155838
0.169125 0.169125 0.169125
0.182413 0.182413 0.182413
0.195700 0.195700 0.195700
0.208988 0.208988 0.208988
0.222275 0.222275 0.222275
0.235563 0.235563 0.235563
0.248850 0.248850 0.248850
0.262138 0.262138 0.262138
0.275425 0.275425 0.275425
0.288713 0.288713 0.288713
0.302000 0.302000 0.302000
0.134100 0.134100 0.134100
0.147388 0.147388 0.147388
0.160675 0.160675 0.160675
0.173963 0.173963 0.173963
0.187250 0.187250 0.187250
0.200538 0.200538 0.200538
0.213825 0.213825 0.213825
0.227113 0.227113 0.227113
0.240400 0.240400 0.240400
0.253688 0.253688 0.253688
0.266975 0.266975 0.266975
0.280263 0.280263 0.280263
0.293550 0.293550 0.293550
0.306838 0.306838 0.306838
0.320125 0.320125 0.320125
0.333413 0.333413 0.333413
0.346700 0.346700 0.346700
0.178800 0.178800 0.178800
0.192088 0.192088 0.192088
0.205375 0.205375 0.205375
0.218663 0.218663 0.218663
0.231950 0.231950 0.231950
0.245238 0.245238 0.245238
0.258525 0.258525 0.258525
0.271813 0.271813 0.271813
0.285100 0.285100 0.285100
0.298388 0.298388 0.298388
0.311675 0.311675 0.311675
0.324963 0.324963 0.324963
0.338250 0.338250 0.338250
0.351538 0.351538 0.351538
0.364825 0.364825 0.364825
0.378113 0.378113 0.378113
0.391400 0.391400 0.391400
0.223500 0.223500 0.223500
0.236788 0.236788 0.236788
0.250075 0.250075 0.250075
0.263363 0.263363 0.263363
0.276650 0.276650 0.276650
0.289938 0.289938 0.289938
0.303225 0.303225 0.303225
0.316513 0.316513 0.316513
0.329800 0.329800 0.329800
0.343088 0.343088 0.343088
0.356375 0.356375 0.356375
0.369663 0.369663 0.369663
0.382950 0.382950 0.382950
0.396238 0.396238 0.396238
0.409525 0.409525 0.409525
0.422813 0.422813 0.422813
0.436100 0.436100 0.436100
0.268200 0.268200 0.268200
0.281488 0.281488 0.281488
0.294775 0.294775 0.294775
0.308063 0.308063 0.308063
0.321350 0.321350 0.321350
0.334638 0.334638 0.334638
0.347925 0.347925 0.347925
0.361213 0.361213 0.361213
0.374500 0.374500 0.374500
0.387788 0.387788 0.387788
0.401075 0.401075 0.401075
0.414363 0.414363 0.414363
0.427650 0.427650 0.427650
0.440938 0.440938 0.440938
0.454225 0.454225 0.454225
0.467513 0.467513 0.467513
0.480800 0.480800 0.480800
0.312900 0.312900 0.312900
0.326188 0.326188 0.326188
0.339475 0.339475 0.339475
0.352763 0.352763 0.352763
0.366050 0.366050 0.366050
0.379338 0.379338 0.379338
0.392625 0.392625 0.392625
0.405913 0.405913 0.405913
0.419200 0.419200 0.419200
0.432488 0.432488 0.432488
0.445775 0.445775 0.445775
0.459063 0.459063 0.459063
0.472350 0.472350 0.472350
0.485638 0.485638 0.485638
0.498925 0.498925 0.498925
0.512213 0.512213 0.512213
0.525500 0.525500 0.525500
0.357600 0.357600 0.357600
0.370888 0.370888 0.370888
0.384175 0.384175 0.384175
0.397463 0.397463 0.397463
0.410750 0.410750 0.410750
0.424038 0.424038 0.424038
0.437325 0.437325 0.437325
0.450613 0.450613 0.450613
0.463900 0.463900 0.463900
0.477188 0.477188 0.477188
0.490475 0.490475 0.490475
0.503763 0.503763 0.503763
0.517050 0.517050 0.517050
0.530338 0.530338 0.530338
0.543625 0.543625 0.543625
0.556913 0.556913 0.556913
0.570200 0.570200 0.570200
0.402300 0.402300 0.402300
0.415588 0.415588 0.415588
0.428875 0.428875 0.428875
0.442163 0.442163 0.442163
0.455450 0.455450 0.455450
0.468738 0.468738 0.468738
0.482025 0.482025 0.482025
0.495313 0.495313 0.495313
0.508600 0.508600 0.508600
0.521888 0.521888 0.521888
0.535175 0.535175 0.535175
0.548463 0.548463 0.548463
0.561750 0.561750 0.561750
0.575038 0.575038 0.575038
0.588325 0.588325 0.588325
0.601613 0.601613 0.601613
0.614900 0.614900 0.614900
0.447000 0.447000 0.447000
0.460288 0.460288 0.460288
0.473575 0.473575 0.473575
0.486863 0.486863 0.486863
0.500150 0.500150 0.500150
0.513438 0.513438 0.513438
0.526725 0.526725 0.526725
0.540013 0.540013 0.540013
0.553300 0.553300 0.553300
0.566588 0.566588 0.566588
0.579875 0.579875 0.579875
0.593163 0.593163 0.593163
0.606450 0.606450 0.606450
0.619738 0.619738 0.619738
0.633025 0.633025 0.633025
0.646313 0.646313 0.646313
0.659600 0.659600 0.659600
0.491700 0.491700 0.491700
0.504988 0.504988 0.504988
0.518275 0.518275 0.518275
0.531563 0.531563 0.531563
0.544850 0.544850 0.544850
0.558138 0.558138 0.558138
0.571425 0.571425 0.571425
0.584713 0.584713 0.584713
0.598000 0.598000 0.598000
0.611288 0.611288 0.611288
0.624575 0.624575 0.624575
0.637863 0.637863 0.637863
0.651150 0.651150 0.651150
0.664438 0.664438 0.664438
0.677725 0.677725 0.677725
0.691013 0.691013 0.691013
0.704300 0.704300 0.704300
0.536400 0.536400 0.536400
0.549688 0.549688 0.549688
0.562975 0.562975 0.562975
0.576263 0.576263 0.576263
0.589550 0.589550 0.589550
0.602838 0.602838 0.602838
0.616125 0.616125 0.616125
0.629413 0.629413 0.629413
0.642700 0.642700 0.642700
0.655988 0.655988 0.655988
0.669275 0.669275 0.669275
0.682563 0.682563 0.682563
0.695850 0.695850 0.695850
0.709138 0.709138 0.709138
0.722425 0.722425 0.722425
0.735713 0.735713 0.735713
0.749000 0.749000 0.749000
0.581100 0.581100 0.581100
0.594388 0.594388 0.594388
0.607675 0.607675 0.607675
0.620963 0.620963 0.620963
0.634250 0.634250 0.634250
0.647538 0.647538 0.647538
0.660825 0.660825 0.660825
0.674113 0.674113 0.674113
0.687400 0.687400 0.687400
0.700688 0.700688 0.700688
0.713975 0.713975 0.713975
0.727263 0.727263 0.727263
0.740550 0.740550 0.740550
0.753838 0.753838 0.753838
0.767125 0.767125 0.767125
0.780413 0.780413 0.780413
0.793700 0.793700 0.793700
0.625800 0.625800 0.625800
0.639088 0.639088 0.639088
0.652375 0.652375 0.652375
0.665663 0.665663 0.665663
0.678950 0.678950 0.678950
0.692238 0.692238 0.692238
0.705525 0.705525 0.705525
0.718813 0.718813 0.718813
0.732100 0.732100 0.732100
0.745388 0.745388 0.745388
0.758675 0.758675 0.758675
0.771963 0.771963 0.771963
0.785250 0.785250 0.785250
0.798538 0.798538 0.798538
0.811825 0.811825 0.811825
0.825113 0.825113 0.825113
0.838400 0.838400 0.838400
0.670500 0.670500 0.670500
0.683788 0.683788 0.683788
0.697075 0.697075 0.697075
0.710363 0.710363 0.710363
0.723650 0.723650 0.723650
0.736938 0.736938 0.736938
0.750225 0.750225 0.750225
0.763513 0.763513 0.763513
0.776800 0.776800 0.776800
0.790088 0.790088 0.790088
0.803375 0.803375 0.803375
0.816663 0.816663 0.816663
0.829950 0.829950 0.829950
0.843238 0.843238 0.843238
0.856525 0.856525 0.856525
0.869813 0.869813 0.869813
0.883100 0.883100 0.883100
0.715200 0.715200 0.715200
0.728488 0.728488 0.728488
0.741775 0.741775 0.741775
0.755063 0.755063 0.755063
0.768350 0.768350 0.768350
0.781638 0.781638 0.781638
0.794925 0.794925 0.794925
0.808213 0.808213 0.808213
0.821500 0.821500 0.821500
0.834788 0.834788 0.834788
0.848075 0.848075 0.848075
0.861363 0.861363 0.861363
0.874650 0.874650 0.874650
0.887938 0.887938 0.887938
0.901225 0.901225 0.901225
0.914513 0.914513 0.914513
0.927800 0.927800 0.927800
0.004513 0.004513 0.004513
0.017801 0.017801 0.017801
0.031088 0.031088 0.031088
0.044376 0.044376 0.044376
0.057663 0.057663 0.057663
0.070951 0.070951 0.070951
0.084238 0.084238 0.084238
0.097526 0.097526 0.097526
0.110813 0.110813 0.110813
0.124101 0.124101 0.124101
0.137388 0.137388 0.137388
0.150676 0.150676 0.150676
0.163963 0.163963 0.163963
0.177251 0.177251 0.177251
0.190538 0.190538 0.190538
0.203826 0.203826 0.203826
0.217113 0.217113 0.217113
0.049213 0.049213 0.049213
0.062500 0.062500 0.062500
0.075788 0.075788 0.075788
0.089075 0.089075 0.089075
0.102362 0.102362 0.102362
0.115650 0.115650 0.115650
0.128938 0.128938 0.128938
0.142225 0.142225 0.142225
0.155512 0.155512 0.155512
0.168800 0.168800 0.168800
0.182088 0.182088 0.182088
0.195375 0.195375 0.195375
0.208663 0.208663 0.208663
0.221950 0.221950 0.221950
0.235237 0.235237 0.235237
0.248525 0.248525 0.248525
0.261813 0.261813 0.261813
0.093913 0.093913 0.093913
0.107200 0.107200 0.107200
0.120487 0.120487 0.120487
0.133775 0.133775 0.133775
0.147063 0.147063 0.147063
0.160350 0.160350 0.160350
0.173638 0.173638 0.173638
0.186925 0.186925 0.186925
0.200212 0.200212 0.200212
0.213500 0.213500 0.213500
0.226788 0.226788 0.226788
0.240075 0.240075 0.240075
0.253362 0.253362 0.253362
0.266650 0.266650 0.266650
0.279937 0.279937 0.279937
0.293225 0.293225 0.293225
0.306512 0.306512 0.306512
0.138613 0.138613 0.138613
0.151900 0.151900 0.151900
0.165188 0.165188 0.165188
0.178475 0.178475 0.178475
0.191763 0.191763 0.191763
0.205050 0.205050 0.205050
0.218337 0.218337 0.218337
0.231625 0.231625 0.231625
0.244913 0.244913 0.244913
0.258200 0.258200 0.258200
0.271487 0.271487 0.271487
0.284775 0.284775 0.284775
0.298062 0.298062 0.298062
0.311350 0.311350 0.311350
0.324637 0.324637 0.324637
0.337925 0.337925 0.337925
0.351212 0.351212 0.351212
0.183313 0.183313 0.183313
0.196600 0.196600 0.196600
0.209887 0.209887 0.209887
0.223175 0.223175 0.223175
0.236462 0.236462 0.236462
0.249750 0.249750 0.249750
0.263037 0.263037 0.263037
0.276325 0.276325 0.276325
0.289612 0.289612 0.289612
0.302900 0.302900 0.302900
0.316188 0.316188 0.316188
0.329475 0.329475 0.329475
0.342762 0.342762 0.342762
0.356050 0.356050 0.356050
0.369337 0.369337 0.369337
0.382625 0.382625 0.382625
0.395912 0.395912 0.395912
0.228013 0.228013 0.228013
0.241300 0.241300 0.241300
0.254587 0.254587 0.254587
0.267875 0.267875 0.267875
0.281162 0.281162 0.281162
0.294450 0.294450 0.294450
0.307737 0.307737 0.307737
0.321025 0.321025 0.321025
0.334312 0.334312 0.334312
0.347600 0.347600 0.347600
0.360887 0.360887 0.360887
0.374175 0.374175 0.374175
0.387462 0.387462 0.387462
0.400750 0.400750 0.400750
0.414037 0.414037 0.414037
0.427325 0.427325 0.427325
0.440612 0.440612 0.440612
0.272713 0.272713 0.272713
0.286000 0.286000 0.286000
0.299287 0.299287 0.299287
0.312575 0.312575 0.312575
0.325862 0.325862 0.325862
0.339150 0.339150 0.339150
0.352437 0.352437 0.352437
0.365725 0.365725 0.365725
0.379012 0.379012 0.379012
0.392300 0.392300 0.392300
0.405587 0.405587 0.405587
0.418875 0.418875 0.418875
0.432162 0.432162 0.432162
0.445450 0.445450 0.445450
0.458737 0.458737 0.458737
0.472025 0.472025 0.472025
0.485312 0.485312 0.485312
0.317413 0.317413 0.317413
0.330700 0.330700 0.330700
0.343987 0.343987 0.343987
0.357275 0.357275 0.357275
0.370562 0.370562 0.370562
0.383850 0.383850 0.383850
0.397137 0.397137 0.397137
0.410425 0.410425 0.410425
0.423712 0.423712 0.423712
0.437000 0.437000 0.437000
0.450287 0.450287 0.450287
0.463575 0.463575 0.463575
0.476862 0.476862 0.476862
0.490150 0.490150 0.490150
0.503437 0.503437 0.503437
0.516725 0.516725 0.516725
0.530012 0.530012 0.530012
0.362113 0.362113 0.362113
0.375400 0.375400 0.375400
0.388687 0.388687 0.388687
0.401975 0.401975 0.401975
0.415262 0.415262 0.415262
0.428550 0.428550 0.428550
0.441837 0.441837 0.441837
0.455125 0.455125 0.455125
0.468412 0.468412 0.468412
0.481700 0.481700 0.481700
0.494987 0.494987 0.494987
0.508275 0.508275 0.508275
0.521563 0.521563 0.521563
0.534850 0.534850 0.534850
0.548138 0.548138 0.548138
0.561425 0.561425 0.561425
0.574713 0.574713 0.574713
0.406813 0.406813 0.406813
0.420100 0.420100 0.420100
0.433387 0.433387 0.433387
0.446675 0.446675 0.446675
0.459962 0.459962 0.459962
0.473250 0.473250 0.473250
0.486537 0.486537 0.486537
0.499825 0.499825 0.499825
0.513112 0.513112 0.513112
0.526400 0.526400 0.526400
0.539687 0.539687 0.539687
0.552975 0.552975 0.552975
0.566263 0.566263 0.566263
0.579550 0.579550 0.579550
0.592838 0.592838 0.592838
0.606125 0.606125 0.606125
0.619413 0.619413 0.619413
0.451513 0.451513 0.451513
0.464800 0.464800 0.464800
0.478087 0.478087 0.478087
0.491375 0.491375 0.491375
0.504663 0.504663 0.504663
0.517950 0.517950 0.517950
0.531238 0.531238 0.531238
0.544525 0.544525 0.544525
0.557812 0.557812 0.557812
0.571100 0.571100 0.571100
0.584387 0.584387 0.584387
0.597675 0.597675 0.597675
0.610962 0.610962 0.610962
0.624250 0.624250 0.624250
0.637537 0.637537 0.637537
0.650825 0.650825 0.650825
0.664112 0.664112 0.664112
0.496213 0.496213 0.496213
0.509500 0.509500 0.509500
0.522787 0.522787 0.522787
0.536075 0.536075 0.536075
0.549362 0.549362 0.549362
0.562650 0.562650 0.562650
0.575937 0.575937 0.575937
0.589225 0.589225 0.589225
0.602513 0.602513 0.602513
0.615800 0.615800 0.615800
0.629088 0.629088 0.629088
0.642375 0.642375 0.642375
0.655663 0.655663 0.655663
0.668950 0.668950 0.668950
0.682237 0.682237 0.682237
0.695525 0.695525 0.695525
0.708812 0.708812 0.708812
0.540913 0.540913 0.540913
0.554200 0.554200 0.554200
0.567488 0.567488 0.567488
0.580775 0.580775 0.580775
0.594063 0.594063 0.594063
0.607350 0.607350 0.607350
0.620638 0.620638 0.620638
0.633925 0.633925 0.633925
0.647213 0.647213 0.647213
0.660500 0.660500 0.660500
0.673788 0.673788 0.673788
0.687075 0.687075 0.687075
0.700362 0.700362 0.700362
0.713650 0.713650 0.713650
0.726938 0.726938 0.726938
0.740225 0.740225 0.740225
0.753513 0.753513 0.753513
0.585613 0.585613 0.585613
0.598900 0.598900 0.598900
0.612187 0.612187 0.612187
0.625475 0.625475 0.625475
0.638763 0.638763 0.638763
0.652050 0.652050 0.652050
0.665338 0.665338 0.665338
0.678625 0.678625 0.678625
0.691913 0.691913 0.691913
0.705200 0.705200 0.705200
0.718488 0.718488 0.718488
0.731775 0.731775 0.731775
0.745062 0.745062 0.745062
0.758350 0.758350 0.758350
0.771637 0.771637 0.771637
0.784925 0.784925 0.784925
0.798212 0.798212 0.798212
0.630313 0.630313 0.630313
0.643600 0.643600 0.643600
0.656887 0.656887 0.656887
0.670175 0.670175 0.670175
0.683462 0.683462 0.683462
0.696750 0.696750 0.696750
0.710037 0.710037 0.710037
0.723325 0.723325 0.723325
0.736613 0.736613 0.736613
0.749900 0.749900 0.749900
0.763188 0.763188 0.763188
0.776475 0.776475 0.776475
0.789762 0.789762 0.789762
0.803050 0.803050 0.803050
0.816337 0.816337 0.816337
0.829625 0.829625 0.829625
0.842912 0.842912 0.842912
0.675013 0.675013 0.675013
0.688300 0.688300 0.688300
0.701588 0.701588 0.701588
0.714875 0.714875 0.714875
0.728163 0.728163 0.728163
0.741450 0.741450 0.741450
0.754738 0.754738 0.754738
0.768025 0.768025 0.768025
0.781312 0.781312 0.781312
0.794600 0.794600 0.794600
0.807887 0.807887 0.807887
0.821175 0.821175 0.821175
0.834462 0.834462 0.834462
0.847750 0.847750 0.847750
0.861038 0.861038 0.861038
0.874325 0.874325 0.874325
0.887613 0.887613 0.887613
0.719713 0.719713 0.719713
0.733000 0.733000 0.733000
0.746287 0.746287 0.746287
0.759575 0.759575 0.759575
0.772863 0.772863 0.772863
0.786150 0.786150 0.786150
0.799438 0.799438 0.799438
0.812725 0.812725 0.812725
0.826012 0.826012 0.826012
0.839300 0.839300 0.839300
0.852587 0.852587 0.852587
0.865875 0.865875 0.865875
0.879162 0.879162 0.879162
0.892450 0.892450 0.892450
0.905737 0.905737 0.905737
0.919025 0.919025 0.919025
0.932312 0.932312 0.932312
0.009026 0.009026 0.009026
0.022313 0.022313 0.022313
0.035601 0.035601 0.035601
0.048888 0.048888 0.048888
0.062176 0.062176 0.062176
0.075463 0.075463 0.075463
0.088751 0.088751 0.088751
0.102038 0.102038 0.102038
0.115326 0.115326 0.115326
0.128613 0.128613 0.128613
0.141901 0.141901 0.141901
0.155188 0.155188 0.155188
0.168476 0.168476 0.168476
0.181763 0.181763 0.181763
0.195051 0.195051 0.195051
0.208338 0.208338 0.208338
0.221626 0.221626 0.221626
0.053725 0.053725 0.053725
0.067013 0.067013 0.067013
0.080300 0.080300 0.080300
0.093588 0.093588 0.093588
0.106875 0.106875 0.106875
0.120163 0.120163 0.120163
0.133450 0.133450 0.133450
0.146737 0.146737 0.146737
0.160025 0.160025 0.160025
0.173313 0.173313 0.173313
0.186600 0.186600 0.186600
0.199887 0.199887 0.199887
0.213175 0.213175 0.213175
0.226463 0.226463 0.226463
0.239750 0.239750 0.239750
0.253037 0.253037 0.253037
0.266325 0.266325 0.266325
0.098425 0.098425 0.098425
0.111712 0.111712 0.111712
0.125000 0.125000 0.125000
0.138288 0.138288 0.138288
0.151575 0.151575 0.151575
0.164863 0.164863 0.164863
0.178150 0.178150 0.178150
0.191437 0.191437 0.191437
0.204725 0.204725 0.204725
0.218012 0.218012 0.218012
0.231300 0.231300 0.231300
0.244588 0.244588 0.244588
0.257875 0.257875 0.257875
0.271163 0.271163 0.271163
0.284450 0.284450 0.284450
0.297737 0.297737 0.297737
0.311025 0.311025 0.311025
0.143125 0.143125 0.143125
0.156413 0.156413 0.156413
0.169700 0.169700 0.169700
0.182987 0.182987 0.182987
0.196275 0.196275 0.196275
0.209563 0.209563 0.209563
0.222850 0.222850 0.222850
0.236138 0.236138 0.236138
0.249425 0.249425 0.249425
0.262713 0.262713 0.262713
0.276000 0.276000 0.276000
0.289287 0.289287 0.289287
0.302575 0.302575 0.302575
0.315862 0.315862 0.315862
0.329150 0.329150 0.329150
0.342438 0.342438 0.342438
0.355725 0.355725 0.355725
0.187825 0.187825 0.187825
0.201112 0.201112 0.201112
0.214400 0.214400 0.214400
0.227687 0.227687 0.227687
0.240975 0.240975 0.240975
0.254263 0.254263 0.254263
0.267550 0.267550 0.267550
0.280838 0.280838 0.280838
0.294125 0.294125 0.294125
0.307413 0.307413 0.307413
0.320700 0.320700 0.320700
0.333987 0.333987 0.333987
0.347275 0.347275 0.347275
0.360563 0.360563 0.360563
0.373850 0.373850 0.373850
0.387137 0.387137 0.387137
0.400425 0.400425 0.400425
0.232525 0.232525 0.232525
0.245812 0.245812 0.245812
0.259100 0.259100 0.259100
0.272388 0.272388 0.272388
0.285675 0.285675 0.285675
0.298962 0.298962 0.298962
0.312250 0.312250 0.312250
0.325537 0.325537 0.325537
0.338825 0.338825 0.338825
0.352112 0.352112 0.352112
0.365400 0.365400 0.365400
0.378688 0.378688 0.378688
0.391975 0.391975 0.391975
0.405263 0.405263 0.405263
0.418550 0.418550 0.418550
0.431837 0.431837 0.431837
0.445125 0.445125 0.445125
0.277225 0.277225 0.277225
0.290513 0.290513 0.290513
0.303800 0.303800 0.303800
0.317088 0.317088 0.317088
0.330375 0.330375 0.330375
0.343663 0.343663 0.343663
0.356950 0.356950 0.356950
0.370237 0.370237 0.370237
0.383525 0.383525 0.383525
0.396813 0.396813 0.396813
0.410100 0.410100 0.410100
0.423387 0.423387 0.423387
0.436675 0.436675 0.436675
0.449962 0.449962 0.449962
0.463250 0.463250 0.463250
0.476538 0.476538 0.476538
0.489825 0.489825 0.489825
0.321925 0.321925 0.321925
0.335212 0.335212 0.335212
0.348500 0.348500 0.348500
0.361787 0.361787 0.361787
0.375075 0.375075 0.375075
0.388362 0.388362 0.388362
0.401650 0.401650 0.401650
0.414937 0.414937 0.414937
0.428225 0.428225 0.428225
0.441512 0.441512 0.441512
0.454800 0.454800 0.454800
0.468087 0.468087 0.468087
0.481375 0.481375 0.481375
0.494662 0.494662 0.494662
0.507950 0.507950 0.507950
0.521237 0.521237 0.521237
0.534525 0.534525 0.534525
0.366625 0.366625 0.366625
0.379912 0.379912 0.379912
0.393200 0.393200 0.393200
0.406488 0.406488 0.406488
0.419775 0.419775 0.419775
0.433062 0.433062 0.433062
0.446350 0.446350 0.446350
0.459637 0.459637 0.459637
0.472925 0.472925 0.472925
0.486212 0.486212 0.486212
0.499500 0.499500 0.499500
0.512787 0.512787 0.512787
0.526075 0.526075 0.526075
0.539362 0.539362 0.539362
0.552650 0.552650 0.552650
0.565937 0.565937 0.565937
0.579225 0.579225 0.579225
0.411325 0.411325 0.411325
0.424613 0.424613 0.424613
0.437900 0.437900 0.437900
0.451188 0.451188 0.451188
0.464475 0.464475 0.464475
0.477763 0.477763 0.477763
0.491050 0.491050 0.491050
0.504337 0.504337 0.504337
0.517625 0.517625 0.517625
0.530913 0.530913 0.530913
0.544200 0.544200 0.544200
0.557487 0.557487 0.557487
0.570775 0.570775 0.570775
0.584062 0.584062 0.584062
0.597350 0.597350 0.597350
0.610637 0.610637 0.610637
0.623925 0.623925 0.623925
0.456025 0.456025 0.456025
0.469312 0.469312 0.469312
0.482600 0.482600 0.482600
0.495887 0.495887 0.495887
0.509175 0.509175 0.509175
0.522462 0.522462 0.522462
0.535750 0.535750 0.535750
0.549037 0.549037 0.549037
0.562325 0.562325 0.562325
0.575612 0.575612 0.575612
0.588900 0.588900 0.588900
0.602187 0.602187 0.602187
0.615475 0.615475 0.615475
0.628762 0.628762 0.628762
0.642050 0.642050 0.642050
0.655337 0.655337 0.655337
0.668625 0.668625 0.668625
0.500725 0.500725 0.500725
0.514012 0.514012 0.514012
0.527300 0.527300 0.527300
0.540587 0.540587 0.540587
0.553875 0.553875 0.553875
0.567162 0.567162 0.567162
0.580450 0.580450 0.580450
0.593737 0.593737 0.593737
0.607025 0.607025 0.607025
0.620312 0.620312 0.620312
0.633600 0.633600 0.633600
0.646887 0.646887 0.646887
0.660175 0.660175 0.660175
0.673462 0.673462 0.673462
0.686750 0.686750 0.686750
0.700037 0.700037 0.700037
0.713325 0.713325 0.713325
0.545425 0.545425 0.545425
0.558712 0.558712 0.558712
0.572000 0.572000 0.572000
0.585287 0.585287 0.585287
0.598575 0.598575 0.598575
0.611862 0.611862 0.611862
0.625150 0.625150 0.625150
0.638437 0.638437 0.638437
0.651725 0.651725 0.651725
0.665012 0.665012 0.665012
0.678300 0.678300 0.678300
0.691587 0.691587 0.691587
0.704875 0.704875 0.704875
0.718162 0.718162 0.718162
0.731450 0.731450 0.731450
0.744737 0.744737 0.744737
0.758025 0.758025 0.758025
0.590125 0.590125 0.590125
0.603412 0.603412 0.603412
0.616700 0.616700 0.616700
0.629987 0.629987 0.629987
0.643275 0.643275 0.643275
0.656562 0.656562 0.656562
0.669850 0.669850 0.669850
0.683137 0.683137 0.683137
0.696425 0.696425 0.696425
0.709712 0.709712 0.709712
0.723000 0.723000 0.723000
0.736287 0.736287 0.736287
0.749575 0.749575 0.749575
0.762862 0.762862 0.762862
0.776150 0.776150 0.776150
0.789437 0.789437 0.789437
0.802725 0.802725 0.802725
0.634825 0.634825 0.634825
0.648112 0.648112 0.648112
0.661400 0.661400 0.661400
0.674687 0.674687 0.674687
0.687975 0.687975 0.687975
0.701262 0.701262 0.701262
0.714550 0.714550 0.714550
0.727837 0.727837 0.727837
0.741125 0.741125 0.741125
0.754412 0.754412 0.754412
0.767700 0.767700 0.767700
0.780987 0.780987 0.780987
0.794275 0.794275 0.794275
0.807562 0.807562 0.807562
0.820850 0.820850 0.820850
0.834137 0.834137 0.834137
0.847425 0.847425 0.847425
0.679525 0.679525 0.679525
0.692812 0.692812 0.692812
0.706100 0.706100 0.706100
0.719387 0.719387 0.719387
0.732675 0.732675 0.732675
0.745962 0.745962 0.745962
0.759250 0.759250 0.759250
0.772537 0.772537 0.772537
0.785825 0.785825 0.785825
0.799113 0.799113 0.799113
0.812400 0.812400 0.812400
0.825687 0.825687 0.825687
0.838975 0.838975 0.838975
0.852262 0.852262 0.852262
0.865550 0.865550 0.865550
0.878837 0.878837 0.878837
0.892125 0.892125 0.892125
0.724225 0.724225 0.724225
0.737512 0.737512 0.737512
0.750800 0.750800 0.750800
0.764087 0.764087 0.764087
0.777375 0.777375 0.777375
0.790662 0.790662 0.790662
0.803950 0.803950 0.803950
0.817237 0.817237 0.817237
0.830525 0.830525 0.830525
0.843812 0.843812 0.843812
0.857100 0.857100 0.857100
0.870387 0.870387 0.870387
0.883675 0.883675 0.883675
0.896962 0.896962 0.896962
0.910250 0.910250 0.910250
0.923537 0.923537 0.923537
0.936825 0.936825 0.936825
0.013538 0.013538 0.013538
0.026826 0.026826 0.026826
0.040113 0.040113 0.040113
0.053401 0.053401 0.053401
0.066688 0.066688 0.066688
0.079976 0.079976 0.079976
0.093263 0.093263 0.093263
0.106551 0.106551 0.106551
0.119838 0.119838 0.119838
0.133126 0.133126 0.133126
0.146413 0.146413 0.146413
0.159701 0.159701 0.159701
0.172988 0.172988 0.172988
0.186276 0.186276 0.186276
