assets/luts/generated/gen_f785c6f5cb3c97c1.cube
# Generated V4 LUT for unit-test-dark
# Palette: (32,0,96) (96,0,32) (0,32,96)
# Strength: 0.100
TITLE "V4 Generative LUT — unit-test-dark"
LUT_3D_SIZE 17
DOMAIN_MIN 0.0 0.0 0.0
DOMAIN_MAX 1.0 1.0 1.0
0.017091 0.003835 0.029270
0.075550 0.003308 0.027588
0.134807 0.002675 0.025214
0.194745 0.001980 0.022221
0.254781 0.001317 0.019098
0.313944 0.000827 0.016676
0.371538 0.000606 0.015551
0.427652 0.000638 0.015657
0.482854 0.000830 0.016512
0.537689 0.001096 0.017661
0.592484 0.001380 0.018833
0.647384 0.001655 0.019908
0.702436 0.001911 0.020849
0.757643 0.002144 0.021659
0.812988 0.002357 0.022351
0.868452 0.002551 0.022943
0.924016 0.002729 0.023451
0.016404 0.060537 0.029505
0.074857 0.059977 0.027863
0.134102 0.059291 0.025553
0.194002 0.058537 0.022657
0.253982 0.057820 0.019644
0.313124 0.057288 0.017284
0.370775 0.057038 0.016133
0.427002 0.057049 0.016146
0.482326 0.057229 0.016891
0.537264 0.057489 0.017943
0.592134 0.057771 0.019042
0.647086 0.058047 0.020064
0.702174 0.058304 0.020968
0.757404 0.058540 0.021752
0.812765 0.058755 0.022426
0.868239 0.058951 0.023005
0.923809 0.059131 0.023505
0.015677 0.117248 0.029770
0.073998 0.116692 0.028256
0.133026 0.116005 0.026165
0.192603 0.115251 0.023592
0.252228 0.114538 0.020930
0.311161 0.113997 0.018788
0.368870 0.113711 0.017615
0.425357 0.113669 0.017420
0.481003 0.113797 0.017896
0.536229 0.114013 0.018704
0.591323 0.114263 0.019610
0.646439 0.114516 0.020491
0.701644 0.114758 0.021294
0.756956 0.114984 0.022006
0.812376 0.115192 0.022629
0.867892 0.115383 0.023171
0.923492 0.115560 0.023644
0.015002 0.173923 0.030021
0.073106 0.173404 0.028686
0.131794 0.172761 0.026891
0.190904 0.172058 0.024735
0.250039 0.171391 0.022516
0.308664 0.170866 0.020666
0.366382 0.170552 0.019512
0.423142 0.170447 0.019108
0.479169 0.170500 0.019278
0.534763 0.170649 0.019785
0.590160 0.170845 0.020441
0.645509 0.171057 0.021129
0.700886 0.171270 0.021790
0.756325 0.171474 0.022397
0.811837 0.171666 0.022943
0.867421 0.171846 0.023429
0.923071 0.172014 0.023860
0.014442 0.230532 0.030222
0.072296 0.230070 0.029080
0.130608 0.229500 0.027588
0.189234 0.228876 0.025837
0.247878 0.228278 0.024040
0.306173 0.227789 0.022484
0.363834 0.227461 0.021401
0.420786 0.227302 0.020858
0.477138 0.227283 0.020775
0.533080 0.227359 0.021007
0.588788 0.227493 0.021415
0.644389 0.227656 0.021901
0.699962 0.227830 0.022404
0.755551 0.228005 0.022891
0.811176 0.228175 0.023345
0.866846 0.228338 0.023763
0.922561 0.228493 0.024142
0.014013 0.287069 0.030364
0.071623 0.286672 0.029401
0.129583 0.286183 0.028180
0.187774 0.285648 0.026774
0.245986 0.285129 0.025331
0.303969 0.284686 0.024041
0.361524 0.284361 0.023061
0.418570 0.284168 0.022458
0.475146 0.284092 0.022208
0.531362 0.284106 0.022228
0.587337 0.284180 0.022428
0.643172 0.284292 0.022731
0.698938 0.284425 0.023084
0.754680 0.284567 0.023450
0.810425 0.284711 0.023810
0.866189 0.284854 0.024154
0.921978 0.284993 0.024475
0.013697 0.343546 0.030453
0.071089 0.343211 0.029647
0.128745 0.342801 0.028650
0.186573 0.342352 0.027521
0.244426 0.341909 0.026361
0.302133 0.341518 0.025295
0.359554 0.341211 0.024431
0.416616 0.341003 0.023827
0.473321 0.340890 0.023485
0.529727 0.340856 0.023364
0.585907 0.340881 0.023408
0.641936 0.340948 0.023563
0.697871 0.341041 0.023785
0.753755 0.341150 0.024041
0.809617 0.341267 0.024312
0.865475 0.341388 0.024583
0.921340 0.341509 0.024847
0.013462 0.399979 0.030505
0.070668 0.399699 0.029829
0.128073 0.399360 0.029013
0.185607 0.398987 0.028101
0.243169 0.398615 0.027162
0.300640 0.398275 0.026281
0.357921 0.397995 0.025531
0.414949 0.397788 0.024960
0.471712 0.397655 0.024580
0.528233 0.397589 0.024375
0.584557 0.397577 0.024313
0.640733 0.397606 0.024357
0.696807 0.397665 0.024474
0.752814 0.397743 0.024638
0.808782 0.397835 0.024829
0.864728 0.397934 0.025034
0.920666 0.398037 0.025242
0.013278 0.456384 0.030534
0.070329 0.456152 0.029966
0.127530 0.455872 0.029294
0.184831 0.455564 0.028550
0.242159 0.455253 0.027784
0.299432 0.454962 0.027052
0.356577 0.454712 0.026406
0.413546 0.454516 0.025884
0.470318 0.454377 0.025502
0.526900 0.454292 0.025254
0.583316 0.454255 0.025125
0.639598 0.454256 0.025092
0.695778 0.454287 0.025131
0.751886 0.454340 0.025221
0.807943 0.454408 0.025345
0.863967 0.454487 0.025492
0.919973 0.454573 0.025651
0.013121 0.512773 0.030552
0.070044 0.512580 0.030072
0.127082 0.512350 0.029514
0.184198 0.512096 0.028902
0.241338 0.511837 0.028271
0.298446 0.511590 0.027660
0.355468 0.511371 0.027107
0.412366 0.511191 0.026639
0.469118 0.511054 0.026273
0.525724 0.510961 0.026011
0.582193 0.510909 0.025845
0.638545 0.510890 0.025761
0.694803 0.510900 0.025743
0.750988 0.510932 0.025777
0.807118 0.510980 0.025848
0.863209 0.511041 0.025946
0.919273 0.511111 0.026062
0.012976 0.569153 0.030567
0.069794 0.568993 0.030160
0.126700 0.568803 0.029693
0.183668 0.568594 0.029185
0.240658 0.568378 0.028660
0.297629 0.568170 0.028147
0.354542 0.567980 0.027673
0.411368 0.567819 0.027260
0.468085 0.567690 0.026921
0.524690 0.567596 0.026660
0.581184 0.567535 0.026477
0.637580 0.567504 0.026362
0.693890 0.567499 0.026307
0.750132 0.567514 0.026300
0.806319 0.567547 0.026330
0.862465 0.567592 0.026389
0.918579 0.567648 0.026469
0.012832 0.625529 0.030585
0.069563 0.625396 0.030237
0.126363 0.625239 0.029844
0.183212 0.625066 0.029418
0.240080 0.624887 0.028979
0.296938 0.624711 0.028546
0.353758 0.624549 0.028140
0.410513 0.624406 0.027776
0.467190 0.624289 0.027468
0.523779 0.624198 0.027219
0.580280 0.624135 0.027032
0.636698 0.624096 0.026902
0.693043 0.624081 0.026822
0.749325 0.624085 0.026787
0.805555 0.624105 0.026787
0.861743 0.624138 0.026815
0.917898 0.624182 0.026866
0.012684 0.681904 0.030608
0.069343 0.681793 0.030310
0.126057 0.681663 0.029976
0.182808 0.681520 0.029618
0.239578 0.681371 0.029247
0.296343 0.681224 0.028880
0.353081 0.681085 0.028531
0.409773 0.680961 0.028213
0.466406 0.680855 0.027935
0.522971 0.680771 0.027704
0.579467 0.680708 0.027521
0.635894 0.680667 0.027385
0.692258 0.680645 0.027293
0.748567 0.680641 0.027238
0.804828 0.680652 0.027217
0.861049 0.680675 0.027223
0.917237 0.680709 0.027251
0.012530 0.738278 0.030638
0.069128 0.738186 0.030382
0.125770 0.738079 0.030098
0.182443 0.737960 0.029793
0.239131 0.737836 0.029479
0.295818 0.737713 0.029166
0.352486 0.737595 0.028865
0.409121 0.737487 0.028587
0.465712 0.737394 0.028340
0.522250 0.737318 0.028129
0.578732 0.737258 0.027955
0.635159 0.737217 0.027820
0.691533 0.737192 0.027721
0.747858 0.737182 0.027656
0.804140 0.737186 0.027620
0.860384 0.737202 0.027609
0.916598 0.737228 0.027620
0.012366 0.794653 0.030677
0.068914 0.794577 0.030456
0.125496 0.794488 0.030212
0.182104 0.794390 0.029952
0.238725 0.794287 0.029684
0.295347 0.794183 0.029416
0.351955 0.794084 0.029157
0.408540 0.793991 0.028915
0.465090 0.793910 0.028696
0.521600 0.793842 0.028504
0.578066 0.793787 0.028343
0.634486 0.793747 0.028213
0.690861 0.793721 0.028114
0.747195 0.793709 0.028043
0.803490 0.793708 0.027998
0.859752 0.793719 0.027976
0.915984 0.793738 0.027974
0.012193 0.851029 0.030724
0.068698 0.850966 0.030532
0.125231 0.850893 0.030323
0.181784 0.850811 0.030100
0.238349 0.850726 0.029871
0.294916 0.850639 0.029641
0.351474 0.850555 0.029417
0.408013 0.850477 0.029206
0.464527 0.850406 0.029013
0.521009 0.850346 0.028841
0.577456 0.850297 0.028693
0.633865 0.850260 0.028571
0.690238 0.850235 0.028474
0.746574 0.850221 0.028401
0.802877 0.850217 0.028352
0.859150 0.850224 0.028322
0.915395 0.850239 0.028312
0.012012 0.907406 0.030779
0.068479 0.907354 0.030613
0.124970 0.907293 0.030432
0.181479 0.907226 0.030241
0.237996 0.907155 0.030044
0.294516 0.907083 0.029846
0.351030 0.907013 0.029653
0.407531 0.906946 0.029469
0.464011 0.906886 0.029299
0.520467 0.906834 0.029145
0.576894 0.906790 0.029012
0.633291 0.906757 0.028898
0.689657 0.906733 0.028806
0.745992 0.906719 0.028735
0.802298 0.906714 0.028684
0.858578 0.906718 0.028650
0.914833 0.906730 0.028634
0.015497 0.004148 0.086801
0.074019 0.003533 0.085144
0.133643 0.002787 0.082516
0.194458 0.001941 0.078797
0.255784 0.001096 0.074566
0.315967 0.000468 0.071261
0.373737 0.000228 0.069980
0.429400 0.000330 0.070465
0.484016 0.000615 0.071815
0.538379 0.000958 0.073358
0.592855 0.001297 0.074794
0.647555 0.001609 0.076032
0.702486 0.001890 0.077070
0.757621 0.002139 0.077936
0.812924 0.002363 0.078659
0.868364 0.002564 0.079267
0.923915 0.002747 0.079784
0.014631 0.060983 0.087082
0.073160 0.060323 0.085463
0.132787 0.059497 0.082912
0.193537 0.058560 0.079349
0.254726 0.057640 0.075331
0.314832 0.056958 0.072156
0.372699 0.056679 0.070818
0.428565 0.056753 0.071128
0.483381 0.057021 0.072294
0.537894 0.057356 0.073696
0.592470 0.057693 0.075033
0.647237 0.058005 0.076205
0.702211 0.058286 0.077199
0.757373 0.058538 0.078035
0.812694 0.058764 0.078738
0.868146 0.058967 0.079333
0.923704 0.059152 0.079840
0.013803 0.117803 0.087339
0.072197 0.117152 0.085847
0.131566 0.116317 0.083563
0.191835 0.115377 0.080483
0.252396 0.114471 0.077079
0.312108 0.113788 0.074300
0.370096 0.113457 0.072894
0.426430 0.113446 0.072819
0.481762 0.113634 0.073550
0.536691 0.113908 0.074597
0.591566 0.114202 0.075679
0.646536 0.114486 0.076675
0.701648 0.114748 0.077550
0.756905 0.114988 0.078303
0.812292 0.115205 0.078949
0.867789 0.115403 0.079504
0.923380 0.115583 0.079983
0.013146 0.174529 0.087521
0.071307 0.173931 0.086208
0.130265 0.173155 0.084276
0.189880 0.172287 0.081779
0.249670 0.171455 0.079071
0.308871 0.170805 0.076770
0.366888 0.170431 0.075377
0.423670 0.170323 0.074953
0.479573 0.170402 0.075221
0.535012 0.170585 0.075850
0.590278 0.170809 0.076609
0.645532 0.171044 0.077370
0.700846 0.171272 0.078078
0.756246 0.171486 0.078714
0.811735 0.171686 0.079276
0.867306 0.171871 0.079770
0.922951 0.172042 0.080204
0.012715 0.231125 0.087606
0.070608 0.230605 0.086483
0.129116 0.229929 0.084901
0.188091 0.229174 0.082931
0.247177 0.228444 0.080825
0.305884 0.227848 0.078964
0.363818 0.227455 0.077673
0.420882 0.227271 0.077044
0.477234 0.227251 0.076960
0.533128 0.227340 0.077228
0.588780 0.227487 0.077679
0.644334 0.227662 0.078200
0.699873 0.227845 0.078727
0.755440 0.228027 0.079229
0.811053 0.228201 0.079692
0.866717 0.228368 0.080112
0.922431 0.228525 0.080491
0.012482 0.287608 0.087606
0.070117 0.287170 0.086659
0.128211 0.286605 0.085381
0.186637 0.285972 0.083837
0.245146 0.285351 0.082198
0.303421 0.284822 0.080704
0.361200 0.284436 0.079560
0.418382 0.284207 0.078856
0.475021 0.284116 0.078560
0.531252 0.284126 0.078568
0.587223 0.284202 0.078771
0.643047 0.284318 0.079081
0.698803 0.284454 0.079439
0.754539 0.284599 0.079809
0.810282 0.284745 0.080169
0.866046 0.284889 0.080511
0.921838 0.285029 0.080830
0.012380 0.344013 0.087552
0.069787 0.343651 0.086758
0.127532 0.343188 0.085725
0.185518 0.342670 0.084509
0.243570 0.342153 0.083223
0.301483 0.341694 0.082020
0.359080 0.341334 0.081033
0.416270 0.341089 0.080337
0.473057 0.340954 0.079935
0.529509 0.340907 0.079780
0.585713 0.340927 0.079806
0.641755 0.340991 0.079951
0.697698 0.341083 0.080166
0.753588 0.341191 0.080417
0.809456 0.341308 0.080682
0.865320 0.341428 0.080948
0.921191 0.341549 0.081206
0.012347 0.400376 0.087474
0.069562 0.400077 0.086807
0.127026 0.399702 0.085968
0.184666 0.399281 0.084999
0.242362 0.398855 0.083979
0.299978 0.398465 0.083003
0.357392 0.398141 0.082163
0.414529 0.397900 0.081517
0.471372 0.397744 0.081080
0.527949 0.397662 0.080835
0.584311 0.397640 0.080745
0.640514 0.397663 0.080770
0.696606 0.397717 0.080873
0.752627 0.397793 0.081026
0.808606 0.397882 0.081208
0.864562 0.397980 0.081404
0.920510 0.398081 0.081605
0.012338 0.456718 0.087391
0.069394 0.456473 0.086829
0.126635 0.456169 0.086142
0.184007 0.455828 0.085361
0.241428 0.455479 0.084540
0.298803 0.455150 0.083743
0.356047 0.454866 0.083033
0.413103 0.454641 0.082452
0.469946 0.454480 0.082020
0.526584 0.454379 0.081734
0.583041 0.454330 0.081575
0.639354 0.454323 0.081519
0.695559 0.454348 0.081540
0.751684 0.454396 0.081616
0.807756 0.454460 0.081729
0.863794 0.454536 0.081866
0.919810 0.454620 0.082016
0.012327 0.513054 0.087315
0.069254 0.512853 0.086840
0.126319 0.512605 0.086272
0.183482 0.512329 0.085635
0.240687 0.512043 0.084967
0.297868 0.511768 0.084310
0.354964 0.511523 0.083710
0.411930 0.511319 0.083197
0.468742 0.511164 0.082790
0.525397 0.511055 0.082494
0.581906 0.510991 0.082300
0.638290 0.510963 0.082193
0.694573 0.510966 0.082157
0.750778 0.510992 0.082176
0.806925 0.511036 0.082234
0.863031 0.511094 0.082322
0.919107 0.511161 0.082428
0.012301 0.569391 0.087254
0.069122 0.569225 0.086849
0.126047 0.569023 0.086376
0.183048 0.568798 0.085851
0.240083 0.568563 0.085300
0.297106 0.568334 0.084755
0.354075 0.568125 0.084246
0.410953 0.567945 0.083798
0.467719 0.567800 0.083427
0.524366 0.567693 0.083137
0.580896 0.567621 0.082929
0.637322 0.567581 0.082794
0.693657 0.567568 0.082721
0.749920 0.567578 0.082699
0.806124 0.567606 0.082716
0.862284 0.567647 0.082764
0.918411 0.567700 0.082835
0.012255 0.625732 0.087209
0.068988 0.625595 0.086863
0.125801 0.625430 0.086465
0.182673 0.625246 0.086027
0.239574 0.625053 0.085570
0.296470 0.624862 0.085114
0.353330 0.624684 0.084682
0.410127 0.624527 0.084292
0.466842 0.624396 0.083958
0.523466 0.624294 0.083686
0.579998 0.624221 0.083477
0.636444 0.624174 0.083328
0.692812 0.624152 0.083233
0.749113 0.624150 0.083183
0.805360 0.624165 0.083171
0.861563 0.624194 0.083189
0.917731 0.624234 0.083231
0.012187 0.682078 0.087180
0.068847 0.681965 0.086884
0.125570 0.681829 0.086547
0.182339 0.681678 0.086179
0.239132 0.681519 0.085796
0.295924 0.681360 0.085411
0.352693 0.681210 0.085043
0.409417 0.681074 0.084705
0.466081 0.680958 0.084407
0.522675 0.680864 0.084157
0.579197 0.680793 0.083956
0.635648 0.680744 0.083804
0.692033 0.680716 0.083697
0.748359 0.680706 0.083630
0.804636 0.680712 0.083598
0.860871 0.680732 0.083594
0.917071 0.680762 0.083613
0.012098 0.738430 0.087168
0.068697 0.738336 0.086913
0.125345 0.738224 0.086626
0.182031 0.738100 0.086315
0.238736 0.737969 0.085991
0.295444 0.737836 0.085666
0.352136 0.737710 0.085351
0.408795 0.737593 0.085057
0.465410 0.737492 0.084794
0.521972 0.737407 0.084567
0.578477 0.737340 0.084379
0.634924 0.737292 0.084230
0.691315 0.737262 0.084119
0.747657 0.737247 0.084042
0.803953 0.737247 0.083996
0.860210 0.737259 0.083977
0.916435 0.737281 0.083980
0.011988 0.794787 0.087172
0.068536 0.794709 0.086952
0.125123 0.794617 0.086706
0.181740 0.794514 0.086442
0.238374 0.794405 0.086166
0.295012 0.794296 0.085889
0.351638 0.794189 0.085619
0.408242 0.794090 0.085364
0.464812 0.794002 0.085133
0.521341 0.793926 0.084929
0.577825 0.793866 0.084755
0.634262 0.793820 0.084614
0.690653 0.793789 0.084504
0.747001 0.793772 0.084423
0.803310 0.793768 0.084369
0.859583 0.793774 0.084339
0.915825 0.793791 0.084330
0.011860 0.851147 0.087189
0.068364 0.851083 0.086999
0.124901 0.851007 0.086788
0.181462 0.850922 0.086562
0.238037 0.850833 0.086327
0.294615 0.850741 0.086090
0.351187 0.850652 0.085858
0.407741 0.850568 0.085637
0.464271 0.850492 0.085433
0.520769 0.850426 0.085251
0.577230 0.850372 0.085094
0.633654 0.850330 0.084962
0.690040 0.850300 0.084856
0.746389 0.850282 0.084775
0.802704 0.850275 0.084717
0.858987 0.850279 0.084681
0.915242 0.850291 0.084663
0.011715 0.907511 0.087220
0.068183 0.907458 0.087055
0.124677 0.907396 0.086873
0.181190 0.907326 0.086679
0.237716 0.907252 0.086478
0.294245 0.907176 0.086275
0.350770 0.907101 0.086075
0.407283 0.907030 0.085883
0.463776 0.906966 0.085705
0.520244 0.906909 0.085543
0.576684 0.906861 0.085401
0.633093 0.906823 0.085280
0.689470 0.906796 0.085180
0.745816 0.906778 0.085102
0.802133 0.906770 0.085043
0.858421 0.906771 0.085004
0.914685 0.906780 0.084981
0.013523 0.004535 0.144638
0.071869 0.003811 0.143266
0.131459 0.002976 0.140761
0.192758 0.002057 0.136631
0.255327 0.001086 0.131283
0.316732 0.000326 0.126889
0.374787 0.000056 0.125353
0.430092 0.000209 0.126145
0.484291 0.000555 0.127850
0.538379 0.000942 0.129625
0.592708 0.001308 0.131180
0.647342 0.001635 0.132470
0.702250 0.001923 0.133524
0.757382 0.002177 0.134387
0.812694 0.002402 0.135100
0.868148 0.002604 0.135694
0.923713 0.002787 0.136196
0.012391 0.061591 0.144965
0.070791 0.060805 0.143600
0.130463 0.059839 0.141144
0.191711 0.058771 0.137214
0.254027 0.057687 0.132232
0.315249 0.056857 0.128089
0.373456 0.056536 0.126455
0.429082 0.056650 0.126964
0.483566 0.056973 0.128407
0.537848 0.057349 0.129999
0.592300 0.057710 0.131436
0.647009 0.058036 0.132651
0.701964 0.058325 0.133657
0.757127 0.058580 0.134489
0.812458 0.058807 0.135181
0.867924 0.059010 0.135761
0.923497 0.059194 0.136254
0.011420 0.118585 0.145191
0.069726 0.117818 0.143902
0.129204 0.116816 0.141676
0.189908 0.115706 0.138332
0.251286 0.114628 0.134281
0.311831 0.113805 0.130811
0.370214 0.113412 0.129070
0.426541 0.113408 0.128997
0.481730 0.113624 0.129842
0.536536 0.113923 0.130987
0.591339 0.114233 0.132123
0.646278 0.114527 0.133141
0.701385 0.114794 0.134017
0.756649 0.115036 0.134762
0.812048 0.115253 0.135395
0.867562 0.115450 0.135934
0.923169 0.115629 0.136398
0.010828 0.175360 0.145258
0.068923 0.174677 0.144096
0.128003 0.173749 0.142195
0.187963 0.172710 0.139523
0.248303 0.171718 0.136425
0.308077 0.170941 0.133678
0.366469 0.170493 0.131984
0.423393 0.170361 0.131443
0.479311 0.170441 0.131694
0.534731 0.170629 0.132335
0.589985 0.170860 0.133101
0.645238 0.171098 0.133860
0.700562 0.171326 0.134558
0.755977 0.171541 0.135178
0.811484 0.171739 0.135724
0.867073 0.171922 0.136201
0.922735 0.172091 0.136619
0.010637 0.231895 0.145165
0.068477 0.231320 0.144150
0.127084 0.230529 0.142584
0.186311 0.229633 0.140502
0.245765 0.228769 0.138162
0.304863 0.228064 0.136020
0.363105 0.227597 0.134494
0.420355 0.227371 0.133719
0.476803 0.227333 0.133559
0.532746 0.227413 0.133787
0.588427 0.227557 0.134212
0.644007 0.227729 0.134711
0.699570 0.227909 0.135217
0.755161 0.228088 0.135698
0.810795 0.228260 0.136141
0.866479 0.228423 0.136544
0.922212 0.228578 0.136906
0.010717 0.288264 0.144965
0.068310 0.287793 0.144093
0.126472 0.287150 0.142824
0.185070 0.286416 0.141209
0.243825 0.285693 0.139428
0.302367 0.285075 0.137754
0.360383 0.284622 0.136441
0.417741 0.284349 0.135607
0.474497 0.284230 0.135220
0.530806 0.284223 0.135167
0.586831 0.284288 0.135327
0.642696 0.284396 0.135604
0.698486 0.284526 0.135934
0.754250 0.284666 0.136280
0.810019 0.284808 0.136619
0.865805 0.284948 0.136943
0.921617 0.285085 0.137245
0.010921 0.344551 0.144724
0.068297 0.344169 0.143980
0.126085 0.343657 0.142954
0.184183 0.343070 0.141693
0.242398 0.342480 0.140318
0.300495 0.341953 0.138998
0.358266 0.341538 0.137893
0.415601 0.341252 0.137093
0.472500 0.341086 0.136609
0.529035 0.341020 0.136392
0.585302 0.341024 0.136370
0.641391 0.341078 0.136477
0.697373 0.341162 0.136662
0.753295 0.341263 0.136887
0.809190 0.341375 0.137131
0.865078 0.341491 0.137377
0.920969 0.341608 0.137619
0.011150 0.400811 0.144485
0.068342 0.400501 0.143852
0.125833 0.400095 0.143018
0.183545 0.399629 0.142022
0.241350 0.399152 0.140944
0.299092 0.398712 0.139892
0.356632 0.398345 0.138969
0.413882 0.398069 0.138245
0.470821 0.397885 0.137740
0.527475 0.397783 0.137439
0.583897 0.397745 0.137304
0.640148 0.397756 0.137292
0.696280 0.397801 0.137365
0.752335 0.397869 0.137492
0.808341 0.397952 0.137653
0.864321 0.398045 0.137830
0.920289 0.398142 0.138015
0.011353 0.457072 0.144271
0.068394 0.456820 0.143732
0.125651 0.456496 0.143049
0.183070 0.456126 0.142250
0.240562 0.455742 0.141392
0.298024 0.455378 0.140544
0.355360 0.455061 0.139776
0.412502 0.454807 0.139137
0.469422 0.454622 0.138652
0.526125 0.454502 0.138319
0.582638 0.454438 0.138120
0.638996 0.454419 0.138031
0.695238 0.454434 0.138024
0.751396 0.454474 0.138076
0.807495 0.454533 0.138168
0.863556 0.454603 0.138287
0.919592 0.454682 0.138422
0.011511 0.513344 0.144091
0.068426 0.513138 0.143631
0.125501 0.512879 0.143066
0.182696 0.512583 0.142418
0.239949 0.512273 0.141724
0.297190 0.511973 0.141033
0.354351 0.511703 0.140391
0.411383 0.511477 0.139836
0.468255 0.511302 0.139389
0.524964 0.511177 0.139054
0.581521 0.511099 0.138827
0.637945 0.511060 0.138691
0.694263 0.511053 0.138630
0.750497 0.511072 0.138627
0.806670 0.511110 0.138667
0.862797 0.511162 0.138737
0.918893 0.511224 0.138830
0.011619 0.569632 0.143945
0.068430 0.569463 0.143553
0.125362 0.569254 0.143081
0.182383 0.569015 0.142548
0.239452 0.568764 0.141980
0.296518 0.568517 0.141411
0.353533 0.568289 0.140873
0.410460 0.568092 0.140394
0.467274 0.567932 0.139991
0.523964 0.567810 0.139672
0.580534 0.567726 0.139436
0.636994 0.567676 0.139276
0.693360 0.567655 0.139181
0.749649 0.567657 0.139139
0.805877 0.567679 0.139140
0.862057 0.567715 0.139173
0.918202 0.567763 0.139231
0.011678 0.625935 0.143833
0.068404 0.625796 0.143496
0.125221 0.625626 0.143100
0.182107 0.625433 0.142657
0.239031 0.625228 0.142187
0.295957 0.625025 0.141714
0.352852 0.624833 0.141261
0.409686 0.624663 0.140848
0.466437 0.624519 0.140489
0.523096 0.624406 0.140194
0.579661 0.624322 0.139963
0.636135 0.624267 0.139794
0.692530 0.624237 0.139680
0.748855 0.624228 0.139613
0.805123 0.624237 0.139586
0.861344 0.624261 0.139591
0.917528 0.624297 0.139621
0.011693 0.682252 0.143752
0.068348 0.682137 0.143461
0.125073 0.681998 0.143125
0.181852 0.681840 0.142754
0.238661 0.681673 0.142362
0.295476 0.681505 0.141965
0.352270 0.681345 0.141582
0.409022 0.681199 0.141226
0.465714 0.681073 0.140910
0.522336 0.680969 0.140641
0.578884 0.680890 0.140422
0.635360 0.680833 0.140253
0.691767 0.680798 0.140131
0.748114 0.680782 0.140049
0.804410 0.680783 0.140004
0.860661 0.680798 0.139988
0.916876 0.680824 0.139997
0.011670 0.738580 0.143696
0.068266 0.738485 0.143445
0.124916 0.738371 0.143159
0.181608 0.738242 0.142846
0.238326 0.738105 0.142516
0.295050 0.737966 0.142181
0.351760 0.737831 0.141854
0.408441 0.737707 0.141548
0.465078 0.737597 0.141270
0.521662 0.737505 0.141029
0.578188 0.737432 0.140826
0.634656 0.737377 0.140664
0.691066 0.737340 0.140539
0.747425 0.737320 0.140450
0.803738 0.737315 0.140393
0.860010 0.737323 0.140363
0.916248 0.737342 0.140356
0.011615 0.794917 0.143664
0.068160 0.794839 0.143447
0.124749 0.794745 0.143202
0.181371 0.794639 0.142936
0.238014 0.794526 0.142656
0.294663 0.794411 0.142372
0.351304 0.794299 0.142093
0.407924 0.794194 0.141829
0.464511 0.794099 0.141586
0.521058 0.794018 0.141370
0.577559 0.793952 0.141185
0.634013 0.793900 0.141032
0.690421 0.793864 0.140911
0.746783 0.793843 0.140820
0.803106 0.793834 0.140756
0.859392 0.793837 0.140717
0.915646 0.793850 0.140700
0.011532 0.851262 0.143652
0.068034 0.851198 0.143464
0.124572 0.851120 0.143254
0.181136 0.851034 0.143027
0.237717 0.850941 0.142788
0.294305 0.850845 0.142546
0.350888 0.850751 0.142307
0.407455 0.850663 0.142078
0.463998 0.850582 0.141866
0.520510 0.850511 0.141675
0.576986 0.850452 0.141508
0.633424 0.850406 0.141367
0.689823 0.850371 0.141252
0.746185 0.850349 0.141162
0.802511 0.850339 0.141096
0.858806 0.850339 0.141052
0.915071 0.850348 0.141027
0.011425 0.907613 0.143658
0.067891 0.907560 0.143495
0.124385 0.907497 0.143314
0.180901 0.907426 0.143119
0.237432 0.907349 0.142915
0.293968 0.907270 0.142708
0.350501 0.907192 0.142503
0.407024 0.907117 0.142305
0.463528 0.907049 0.142120
0.520007 0.906988 0.141951
0.576459 0.906936 0.141801
0.632879 0.906894 0.141673
0.689268 0.906863 0.141565
0.745625 0.906842 0.141479
0.801951 0.906831 0.141414
0.858250 0.906829 0.141367
0.914523 0.906835 0.141338
0.011425 0.004948 0.202573
0.069454 0.004004 0.201739
0.128465 0.003076 0.199906
0.189227 0.002260 0.196209
0.252066 0.001398 0.190481
0.314414 0.000620 0.185162
0.373154 0.000291 0.183001
0.428779 0.000403 0.183514
0.483185 0.000720 0.185041
0.537450 0.001083 0.186663
0.591932 0.001429 0.188085
0.646692 0.001740 0.189264
0.701702 0.002015 0.190229
0.756917 0.002259 0.191021
