assets/luts/generated/gen_style_cf864c093efcb71d.cube
# V4 Phase 7 style-brief LUT
# style_category: painterly_prestige
# strength: 0.180
# description: Oil-painting cast — warm shadows (umber), cool desaturated highlights (linen). Painterly skin separation as INTENT.
TITLE "V4 Style LUT — painterly_prestige"
LUT_3D_SIZE 5
DOMAIN_MIN 0.0 0.0 0.0
DOMAIN_MAX 1.0 1.0 1.0
0.058333 0.036796 0.022428
0.263224 0.036678 0.022305
0.469257 0.037802 0.023474
0.678143 0.042026 0.027868
0.888414 0.047762 0.033835
0.060355 0.243996 0.024716
0.264033 0.242559 0.023221
0.473739 0.247676 0.028545
0.692128 0.262256 0.043716
0.905235 0.271163 0.053013
0.072050 0.461742 0.037984
0.281246 0.466326 0.042759
0.497549 0.478687 0.055641
0.711002 0.488150 0.065577
0.924137 0.497841 0.075950
0.095032 0.692368 0.064858
0.306533 0.699829 0.072754
0.519202 0.708889 0.082427
0.736188 0.723491 0.098158
0.955282 0.740797 0.116844
0.126514 0.935093 0.105305
0.339700 0.945093 0.116088
0.552143 0.954230 0.125952
0.762699 0.961068 0.133341
0.970621 0.964667 0.137230
0.058653 0.037145 0.227791
0.263641 0.037131 0.227777
0.470571 0.039230 0.229959
0.681323 0.045484 0.236465
0.891978 0.051641 0.242870
0.061805 0.245572 0.231355
0.265841 0.244524 0.230265
0.483913 0.258738 0.245049
0.701838 0.272817 0.259702
0.910298 0.276723 0.263815
0.076955 0.467092 0.248555
0.290624 0.476532 0.258378
0.507170 0.489067 0.271409
0.714444 0.491814 0.274361
0.928863 0.503436 0.286927
0.099034 0.696921 0.274664
0.309903 0.703666 0.281806
0.520994 0.710919 0.289567
0.741260 0.729672 0.309818
0.961580 0.748536 0.330201
0.130929 0.940477 0.316108
0.343654 0.949939 0.326318
0.555458 0.958307 0.335356
0.764958 0.963850 0.341347
0.971747 0.966056 0.343731
0.059722 0.038306 0.433999
0.266031 0.039730 0.435479
0.474967 0.044009 0.439930
0.685889 0.050451 0.446631
0.895627 0.055618 0.452011
0.066318 0.250481 0.441462
0.278140 0.257901 0.449180
0.497775 0.273817 0.465735
0.706956 0.278418 0.470541
0.914130 0.281049 0.473370
0.083702 0.474478 0.461253
0.298102 0.484735 0.471935
0.508786 0.490871 0.478302
0.718209 0.496340 0.484218
0.939787 0.516786 0.506322
0.104111 0.702884 0.486019
0.316182 0.711242 0.494944
0.531639 0.723982 0.508669
0.757034 0.749090 0.535799
0.969194 0.757911 0.545332
0.136369 0.947144 0.528303
0.348773 0.956236 0.538119
0.559395 0.963157 0.545597
0.767021 0.966393 0.549096
0.972583 0.967086 0.549844
0.061164 0.039874 0.640629
0.268698 0.042629 0.643495
0.478233 0.047562 0.648626
0.688493 0.053289 0.654586
0.897994 0.058213 0.659718
0.070662 0.255210 0.651382
0.283401 0.263639 0.660155
0.497219 0.273271 0.670188
0.707507 0.279188 0.676401
0.917634 0.285242 0.682863
0.088098 0.479370 0.671381
0.300833 0.487990 0.680420
0.513416 0.496805 0.689785
0.734551 0.516511 0.711030
0.954859 0.535307 0.731325
0.110613 0.710731 0.699449
0.327296 0.724879 0.714665
0.549584 0.746084 0.737555
0.766930 0.761281 0.753975
0.972350 0.761799 0.754534
0.141441 0.953376 0.740032
0.352734 0.961113 0.748389
0.561511 0.965764 0.753416
0.767780 0.967328 0.755106
0.972882 0.967455 0.755243
0.062447 0.041270 0.847081
0.270439 0.044523 0.850465
0.479792 0.049261 0.855395
0.689719 0.054637 0.860992
0.899466 0.059848 0.866430
0.073420 0.258221 0.859519
0.285218 0.265653 0.867263
0.497319 0.273495 0.875461
0.708916 0.281001 0.883383
0.921295 0.289697 0.892661
0.091187 0.482915 0.880132
0.304476 0.492441 0.890218
0.521469 0.506776 0.905577
0.743981 0.528129 0.928586
0.959559 0.541086 0.942567
0.117557 0.719189 0.913562
0.336274 0.735910 0.931578
0.554777 0.752481 0.949467
0.766268 0.760467 0.958095
0.972116 0.761511 0.959223
0.144892 0.957620 0.949617
0.354582 0.963389 0.955849
0.561970 0.966331 0.959028
0.767753 0.967295 0.960071
0.972872 0.967442 0.960230
