assets/luts/generated/gen_style_cf864c093efcb71d.cube
# V4 Phase 7 style-brief LUT
# style_category: painterly_prestige
# strength: 0.180
# description: Oil-painting cast — warm shadows (umber), cool desaturated highlights (linen). Painterly skin separation as INTENT.
TITLE "V4 Style LUT — painterly_prestige"
LUT_3D_SIZE 9
DOMAIN_MIN 0.0 0.0 0.0
DOMAIN_MAX 1.0 1.0 1.0
0.058333 0.036796 0.022428
0.160754 0.036711 0.022340
0.263224 0.036678 0.022305
0.365951 0.036925 0.022562
0.469257 0.037802 0.023474
0.573362 0.039546 0.025288
0.678143 0.042026 0.027868
0.783252 0.044864 0.030820
0.888414 0.047762 0.033835
0.058909 0.139923 0.023080
0.161090 0.139577 0.022720
0.263279 0.139238 0.022367
0.366027 0.139508 0.022648
0.470280 0.141414 0.024631
0.576382 0.145331 0.028705
0.683329 0.150169 0.033738
0.789999 0.154711 0.038465
0.896075 0.158613 0.042529
0.060355 0.243996 0.024716
0.162224 0.243309 0.024002
0.264033 0.242559 0.023221
0.367123 0.243200 0.023888
0.473739 0.247676 0.028545
0.583234 0.255288 0.036464
0.692128 0.262256 0.043716
0.799250 0.267314 0.048989
0.905235 0.271163 0.053013
0.064147 0.350623 0.029010
0.166362 0.350313 0.028687
0.268975 0.350437 0.028817
0.374292 0.353503 0.032007
0.484153 0.361519 0.040349
0.594613 0.370202 0.049390
0.702426 0.376036 0.055478
0.808506 0.380040 0.059680
0.914183 0.383686 0.063540
0.072050 0.461742 0.037984
0.176021 0.463350 0.039659
0.281246 0.466326 0.042759
0.388809 0.471854 0.048518
0.497549 0.478687 0.055641
0.604930 0.484085 0.061286
0.711002 0.488150 0.065577
0.817117 0.492410 0.070122
0.924137 0.497841 0.075950
0.083155 0.576454 0.050734
0.188516 0.579614 0.054037
0.294564 0.583536 0.058139
0.401071 0.587985 0.062798
0.507401 0.592301 0.067339
0.613582 0.596580 0.071887
0.720539 0.601925 0.077618
0.829000 0.609177 0.085427
0.938648 0.617916 0.094852
0.095032 0.692368 0.064858
0.200688 0.695974 0.068670
0.306533 0.699829 0.072754
0.412602 0.703999 0.077193
0.519202 0.708889 0.082427
0.626964 0.715268 0.089290
0.736188 0.723491 0.098158
0.846088 0.732572 0.107962
0.955282 0.740797 0.116844
0.109137 0.811517 0.082629
0.215542 0.816184 0.087630
0.322204 0.821196 0.093011
0.429290 0.826764 0.099003
0.536983 0.833106 0.105840
0.645164 0.840074 0.113362
0.753191 0.846867 0.120699
0.860277 0.852509 0.126794
0.966094 0.856593 0.131206
0.126514 0.935093 0.105305
0.233172 0.940165 0.110771
0.339700 0.945093 0.116088
0.446061 0.949828 0.121198
0.552143 0.954230 0.125952
0.657750 0.958053 0.130082
0.762699 0.961068 0.133341
0.866951 0.963227 0.135673
0.970621 0.964667 0.137230
0.058411 0.036881 0.125016
0.160797 0.036757 0.124888
0.263222 0.036676 0.124803
0.365969 0.036945 0.125083
0.469507 0.038073 0.126256
0.574090 0.040338 0.128612
0.679376 0.043367 0.131762
0.784796 0.046544 0.135067
0.890063 0.049556 0.138202
0.059041 0.140066 0.125729
0.161083 0.139569 0.125212
0.263025 0.138962 0.124580
0.365661 0.139110 0.124734
0.470626 0.141789 0.127521
0.578175 0.147280 0.133232
0.686012 0.153086 0.139273
0.792733 0.157685 0.144059
0.898509 0.161267 0.147791
0.060677 0.244346 0.127580
0.162256 0.243344 0.126538
0.263409 0.241879 0.125015
0.366196 0.242192 0.125340
0.475345 0.249422 0.132860
0.587703 0.260147 0.144018
0.696552 0.267067 0.151221
0.802655 0.271024 0.155350
0.907819 0.273993 0.158464
0.065076 0.351632 0.132560
0.167226 0.351253 0.132166
0.269735 0.351263 0.132175
0.376550 0.355956 0.137058
0.490184 0.368071 0.149662
0.600670 0.376778 0.158726
0.706503 0.380461 0.162578
0.811203 0.382985 0.165248
0.916296 0.386043 0.168511
0.073925 0.463787 0.142613
0.178444 0.465989 0.144906
0.284699 0.470082 0.149166
0.393713 0.477179 0.156553
0.502496 0.484036 0.163694
0.608279 0.487676 0.167505
0.713016 0.490302 0.170303
0.818752 0.494223 0.174521
0.926157 0.500202 0.180962
0.085320 0.578833 0.155717
0.190998 0.582334 0.159374
0.297251 0.586465 0.163688
0.403515 0.590615 0.168024
0.509023 0.593988 0.171568
0.614393 0.597369 0.175174
0.721353 0.602797 0.181020
0.830755 0.611258 0.190152
0.941465 0.621337 0.201034
0.096892 0.694471 0.169574
0.202486 0.698006 0.173310
0.308071 0.701556 0.177069
0.413675 0.705183 0.180930
0.519860 0.709597 0.185662
0.627787 0.716216 0.192794
0.737938 0.725607 0.202932
0.848730 0.735803 0.213947
0.958048 0.744192 0.223010
0.111093 0.813839 0.187612
0.217429 0.818436 0.192540
0.323951 0.823293 0.197760
0.430921 0.828731 0.203617
0.538673 0.835161 0.210554
0.647110 0.842455 0.218431
0.755293 0.849448 0.225985
0.862186 0.854857 0.231830
0.967581 0.858423 0.235683
0.128563 0.937587 0.210492
0.235096 0.942514 0.215804
0.341474 0.947265 0.220930
0.447686 0.951822 0.225851
0.553623 0.956049 0.230417
0.659055 0.959658 0.234316
0.763770 0.962387 0.237266
0.867761 0.964223 0.239250
0.971193 0.965372 0.240492
0.058653 0.037145 0.227791
0.161107 0.037094 0.227738
0.263641 0.037131 0.227777
0.366610 0.037641 0.228307
0.470571 0.039230 0.229959
0.575687 0.042074 0.232918
0.681323 0.045484 0.236465
0.786810 0.048734 0.239846
0.891978 0.051641 0.242870
0.059558 0.140628 0.228813
0.161753 0.140297 0.228468
0.263940 0.139957 0.228116
0.367183 0.140764 0.228955
0.473527 0.144943 0.233302
0.582273 0.151736 0.240367
0.689980 0.157402 0.246262
0.795972 0.161212 0.250229
0.901087 0.164081 0.253222
0.061805 0.245572 0.231355
0.163844 0.245071 0.230834
0.265841 0.244524 0.230265
0.370831 0.247232 0.233082
0.483913 0.258738 0.245049
0.595798 0.268947 0.255670
0.701838 0.272817 0.259702
0.806077 0.274757 0.261738
0.910298 0.276723 0.263815
0.067285 0.354037 0.237561
0.170655 0.354984 0.238547
0.275727 0.357780 0.241455
0.387234 0.367574 0.251642
0.501647 0.380526 0.265113
0.607450 0.384130 0.268866
0.710151 0.384417 0.269189
0.813569 0.385585 0.270462
0.918400 0.388431 0.273529
0.076955 0.467092 0.248555
0.182728 0.470659 0.252268
0.290624 0.476532 0.258378
0.400237 0.484260 0.266414
0.507170 0.489067 0.271409
0.610733 0.490267 0.272672
0.714444 0.491814 0.274361
0.820451 0.496167 0.279075
0.928863 0.503436 0.286927
0.087988 0.581775 0.261291
0.193968 0.585604 0.265289
0.300157 0.589648 0.269506
0.405696 0.592963 0.272958
0.510061 0.595026 0.275116
0.614730 0.597630 0.277910
0.722419 0.604016 0.284810
0.833717 0.614850 0.296517
0.945680 0.626493 0.309095
0.099034 0.696921 0.274664
0.204579 0.700410 0.278355
0.309903 0.703666 0.281806
0.415070 0.706791 0.285134
0.520994 0.710919 0.289567
0.629579 0.718376 0.297614
0.741260 0.729672 0.309818
0.852809 0.740813 0.321856
0.961580 0.748536 0.330201
0.113478 0.816697 0.293176
0.219876 0.821387 0.298211
0.326431 0.826300 0.303496
0.433481 0.831854 0.309482
0.541469 0.838588 0.316751
0.650172 0.846218 0.324994
0.758217 0.853047 0.332373
0.864499 0.857705 0.337408
0.969183 0.860396 0.340316
0.130929 0.940477 0.316108
0.237386 0.945319 0.321330
0.343654 0.949939 0.326318
0.449721 0.954323 0.331052
0.555458 0.958307 0.335356
0.660601 0.961562 0.338874
0.764958 0.963850 0.341347
0.868596 0.965253 0.342863
0.971747 0.966056 0.343731
0.059099 0.037629 0.330794
0.161762 0.037807 0.330979
0.264631 0.038208 0.331396
0.368088 0.039248 0.332478
0.472599 0.041435 0.334753
0.578065 0.044660 0.338107
0.683706 0.048076 0.341660
0.788991 0.051107 0.344814
0.893919 0.053755 0.347571
0.060543 0.141699 0.332427
0.163309 0.141989 0.332728
0.266528 0.142770 0.333541
0.371393 0.145341 0.336215
0.479100 0.151003 0.342104
0.587514 0.157435 0.348794
0.693972 0.161746 0.353282
0.798932 0.164439 0.356088
0.903401 0.166613 0.358361
0.063824 0.247768 0.336139
0.167262 0.248788 0.337200
0.272111 0.251342 0.339857
0.381413 0.258737 0.347549
0.494482 0.270229 0.359502
0.602137 0.275841 0.365341
0.705571 0.276884 0.366436
0.808635 0.277565 0.367167
0.912390 0.279056 0.368761
0.070573 0.357616 0.343786
0.176011 0.360813 0.347112
0.284437 0.367257 0.353815
0.397270 0.378487 0.365494
0.507269 0.386628 0.373957
0.610288 0.387204 0.374559
0.712063 0.386508 0.373867
0.815401 0.387658 0.375146
0.920681 0.391102 0.378875
0.080510 0.470976 0.355101
0.187322 0.475678 0.359996
0.295611 0.481974 0.366546
0.403738 0.488066 0.372873
0.508726 0.490725 0.375622
0.611479 0.491032 0.375953
0.715528 0.493041 0.378154
0.823047 0.499282 0.384916
0.933113 0.508606 0.394994
0.090712 0.584801 0.366960
0.196743 0.588696 0.371031
0.302517 0.592285 0.374774
0.407221 0.594666 0.377245
0.510820 0.595859 0.378486
0.615654 0.598704 0.381550
0.725614 0.607909 0.391503
0.839648 0.622124 0.406867
0.951893 0.634124 0.419834
0.101420 0.699696 0.380113
0.207045 0.703311 0.383947
0.312394 0.706633 0.387481
0.417670 0.709928 0.391004
0.524210 0.714841 0.396294
0.634503 0.724419 0.406638
0.747766 0.737674 0.420962
0.858631 0.747978 0.432098
0.965601 0.753485 0.438049
0.116390 0.820217 0.399460
0.223086 0.825291 0.404915
0.330003 0.830668 0.410706
0.437507 0.836794 0.417315
0.545925 0.844067 0.425169
0.654588 0.851655 0.433369
0.761806 0.857467 0.439650
0.866941 0.860713 0.443158
0.970702 0.862267 0.444838
0.133580 0.943723 0.422110
0.240003 0.948529 0.427296
0.346181 0.953047 0.432174
0.452075 0.957220 0.436682
0.557510 0.960834 0.440587
0.662224 0.963562 0.443535
0.766113 0.965274 0.445386
0.869356 0.966190 0.446376
0.972229 0.966649 0.446872
0.059722 0.038306 0.433999
0.162699 0.038826 0.434539
0.266031 0.039730 0.435479
0.370046 0.041376 0.437192
0.474967 0.044009 0.439930
0.580472 0.047276 0.443328
0.685889 0.050451 0.446631
0.790909 0.053196 0.449489
0.895627 0.055618 0.452011
0.061880 0.143153 0.436440
0.165431 0.144296 0.437628
0.269877 0.146412 0.439829
0.376034 0.150388 0.443965
0.483801 0.156116 0.449923
0.591060 0.161294 0.455310
0.696555 0.164562 0.458713
0.800991 0.166692 0.460937
0.905189 0.168584 0.462920
0.066318 0.250481 0.441462
0.171234 0.253109 0.444196
0.278140 0.257901 0.449180
0.387933 0.265831 0.457428
0.497775 0.273817 0.465735
0.603628 0.277476 0.469546
0.706956 0.278418 0.470541
0.810163 0.279284 0.471474
0.914130 0.281049 0.473370
0.074021 0.361372 0.450196
0.180761 0.365988 0.454999
0.289639 0.372927 0.462217
0.399572 0.381007 0.470621
0.506616 0.385941 0.475751
0.610024 0.386958 0.476817
0.712874 0.387485 0.477417
0.817318 0.389952 0.480105
0.923688 0.394727 0.485267
0.083702 0.474478 0.461253
0.190684 0.479376 0.466356
0.298102 0.484735 0.471935
0.404529 0.488988 0.476353
0.508786 0.490871 0.478302
0.612220 0.491991 0.479503
0.718209 0.496340 0.484218
0.828415 0.505863 0.494519
0.939787 0.516786 0.506322
0.093189 0.587594 0.472400
0.199132 0.591428 0.476419
0.304621 0.594752 0.479903
0.409212 0.597079 0.482341
0.513485 0.599144 0.484535
0.620730 0.604960 0.490813
0.734785 0.619197 0.506200
0.849770 0.634579 0.522823
0.959417 0.643380 0.532334
0.104111 0.702884 0.486019
0.210138 0.707027 0.490436
0.316182 0.711242 0.494944
0.422784 0.716200 0.500274
0.531639 0.723982 0.508669
0.644361 0.736559 0.522257
0.757034 0.749090 0.535799
0.864805 0.755584 0.542817
0.969194 0.757911 0.545332
0.119842 0.824417 0.506483
0.227073 0.830167 0.512674
0.334644 0.836365 0.519357
0.442806 0.843312 0.526856
0.551435 0.850852 0.535002
0.659322 0.857487 0.542172
0.765085 0.861507 0.546517
0.868932 0.863167 0.548311
0.971872 0.863710 0.548897
0.136369 0.947144 0.528303
0.242737 0.951890 0.533425
0.348773 0.956236 0.538119
0.454390 0.960071 0.542263
0.559395 0.963157 0.545597
0.663596 0.965253 0.547863
0.767021 0.966393 0.549096
0.869926 0.966893 0.549636
0.972583 0.967086 0.549844
0.060440 0.039087 0.537310
0.163736 0.039953 0.538211
0.267471 0.041296 0.539608
0.371854 0.043343 0.541737
0.476906 0.046117 0.544623
0.582267 0.049229 0.547860
0.687469 0.052171 0.550921
0.792339 0.054756 0.553612
0.896974 0.057092 0.556047
0.063319 0.144717 0.540567
0.167515 0.146562 0.542485
0.272673 0.149453 0.545492
0.379065 0.153685 0.549895
0.486123 0.158645 0.555054
0.592530 0.162901 0.559484
0.697730 0.165854 0.562562
0.802188 0.168019 0.564826
0.906484 0.170033 0.566942
0.068700 0.253073 0.546659
0.174420 0.256576 0.550303
0.281623 0.261694 0.555628
0.389995 0.268085 0.562277
0.497666 0.273719 0.568142
0.603167 0.277011 0.571576
0.707236 0.278787 0.573446
0.811215 0.280535 0.575312
0.915807 0.283035 0.577991
0.076876 0.364489 0.555941
0.183830 0.369344 0.560996
0.291736 0.375237 0.567130
0.399443 0.380916 0.573042
0.505390 0.384693 0.576981
0.609712 0.386767 0.579171
0.714198 0.389188 0.581779
0.820308 0.393628 0.586575
0.927872 0.399834 0.593272
0.086181 0.477220 0.566622
0.192866 0.481818 0.571421
0.299460 0.486320 0.576120
0.405216 0.489915 0.579879
0.510041 0.492555 0.582664
0.615659 0.496322 0.586712
0.725086 0.504840 0.595914
0.837514 0.517056 0.609111
0.948055 0.526944 0.619791
0.095456 0.590204 0.577665
0.201482 0.594201 0.581879
0.307316 0.598026 0.585927
0.413137 0.601925 0.590082
0.520436 0.607736 0.596331
0.632707 0.619732 0.609282
0.749105 0.636838 0.627765
0.860299 0.647542 0.639331
0.965690 0.651101 0.643176
0.107191 0.706584 0.592489
0.214019 0.711747 0.598017
0.321448 0.717696 0.604410
0.430311 0.725461 0.612778
0.541815 0.736515 0.624714
0.654835 0.749464 0.638704
0.764265 0.757998 0.647927
0.868849 0.760565 0.650701
0.971462 0.760705 0.650852
0.123661 0.829082 0.614012
0.231467 0.835556 0.620990
0.339597 0.842454 0.628434
0.447999 0.849706 0.636265
0.556072 0.856565 0.643676
0.662619 0.861549 0.649062
0.767055 0.863935 0.651641
0.870065 0.864564 0.652321
0.972553 0.864549 0.652305
0.139063 0.950453 0.634376
0.245275 0.955011 0.639297
0.351037 0.959023 0.643631
0.456244 0.962356 0.647233
0.560749 0.964825 0.649901
0.664479 0.966341 0.651539
0.767561 0.967058 0.652315
0.870256 0.967300 0.652575
0.972793 0.967344 0.652624
0.061164 0.039874 0.640629
0.164709 0.041011 0.641812
0.268698 0.042629 0.643495
0.373229 0.044839 0.645793
0.478233 0.047562 0.648626
0.583423 0.050489 0.651671
0.688493 0.053289 0.654586
0.793329 0.055840 0.657243
0.897994 0.058213 0.659718
0.064648 0.146163 0.644571
0.169216 0.148413 0.646910
0.274579 0.151527 0.650150
0.380709 0.155477 0.654260
0.487100 0.159715 0.658670
0.593030 0.163458 0.662569
0.698218 0.166409 0.665647
0.802912 0.168844 0.668197
0.907482 0.171174 0.670648
0.070662 0.255210 0.651382
0.176590 0.258942 0.655267
0.283401 0.263639 0.660155
0.390600 0.268764 0.665490
0.497219 0.273271 0.670188
0.602719 0.276589 0.673659
0.707507 0.279188 0.676401
0.812332 0.281910 0.679299
0.917634 0.285242 0.682863
0.079006 0.366822 0.660874
0.185702 0.371410 0.665654
0.292726 0.376364 0.670820
0.399394 0.380950 0.675609
0.505209 0.384654 0.679496
0.610617 0.388029 0.683080
0.716833 0.392500 0.687878
0.824486 0.398775 0.694638
0.932726 0.405781 0.702190
0.088098 0.479370 0.671381
0.194516 0.483717 0.675933
0.300833 0.487990 0.680420
0.406921 0.492085 0.684746
0.513416 0.496805 0.689785
0.622217 0.504459 0.698024
0.734551 0.516511 0.711030
0.846641 0.528285 0.723742
0.954859 0.535307 0.731325
0.097686 0.592824 0.682958
0.204114 0.597370 0.687780
0.310932 0.602457 0.693207
0.418906 0.609040 0.700274
0.529818 0.619307 0.711339
0.644769 0.634595 0.727846
0.758595 0.648526 0.742895
0.865736 0.654236 0.749064
0.968909 0.655064 0.749958
0.110613 0.710731 0.699449
0.218434 0.717141 0.706334
0.327296 0.724879 0.714665
0.437744 0.734608 0.725162
0.549584 0.746084 0.737555
0.660289 0.756182 0.748465
0.766930 0.761281 0.753975
0.870213 0.762246 0.755018
0.972350 0.761799 0.754534
0.127498 0.833780 0.721581
0.235635 0.840674 0.729016
0.343834 0.847667 0.736565
0.451762 0.854340 0.743772
0.558733 0.859843 0.749719
0.664054 0.863319 0.753475
0.767733 0.864771 0.755044
0.870437 0.865023 0.755316
0.972812 0.864868 0.755149
0.141441 0.953376 0.740032
0.247366 0.957584 0.744577
0.352734 0.961113 0.748389
0.457469 0.963864 0.751363
0.561511 0.965764 0.753416
0.664894 0.966853 0.754592
0.767780 0.967328 0.755106
0.870386 0.967459 0.755248
0.972882 0.967455 0.755243
0.061839 0.040608 0.743892
0.165551 0.041926 0.745264
0.269668 0.043684 0.747092
0.374223 0.045920 0.749418
0.479129 0.048538 0.752142
0.584183 0.051319 0.755036
0.689183 0.054046 0.757875
0.794043 0.056627 0.760565
0.898791 0.059096 0.763142
0.065788 0.147404 0.748361
0.170518 0.149830 0.750885
0.275849 0.152912 0.754092
0.381664 0.156523 0.757850
0.487608 0.160279 0.761761
0.593282 0.163752 0.765381
0.698530 0.166780 0.768544
0.803479 0.169508 0.771404
0.908352 0.172188 0.774226
0.072198 0.256885 0.755627
0.178066 0.260557 0.759449
0.284442 0.264788 0.763856
0.390946 0.269170 0.768424
0.497101 0.273196 0.772628
0.602729 0.276689 0.776294
0.708101 0.279972 0.779763
0.813635 0.283520 0.783541
0.919538 0.287558 0.787857
0.080604 0.368584 0.765215
0.186998 0.372859 0.769675
0.293512 0.377288 0.774305
0.399847 0.381565 0.778790
0.505991 0.385718 0.783176
0.612484 0.390410 0.788178
0.720059 0.396509 0.794722
0.828583 0.403818 0.802586
0.936928 0.410935 0.810252
0.089710 0.481207 0.775821
0.196057 0.485531 0.780367
0.302547 0.490087 0.785182
0.409472 0.495260 0.790687
0.517752 0.502187 0.798114
0.628609 0.512353 0.809062
0.741186 0.524684 0.822362
0.851629 0.534421 0.832871
0.958409 0.539672 0.838539
0.099980 0.595558 0.788384
0.207024 0.600900 0.794079
0.314995 0.607440 0.801085
0.424724 0.616202 0.810512
0.537021 0.628181 0.823429
0.650581 0.641754 0.838083
0.761077 0.651582 0.848698
0.866701 0.655425 0.852849
0.969703 0.656041 0.853515
0.114159 0.715046 0.806597
0.222799 0.722486 0.814600
0.332439 0.731197 0.823989
0.442973 0.741044 0.834615
0.553367 0.750745 0.845091
0.661700 0.757921 0.852844
0.766972 0.761334 0.856532
0.870089 0.762094 0.857353
0.972398 0.761859 0.857099
0.130995 0.838068 0.828708
0.239086 0.844915 0.836096
0.346869 0.851401 0.843099
0.453945 0.857028 0.849177
0.559853 0.861224 0.853711
0.664367 0.863704 0.856391
0.767713 0.864746 0.857517
0.870388 0.864962 0.857751
0.972817 0.864875 0.857656
0.143384 0.955765 0.845113
0.248934 0.959514 0.849162
0.353868 0.962509 0.852398
0.458167 0.964725 0.854793
0.561852 0.966186 0.856371
0.665015 0.967002 0.857253
0.767807 0.967362 0.857643
0.870394 0.967469 0.857758
0.972896 0.967471 0.857761
0.062447 0.041270 0.847081
0.166264 0.042702 0.848571
0.270439 0.044523 0.850465
0.374974 0.046738 0.852769
0.479792 0.049261 0.855395
0.584752 0.051943 0.858187
0.689719 0.054637 0.860992
0.794622 0.057269 0.863737
0.899466 0.059848 0.866430
0.066749 0.148450 0.851950
0.171531 0.150934 0.854534
0.276769 0.153917 0.857638
0.382341 0.157267 0.861126
0.488012 0.160732 0.864737
0.593552 0.164069 0.868219
0.698871 0.167186 0.871479
0.804033 0.170164 0.874604
0.909174 0.173155 0.877757
0.073420 0.258221 0.859519
0.179160 0.261760 0.863205
0.285218 0.265653 0.867263
0.391346 0.269642 0.871427
0.497319 0.273495 0.875461
0.603112 0.277202 0.879361
0.708916 0.281001 0.883383
0.814958 0.285147 0.887798
0.921295 0.289697 0.892661
0.081885 0.370007 0.869205
0.188064 0.374067 0.873450
0.294349 0.378281 0.877867
0.400679 0.382609 0.882424
0.507243 0.387304 0.887403
0.614501 0.392929 0.893411
0.722750 0.399837 0.900822
0.831492 0.407396 0.908952
0.939735 0.414378 0.916469
0.091187 0.482915 0.880132
0.197625 0.487397 0.884863
0.304476 0.492441 0.890218
0.412186 0.498608 0.896807
0.521469 0.506776 0.905577
0.632583 0.517254 0.916859
0.743981 0.528129 0.928586
0.853160 0.536309 0.937411
0.959559 0.541086 0.942567
0.102319 0.598365 0.893895
0.209978 0.604492 0.900447
0.318790 0.612090 0.908604
0.429184 0.621688 0.918937
0.540929 0.632992 0.931128
0.652227 0.643783 0.942777
0.760711 0.651135 0.950715
0.865990 0.654550 0.954404
0.969412 0.655684 0.955628
0.117557 0.719189 0.913562
0.226615 0.727162 0.922145
0.336274 0.735910 0.931578
0.446004 0.744773 0.941144
0.554777 0.752481 0.949467
0.661585 0.757781 0.955192
0.766268 0.760467 0.958095
0.869511 0.761381 0.959083
0.972116 0.761511 0.959223
0.133944 0.841685 0.935113
0.241692 0.848117 0.942055
0.348835 0.853820 0.948213
0.455073 0.858417 0.953179
0.560203 0.861655 0.956677
0.664246 0.863555 0.958731
0.767460 0.864434 0.959681
0.870190 0.864718 0.959987
0.972715 0.864749 0.960020
0.144892 0.957620 0.949617
0.250046 0.960884 0.953142
0.354582 0.963389 0.955849
0.458533 0.965177 0.957781
0.561970 0.966331 0.959028
0.665000 0.966984 0.959734
0.767753 0.967295 0.960071
0.870348 0.967413 0.960197
0.972872 0.967442 0.960230
