assets/luts/generated/gen_4fa7194d50c2b3af.cube
# Generated V4 LUT for Sela Binuy is a professional real estate
# Palette: (99,135,171) (79,67,61) (146,105,82) (186,195,214) (193,140,118) (139,179,244) (252,196,20) (221,173,82)
# Strength: 0.500
TITLE "V4 Generative LUT — Sela Binuy is a professional real estate"
LUT_3D_SIZE 9
DOMAIN_MIN 0.0 0.0 0.0
DOMAIN_MAX 1.0 1.0 1.0
0.163408 0.137797 0.125194
0.226346 0.138008 0.125255
0.290247 0.138890 0.125840
0.356457 0.141392 0.127698
0.426294 0.146437 0.131536
0.499472 0.153937 0.137337
0.574002 0.162744 0.144341
0.648282 0.171914 0.151857
0.721948 0.181196 0.159569
0.167460 0.203736 0.128498
0.229762 0.203330 0.127880
0.293462 0.203928 0.128070
0.361707 0.207762 0.130823
0.437544 0.216898 0.137590
0.518541 0.229869 0.147237
0.599095 0.243325 0.157391
0.677478 0.256238 0.167086
0.754382 0.268848 0.176109
0.175256 0.273080 0.135163
0.236985 0.271915 0.133539
0.300824 0.272293 0.133162
0.373099 0.278766 0.137584
0.458444 0.294347 0.148537
0.547663 0.313147 0.161367
0.632533 0.330470 0.172579
0.714616 0.347223 0.181956
0.795002 0.363388 0.189252
0.191302 0.350210 0.149437
0.254727 0.349823 0.147796
0.322183 0.352279 0.148207
0.401636 0.363395 0.154939
0.493422 0.383176 0.166838
0.584348 0.403533 0.177365
0.672394 0.424164 0.184914
0.760071 0.445765 0.188405
0.844113 0.464786 0.188344
0.219877 0.439879 0.175282
0.288713 0.443300 0.175625
0.363140 0.450379 0.177691
0.446709 0.463777 0.182684
0.536020 0.481453 0.187704
0.626802 0.501898 0.189617
0.721030 0.526797 0.185509
0.815219 0.552062 0.172945
0.900188 0.570346 0.159795
0.258236 0.539920 0.207713
0.332177 0.547168 0.208650
0.410484 0.556774 0.208624
0.493806 0.569399 0.206787
0.581564 0.585370 0.201306
0.674412 0.606049 0.189241
0.772329 0.631142 0.165294
0.871093 0.656725 0.127522
0.954885 0.671833 0.100852
0.297960 0.641070 0.233950
0.373857 0.649515 0.231947
0.452816 0.659175 0.226766
0.535350 0.670597 0.217210
0.621817 0.684489 0.201518
0.712434 0.701396 0.176743
0.807336 0.721390 0.138107
0.905232 0.743370 0.084524
0.984863 0.753944 0.055869
0.333006 0.736420 0.247635
0.408494 0.744119 0.241660
0.486120 0.752367 0.231746
0.566175 0.761443 0.216792
0.648721 0.771604 0.195490
0.733637 0.783056 0.166332
0.820771 0.795999 0.128041
0.907212 0.808928 0.085953
0.980627 0.814978 0.065902
0.360586 0.823812 0.251338
0.434271 0.829875 0.242652
0.509317 0.836040 0.230279
0.585848 0.842408 0.213465
0.663815 0.849084 0.191604
0.742950 0.856171 0.164636
0.822407 0.863575 0.134145
0.899424 0.870197 0.106354
0.969131 0.873789 0.092544
0.163004 0.137625 0.187673
0.225393 0.137408 0.187351
0.288697 0.137837 0.187546
0.354867 0.140292 0.189356
0.426086 0.146254 0.193879
0.501676 0.155363 0.200888
0.578078 0.165501 0.208972
0.653195 0.175419 0.217221
0.727091 0.185090 0.225408
0.166330 0.203085 0.190638
0.227049 0.201404 0.188847
0.288504 0.200308 0.187592
0.355838 0.203483 0.189845
0.435952 0.215392 0.198635
0.523106 0.232277 0.211042
0.605980 0.247399 0.222613
0.684429 0.260761 0.233034
0.760944 0.273535 0.242479
0.173151 0.271829 0.196952
0.231426 0.267764 0.192595
0.289340 0.263593 0.188331
0.359021 0.268252 0.191509
0.457624 0.292209 0.208366
0.556461 0.316586 0.224848
0.640830 0.334070 0.237051
0.721964 0.351177 0.247616
0.801641 0.367613 0.255556
0.188914 0.349251 0.212088
0.247944 0.344922 0.206654
0.308578 0.341669 0.202020
0.390010 0.353592 0.209348
0.498508 0.382586 0.226979
0.590904 0.402595 0.237791
0.677065 0.423635 0.248028
0.765608 0.447585 0.254318
0.848917 0.467096 0.255183
0.218553 0.441026 0.241293
0.284957 0.442061 0.239514
0.357699 0.446863 0.239456
0.444506 0.460658 0.244206
0.536418 0.477030 0.247989
0.625252 0.495275 0.250745
0.722493 0.524176 0.251392
0.817907 0.551740 0.241962
0.900569 0.569321 0.229936
0.257292 0.542790 0.277229
0.330009 0.548900 0.277807
0.407599 0.557047 0.276953
0.490843 0.567695 0.273724
0.578302 0.581229 0.267215
0.672339 0.601864 0.256682
0.771984 0.628482 0.236378
0.867108 0.652278 0.203893
0.951204 0.668493 0.173230
0.295909 0.643606 0.304864
0.370612 0.651085 0.303225
0.448713 0.659493 0.298060
0.530985 0.669474 0.288183
0.617873 0.682134 0.272337
0.709150 0.698276 0.248422
0.802523 0.716735 0.213515
0.900723 0.739521 0.157427
0.987328 0.755171 0.114345
0.329940 0.738032 0.319092
0.404418 0.745002 0.314002
0.481358 0.752441 0.304826
0.561194 0.760661 0.290336
0.643864 0.769917 0.269255
0.728716 0.780308 0.240518
0.815205 0.792190 0.203106
0.903335 0.806181 0.156945
0.979794 0.814266 0.130471
0.357078 0.824835 0.323345
0.429967 0.830439 0.315875
0.504420 0.836114 0.304630
0.580607 0.841941 0.288671
0.658433 0.847980 0.267237
0.737519 0.854358 0.240229
0.817132 0.861264 0.209000
0.895065 0.868113 0.178905
0.965908 0.872331 0.162581
0.163387 0.138138 0.250836
0.225603 0.137766 0.250357
0.288765 0.138069 0.250423
0.355300 0.140790 0.252460
0.428013 0.147820 0.257865
0.505580 0.158341 0.266033
0.583085 0.169372 0.274960
0.658449 0.179669 0.283718
0.732243 0.189485 0.292205
0.166707 0.203797 0.254172
0.226683 0.201417 0.251647
0.286904 0.199279 0.249389
0.354159 0.202417 0.251647
0.439162 0.217632 0.262975
0.531022 0.237533 0.277570
0.613965 0.252958 0.289754
0.691511 0.266152 0.300584
0.767205 0.278712 0.310232
0.173652 0.273110 0.261451
0.230091 0.267222 0.255115
0.283450 0.259186 0.247141
0.350430 0.262128 0.249223
0.467846 0.297796 0.274038
0.570334 0.323377 0.290713
0.649727 0.338795 0.303303
0.729352 0.356031 0.315516
0.807534 0.372042 0.323997
0.190152 0.352366 0.279458
0.247253 0.345996 0.271777
0.303188 0.338228 0.262490
0.388890 0.352436 0.271207
0.517984 0.389405 0.290111
0.598003 0.399331 0.294468
0.681623 0.423196 0.312717
0.771304 0.449886 0.323908
0.851640 0.468339 0.325914
0.220295 0.446790 0.313359
0.286038 0.447541 0.311807
0.358616 0.451574 0.310968
0.448112 0.464215 0.312971
0.538140 0.472111 0.306934
0.619706 0.483818 0.308946
0.725028 0.521744 0.321708
0.819872 0.550439 0.316267
0.895627 0.564597 0.308901
0.257147 0.548679 0.351705
0.328435 0.554450 0.353535
0.404631 0.561328 0.352718
0.487071 0.569023 0.347029
0.573926 0.578158 0.337230
0.669537 0.597387 0.328364
0.773445 0.626533 0.310506
0.861084 0.645599 0.291322
0.928705 0.652045 0.280236
0.293128 0.647419 0.379083
0.365873 0.654041 0.378859
0.442276 0.661144 0.374687
0.523854 0.669388 0.365036
0.611103 0.680012 0.349222
0.702824 0.694009 0.326496
0.793712 0.708994 0.298205
0.872060 0.718101 0.278225
0.948711 0.730236 0.251366
0.325825 0.740171 0.393116
0.398679 0.746421 0.389863
0.474273 0.753021 0.382601
0.553303 0.760250 0.369909
0.635472 0.768149 0.350536
0.719205 0.776420 0.324289
0.801721 0.784536 0.294224
0.881168 0.793099 0.264695
0.956151 0.801508 0.241683
0.352591 0.826151 0.397709
0.424228 0.831318 0.392396
0.497541 0.836516 0.383542
0.572744 0.841751 0.370059
0.649618 0.846930 0.351064
0.727481 0.852007 0.326656
0.805201 0.857182 0.299005
0.881129 0.862620 0.272820
0.952188 0.867080 0.256197
0.164883 0.139698 0.315110
0.227606 0.139730 0.315002
0.291564 0.140635 0.315592
0.359196 0.144215 0.318405
0.432896 0.152107 0.324670
0.510775 0.163062 0.333414
0.588115 0.174178 0.342626
0.663257 0.184466 0.351535
0.736826 0.194216 0.360061
0.169346 0.206772 0.320202
0.230471 0.205250 0.318409
0.292811 0.204563 0.317256
0.363224 0.209957 0.321339
0.449433 0.226229 0.333738
0.539139 0.244904 0.347716
0.620498 0.259433 0.359525
0.697377 0.272217 0.370241
0.772316 0.284227 0.379592
0.178152 0.278809 0.331098
0.237241 0.275004 0.326619
0.296691 0.271075 0.321662
0.373602 0.280581 0.328472
0.484668 0.311257 0.348959
0.577816 0.330391 0.360933
0.656687 0.345707 0.374345
0.735923 0.362424 0.386866
0.811866 0.376786 0.394772
0.196381 0.362098 0.355205
0.257618 0.360051 0.352344
0.322793 0.359701 0.349708
0.414201 0.376395 0.358892
0.525087 0.395838 0.359617
0.601258 0.402122 0.360707
0.692450 0.431482 0.387249
0.777725 0.453950 0.398288
0.852012 0.469107 0.399629
0.224962 0.458434 0.393950
0.291824 0.462950 0.398596
0.364693 0.469837 0.403013
0.450231 0.478182 0.400634
0.539199 0.478145 0.381497
0.628170 0.491003 0.383830
0.737921 0.523963 0.405708
0.816305 0.543177 0.397228
0.888002 0.558794 0.389255
0.256984 0.557426 0.431529
0.325465 0.563821 0.437478
0.397546 0.570145 0.440073
0.477802 0.575832 0.434061
0.568811 0.582561 0.419609
0.669000 0.596500 0.408838
0.764028 0.613055 0.395637
0.855527 0.640131 0.365450
0.915521 0.643306 0.368405
0.289424 0.652334 0.456365
0.358931 0.658257 0.459054
0.431950 0.664269 0.457876
0.512081 0.671308 0.450269
0.600504 0.680169 0.434926
0.692444 0.690283 0.412413
0.783381 0.702679 0.381796
0.863009 0.712157 0.359469
0.926959 0.717652 0.357776
0.320924 0.742928 0.469441
0.391442 0.748585 0.469155
0.464828 0.754564 0.465411
0.542358 0.761185 0.456525
0.623545 0.768096 0.440914
0.705977 0.774456 0.418005
0.786718 0.779971 0.390835
0.862035 0.785073 0.369084
0.932414 0.791358 0.356009
0.347453 0.827907 0.474118
0.417395 0.832762 0.471957
0.488997 0.837671 0.466930
0.562559 0.842587 0.457882
0.637759 0.847211 0.443698
0.713759 0.851239 0.424038
0.789374 0.854783 0.400836
0.863091 0.858430 0.378961
0.933574 0.862254 0.363386
0.167471 0.142449 0.380771
0.231289 0.143509 0.381750
0.296706 0.145725 0.383682
0.365606 0.150507 0.387771
0.439261 0.158706 0.394629
0.515890 0.169083 0.403219
0.592229 0.179619 0.412099
0.666979 0.189584 0.420711
0.740370 0.199093 0.428944
0.174064 0.212304 0.389404
0.237777 0.213357 0.390434
0.304066 0.216252 0.392956
0.377395 0.224331 0.399813
0.459833 0.238457 0.411016
0.544015 0.253500 0.422373
0.624102 0.266653 0.432660
0.700926 0.278664 0.442179
0.775455 0.289815 0.450512
0.185778 0.289172 0.406998
0.249976 0.291323 0.409665
0.318198 0.296376 0.414687
0.398072 0.309204 0.425367
0.489568 0.326517 0.435616
0.577311 0.340800 0.442594
0.660138 0.355438 0.452427
0.739081 0.369556 0.461503
0.813198 0.381630 0.467669
0.205142 0.377468 0.439421
0.271106 0.384237 0.449196
0.341332 0.395030 0.463204
0.421586 0.407874 0.473507
0.513811 0.414788 0.464017
0.607009 0.425206 0.459851
0.701890 0.444888 0.469959
0.779077 0.458477 0.474522
0.848803 0.470524 0.475709
0.229616 0.473361 0.480648
0.294546 0.482946 0.496305
0.358946 0.493794 0.514829
0.429382 0.500992 0.521938
0.526020 0.502731 0.498533
0.642261 0.514696 0.481690
0.745172 0.525826 0.480922
0.808693 0.537320 0.477772
0.876672 0.554458 0.473397
0.255829 0.567146 0.514053
0.318753 0.574002 0.526075
0.380372 0.579533 0.536806
0.450768 0.584115 0.538156
0.550089 0.591869 0.520389
0.662497 0.600381 0.496704
0.750973 0.600340 0.482370
0.825924 0.619991 0.471147
0.896950 0.636713 0.464896
0.285326 0.657833 0.535194
0.350342 0.663054 0.541875
0.417421 0.667951 0.545858
0.493686 0.674595 0.543857
0.583847 0.684277 0.532834
0.676367 0.692422 0.513840
0.761201 0.698553 0.490511
0.839068 0.707482 0.470192
0.908029 0.715158 0.462943
0.316034 0.746364 0.547213
0.383746 0.751670 0.550865
0.454103 0.757438 0.552337
0.529254 0.764345 0.550063
0.608722 0.771828 0.542358
0.688726 0.777993 0.528009
0.766749 0.782206 0.506971
0.841487 0.785758 0.485185
0.912070 0.789931 0.470155
0.342263 0.830205 0.551830
0.410219 0.834948 0.553628
0.479653 0.839877 0.553718
0.551006 0.844987 0.551061
0.623903 0.849854 0.544468
0.697383 0.853823 0.532792
0.770743 0.856638 0.515552
0.843338 0.858892 0.495348
0.914174 0.861329 0.477343
0.170774 0.146174 0.447702
0.235837 0.148644 0.450359
0.302619 0.152439 0.454190
0.372241 0.158309 0.459744
0.445123 0.166391 0.466941
0.520074 0.175794 0.474956
0.595214 0.185431 0.483054
0.669497 0.194830 0.490973
0.742756 0.203957 0.498631
0.179786 0.219646 0.461193
0.245972 0.223990 0.466450
0.314872 0.230551 0.473776
0.388318 0.240058 0.483150
0.466414 0.251528 0.492627
0.546324 0.263155 0.500816
0.625188 0.274348 0.508420
0.701912 0.285086 0.515817
0.776400 0.295265 0.522671
0.193980 0.301828 0.486697
0.261426 0.310232 0.498436
0.331807 0.321872 0.513941
0.406968 0.334481 0.527651
0.488376 0.344367 0.531595
0.573597 0.353766 0.531344
0.657667 0.364968 0.534077
0.736775 0.376245 0.538508
0.811025 0.386625 0.542621
0.212819 0.393543 0.525794
0.278873 0.406716 0.547311
0.343516 0.422861 0.575380
0.409780 0.434341 0.593630
0.495319 0.436412 0.579870
0.596572 0.442222 0.560605
0.691391 0.453500 0.554606
0.770424 0.464085 0.554497
0.841906 0.474427 0.555318
0.232791 0.486879 0.565992
0.292889 0.498456 0.589278
0.343743 0.509206 0.618333
0.390535 0.514187 0.639855
0.487572 0.516852 0.617668
0.618452 0.527283 0.583380
0.720480 0.536072 0.567515
0.795090 0.546011 0.564552
0.864660 0.558034 0.562919
0.254961 0.575958 0.594743
0.312303 0.582228 0.610826
0.361678 0.584975 0.627051
0.413516 0.585227 0.636441
0.517153 0.598267 0.626509
0.640135 0.615593 0.607488
0.733041 0.622296 0.590823
0.808013 0.630949 0.581161
0.879197 0.640556 0.571832
0.282695 0.663722 0.613505
0.344000 0.668549 0.623975
0.405391 0.672657 0.633268
0.476455 0.679811 0.639569
0.566777 0.694424 0.641735
0.659279 0.708939 0.639366
0.740130 0.716266 0.629714
0.814820 0.718139 0.607186
0.887187 0.720433 0.584404
0.312427 0.750594 0.625241
0.377694 0.756013 0.633344
0.445058 0.762203 0.641195
0.517245 0.770325 0.647882
0.594351 0.780130 0.651901
0.671815 0.789152 0.652207
0.745883 0.793975 0.643826
0.818893 0.794313 0.620459
0.891542 0.794411 0.593342
0.337760 0.833046 0.629725
0.403726 0.837881 0.635815
0.470811 0.843071 0.641588
0.539685 0.848725 0.646094
0.610290 0.854496 0.648050
0.681500 0.859454 0.645985
0.752479 0.862369 0.636509
0.823963 0.863278 0.617211
0.895687 0.863758 0.593632
0.174300 0.150363 0.515322
0.240391 0.154226 0.519787
0.308057 0.159398 0.525498
0.377841 0.166042 0.532351
0.449820 0.173904 0.539794
0.523344 0.182447 0.547258
0.597387 0.191219 0.554551
0.671143 0.199993 0.561705
0.744251 0.208701 0.568726
0.185406 0.227315 0.533666
0.253105 0.234323 0.542704
0.322860 0.243202 0.553657
0.395267 0.253151 0.564598
0.470442 0.262926 0.573086
0.547575 0.272328 0.579192
0.625033 0.281777 0.584607
0.701337 0.291267 0.590108
0.775894 0.300581 0.595552
0.201062 0.313372 0.565203
0.269412 0.325058 0.582322
0.338853 0.338457 0.601773
0.410541 0.349931 0.615988
0.487586 0.357579 0.619038
0.569942 0.364797 0.616806
0.652711 0.373622 0.616063
0.731869 0.383022 0.617370
0.807030 0.392155 0.619391
0.218889 0.405971 0.606736
0.283852 0.420160 0.631032
0.345805 0.434249 0.657427
0.409538 0.443130 0.672878
0.490624 0.447369 0.666641
0.586394 0.454442 0.653543
0.678055 0.463781 0.645476
0.759314 0.472655 0.641509
0.833768 0.480967 0.639059
0.236490 0.496836 0.644471
0.295218 0.507473 0.667330
0.345911 0.514928 0.690492
0.396655 0.517150 0.703669
0.487838 0.526145 0.699062
0.603105 0.543544 0.689659
0.700031 0.554855 0.678727
0.780147 0.561461 0.668286
0.853231 0.567196 0.658514
0.257095 0.583774 0.671239
0.314074 0.589983 0.688150
0.365025 0.592626 0.703497
0.421241 0.594773 0.713715
0.519247 0.615982 0.728008
0.628847 0.641418 0.735684
0.719305 0.654438 0.730406
0.793370 0.652960 0.707518
0.865085 0.651412 0.681820
0.283392 0.670296 0.690198
0.344264 0.676113 0.704294
0.405671 0.682330 0.719761
0.475427 0.693346 0.738490
0.559010 0.711615 0.758409
0.653278 0.733059 0.768256
0.733726 0.745760 0.773674
0.800238 0.736889 0.741691
0.871378 0.729906 0.701941
0.311032 0.755584 0.702377
0.374869 0.761705 0.715039
0.439966 0.768946 0.729819
0.508402 0.778195 0.745979
0.582412 0.789231 0.758732
0.662266 0.801660 0.765839
0.735526 0.808222 0.766303
0.804243 0.804796 0.742538
0.875998 0.800580 0.707194
0.334504 0.836236 0.706462
0.398714 0.841238 0.716480
0.463480 0.846626 0.727354
0.529787 0.852513 0.737679
0.598829 0.858828 0.745005
0.669963 0.864844 0.747873
0.740140 0.868206 0.743282
0.810149 0.868141 0.725744
0.881553 0.867029 0.699526
0.177695 0.154460 0.582872
0.244491 0.159391 0.588785
0.312618 0.165486 0.595854
0.382314 0.172584 0.603603
0.453571 0.180314 0.611325
0.526057 0.188358 0.618612
0.599200 0.196565 0.625506
0.672414 0.204873 0.632191
0.745313 0.213241 0.638754
0.190395 0.234049 0.604893
0.258830 0.242478 0.616010
0.328703 0.252174 0.628392
0.400269 0.262055 0.639835
0.473785 0.271219 0.648419
0.549051 0.279831 0.654419
0.625074 0.288419 0.659284
0.700639 0.297104 0.663891
0.775055 0.305760 0.668385
0.206968 0.322081 0.639401
0.275597 0.334282 0.657311
0.344782 0.346851 0.675512
0.415742 0.357510 0.688874
0.490759 0.365799 0.694690
0.569839 0.373543 0.695849
0.649869 0.381717 0.695897
0.727971 0.389990 0.696081
0.803348 0.398033 0.696439
0.224668 0.414379 0.680565
0.290344 0.427390 0.702347
0.354982 0.439226 0.722889
0.422894 0.448445 0.736320
0.500957 0.457066 0.741006
0.586794 0.466553 0.739987
0.671780 0.475067 0.735069
0.751737 0.482072 0.728824
0.827098 0.488232 0.722787
0.242290 0.504353 0.716923
0.304036 0.514655 0.737329
0.364098 0.523338 0.756519
0.430423 0.532600 0.772946
0.513742 0.548670 0.790464
0.603701 0.563114 0.795075
0.691082 0.570908 0.782766
0.770474 0.574146 0.766368
0.844489 0.575906 0.750003
0.262781 0.591372 0.744517
0.323760 0.599580 0.762982
0.384968 0.608401 0.784020
0.454394 0.624096 0.815349
0.531343 0.647617 0.859885
0.616845 0.658313 0.855290
0.712394 0.668222 0.831886
0.785078 0.664612 0.806652
0.855669 0.659475 0.777061
0.287203 0.677387 0.764986
0.349734 0.685340 0.783261
0.413146 0.695527 0.807662
0.478376 0.710267 0.843741
0.541090 0.723656 0.880682
0.637827 0.737850 0.865946
0.735515 0.753854 0.854174
0.794631 0.743772 0.830821
0.862334 0.735475 0.794980
0.311704 0.760798 0.777370
0.374749 0.767690 0.793845
0.437625 0.775590 0.814392
0.500649 0.784263 0.837791
0.568137 0.792724 0.853813
0.652934 0.804383 0.851059
0.731930 0.812053 0.846093
0.797991 0.808584 0.827638
0.867271 0.803929 0.796930
0.332695 0.839389 0.780646
0.395507 0.844408 0.793413
0.458195 0.849601 0.807594
0.521919 0.854938 0.821046
0.589427 0.860600 0.829450
0.661788 0.866572 0.830627
0.733294 0.870259 0.825526
0.802675 0.870285 0.810532
0.872995 0.868946 0.786966
0.180805 0.158120 0.649829
0.248053 0.163727 0.656656
0.316413 0.170326 0.664484
0.385987 0.177658 0.672753
0.456754 0.185379 0.680808
0.528533 0.193264 0.688302
0.600982 0.201248 0.695269
0.673692 0.209328 0.701886
0.746327 0.217497 0.708277
0.194733 0.239437 0.674129
0.263554 0.248364 0.685894
0.333461 0.258128 0.698397
0.404616 0.267884 0.709936
0.477224 0.277053 0.719201
0.551200 0.285689 0.726172
0.625937 0.294090 0.731612
0.700605 0.302402 0.736206
0.774619 0.310633 0.740304
0.212177 0.328312 0.709567
0.281234 0.340101 0.726475
0.350927 0.351889 0.742981
0.422163 0.362590 0.756364
0.496059 0.372033 0.765238
0.572435 0.380667 0.770044
0.649669 0.388727 0.771922
0.726099 0.396305 0.772144
0.800937 0.403521 0.771656
0.230674 0.420413 0.749860
0.298009 0.432705 0.769310
0.365823 0.444513 0.787876
0.436576 0.455863 0.803798
0.512149 0.467106 0.815708
0.590952 0.476727 0.820179
0.670228 0.483816 0.816673
0.747723 0.489326 0.809522
0.822633 0.494148 0.801791
0.249447 0.510759 0.786226
0.314806 0.521946 0.806085
0.381318 0.533915 0.827748
0.452285 0.548892 0.853629
0.527366 0.565208 0.879311
0.604833 0.574023 0.882218
0.685909 0.577787 0.866024
0.764165 0.579818 0.847702
0.838457 0.580950 0.830483
0.270098 0.598557 0.815461
0.334630 0.608992 0.836225
0.400406 0.622108 0.863774
0.467756 0.640436 0.905001
0.530833 0.656865 0.948384
0.605030 0.660128 0.939595
0.697813 0.664065 0.904073
0.776677 0.664275 0.878671
0.849150 0.661960 0.854114
0.292400 0.683949 0.836908
0.356105 0.693265 0.857789
0.419212 0.704549 0.886154
0.479019 0.717251 0.924752
0.532368 0.725253 0.961036
0.610712 0.729719 0.948328
0.712127 0.739832 0.914410
0.786345 0.739411 0.893110
0.856461 0.735873 0.867243
0.313734 0.765414 0.848817
0.376264 0.772468 0.866868
0.437493 0.779889 0.888907
0.497096 0.786808 0.912917
0.559329 0.792215 0.928728
0.638035 0.799198 0.922185
0.720789 0.805854 0.907643
0.792273 0.806051 0.891155
0.862200 0.803941 0.868021
0.332314 0.842127 0.851191
0.394280 0.846909 0.864907
0.455709 0.851562 0.879798
0.517770 0.855962 0.893399
0.583545 0.860361 0.900964
0.655197 0.865155 0.899624
0.727845 0.868718 0.892108
0.798186 0.869633 0.878716
0.868212 0.869138 0.859407
