assets/luts/generated/gen_7e9d2ac5de6186a2.cube
# Generated V4 LUT for unit-test-warm-earth
# Palette: (245,230,211) (196,137,111) (107,68,35)
# Strength: 0.180
TITLE "V4 Generative LUT — unit-test-warm-earth"
LUT_3D_SIZE 5
DOMAIN_MIN 0.0 0.0 0.0
DOMAIN_MAX 1.0 1.0 1.0
0.075856 0.048253 0.024985
0.280865 0.048261 0.024993
0.486123 0.048460 0.025213
0.692721 0.049700 0.026579
0.901846 0.052904 0.030107
0.076965 0.254114 0.025933
0.281453 0.253717 0.025496
0.486789 0.253978 0.025784
0.701094 0.261216 0.033754
0.922601 0.274123 0.047966
0.084368 0.464899 0.032303
0.290316 0.465656 0.033136
0.503723 0.472264 0.040410
0.733129 0.491574 0.061662
0.950621 0.502276 0.073405
0.112964 0.693321 0.058046
0.326909 0.701145 0.066624
0.542580 0.710783 0.077180
0.755463 0.719281 0.086434
0.967224 0.729986 0.097983
0.143995 0.932424 0.095163
0.355247 0.941617 0.105097
0.565869 0.950823 0.115022
0.776304 0.960543 0.125484
0.986239 0.969717 0.135353
0.075967 0.048339 0.230080
0.281001 0.048366 0.230109
0.486433 0.048701 0.230478
0.694132 0.050795 0.232785
0.905231 0.055532 0.238002
0.077504 0.254533 0.231394
0.281850 0.254026 0.230835
0.487570 0.254585 0.231451
0.712087 0.269751 0.248155
0.934816 0.283639 0.263445
0.087470 0.467333 0.239983
0.295320 0.469578 0.242454
0.518001 0.483386 0.257658
0.748709 0.503397 0.279696
0.956275 0.506418 0.282978
0.118865 0.698428 0.268647
0.333494 0.706929 0.277965
0.547459 0.714749 0.286539
0.756729 0.719254 0.291449
0.968845 0.732185 0.305363
0.147588 0.937637 0.305798
0.358526 0.946895 0.315789
0.568721 0.955798 0.325380
0.778946 0.965395 0.335705
0.988465 0.973890 0.344840
0.076299 0.048597 0.435363
0.281710 0.048915 0.435714
0.488104 0.049997 0.436905
0.697614 0.053497 0.440761
0.909995 0.059237 0.447082
0.079349 0.255967 0.437973
0.286422 0.257578 0.439748
0.500747 0.264826 0.447730
0.729410 0.283229 0.467998
0.943524 0.290519 0.476017
0.094534 0.472898 0.451108
0.310385 0.481459 0.460531
0.537237 0.498517 0.479314
0.752957 0.506520 0.488143
0.958658 0.508909 0.490693
0.125919 0.704913 0.480745
0.340231 0.713795 0.490454
0.551637 0.720098 0.497338
0.759974 0.724694 0.502311
0.976883 0.747085 0.526391
0.151750 0.944257 0.517939
0.362930 0.954603 0.529089
0.573597 0.964803 0.540067
0.783755 0.974443 0.550435
0.991380 0.979397 0.555762
0.076857 0.049030 0.640840
0.282913 0.049849 0.641743
0.490512 0.051867 0.643965
0.701049 0.056169 0.648703
0.913534 0.062005 0.655130
0.082238 0.258214 0.645448
0.292757 0.262514 0.650184
0.510340 0.272334 0.660996
0.731524 0.285052 0.674997
0.944837 0.291996 0.682624
0.102390 0.479173 0.663012
0.320586 0.489817 0.674717
0.540041 0.501706 0.687782
0.752782 0.509080 0.695844
0.963709 0.518880 0.706407
0.131873 0.711201 0.692597
0.345767 0.721435 0.703722
0.559088 0.733595 0.716862
0.776354 0.755639 0.740588
0.990103 0.772012 0.758197
0.156021 0.951539 0.730784
0.367506 0.962942 0.743062
0.578175 0.973386 0.754298
0.786932 0.980444 0.761889
0.992788 0.982064 0.763630
0.077535 0.049555 0.846419
0.284176 0.050830 0.847823
0.492476 0.053394 0.850647
0.703159 0.057821 0.855522
0.915498 0.063571 0.861853
0.085237 0.260555 0.853026
0.297387 0.266152 0.859189
0.513831 0.275181 0.869127
0.731180 0.285171 0.880112
0.945033 0.293002 0.888694
0.108450 0.484173 0.873505
0.325615 0.494476 0.884815
0.542013 0.505264 0.896611
0.756377 0.517036 0.909378
0.970165 0.531225 0.924680
0.136605 0.717097 0.903993
0.350829 0.729624 0.917552
0.566046 0.746429 0.935669
0.781645 0.765613 0.956314
0.990913 0.773545 0.964846
0.159646 0.957945 0.942681
0.370608 0.968671 0.954225
0.579987 0.976792 0.962961
0.787247 0.981041 0.967530
0.992757 0.982005 0.968567
