assets/luts/generated/gen_4fa7194d50c2b3af.cube
# Generated V4 LUT for Sela Binuy is a professional real estate
# Palette: (99,135,171) (79,67,61) (146,105,82) (186,195,214) (193,140,118) (139,179,244) (252,196,20) (221,173,82)
# Strength: 0.500
TITLE "V4 Generative LUT — Sela Binuy is a professional real estate"
LUT_3D_SIZE 17
DOMAIN_MIN 0.0 0.0 0.0
DOMAIN_MAX 1.0 1.0 1.0
0.163408 0.137797 0.125194
0.194816 0.137862 0.125194
0.226346 0.138008 0.125255
0.258105 0.138315 0.125441
0.290247 0.138890 0.125840
0.322964 0.139869 0.126557
0.356457 0.141392 0.127698
0.390885 0.143568 0.129347
0.426294 0.146437 0.131536
0.462571 0.149941 0.134230
0.499472 0.153937 0.137337
0.536700 0.158254 0.140741
0.574002 0.162744 0.144341
0.611219 0.167312 0.148061
0.648282 0.171914 0.151857
0.685184 0.176541 0.155699
0.721948 0.181196 0.159569
0.165152 0.170513 0.126594
0.196427 0.170452 0.126458
0.227824 0.170471 0.126380
0.259494 0.170684 0.126457
0.291667 0.171256 0.126822
0.324646 0.172398 0.127639
0.358758 0.174335 0.129075
0.394249 0.177234 0.131249
0.431144 0.181121 0.134177
0.469174 0.185837 0.137749
0.507862 0.191099 0.141771
0.546718 0.196617 0.146042
0.585404 0.202191 0.150417
0.623773 0.207735 0.154814
0.661815 0.213234 0.159192
0.699579 0.218703 0.163525
0.737121 0.224157 0.167794
0.167460 0.203736 0.128498
0.198557 0.203498 0.128165
0.229762 0.203330 0.127880
0.261285 0.203391 0.127781
0.293462 0.203928 0.128070
0.326763 0.205267 0.128998
0.361707 0.207762 0.130823
0.398655 0.211651 0.133703
0.437544 0.216898 0.137590
0.477790 0.223142 0.142222
0.518541 0.229869 0.147237
0.559090 0.236662 0.152346
0.599095 0.243325 0.157391
0.638523 0.249835 0.162312
0.677478 0.256238 0.167086
0.716074 0.262573 0.171692
0.754382 0.268848 0.176109
0.170662 0.237769 0.131202
0.201577 0.237328 0.130624
0.232578 0.236939 0.130076
0.263948 0.236820 0.129751
0.296169 0.237328 0.129943
0.329939 0.238955 0.131031
0.366038 0.242225 0.133385
0.404938 0.247440 0.137177
0.446323 0.254384 0.142205
0.489062 0.262345 0.147937
0.531838 0.270530 0.153819
0.573847 0.278481 0.159526
0.614930 0.286124 0.164958
0.655276 0.293562 0.170106
0.695113 0.300894 0.174955
0.734569 0.308138 0.179478
0.773671 0.315253 0.183653
0.175256 0.273080 0.135163
0.206078 0.272477 0.134345
0.236985 0.271915 0.133539
0.268347 0.271688 0.133008
0.300824 0.272293 0.133162
0.335392 0.274418 0.134529
0.373099 0.278766 0.137584
0.414394 0.285600 0.142422
0.458444 0.294347 0.148537
0.503407 0.303845 0.155071
0.547663 0.313147 0.161367
0.590632 0.321967 0.167201
0.632533 0.330470 0.172579
0.673780 0.338867 0.177513
0.714616 0.347223 0.181956
0.755060 0.355448 0.185864
0.795002 0.363388 0.189252
0.181899 0.310314 0.141010
0.212875 0.309713 0.140058
0.244002 0.309184 0.139122
0.275757 0.309111 0.138545
0.308987 0.310135 0.138854
0.344897 0.313116 0.140691
0.384631 0.318809 0.144527
0.428306 0.327229 0.150214
0.474376 0.337325 0.156866
0.520538 0.347673 0.163446
0.565387 0.357523 0.169429
0.608886 0.366966 0.174776
0.651618 0.376366 0.179533
0.694020 0.385893 0.183629
0.736137 0.395418 0.186951
0.777727 0.404646 0.189494
0.818475 0.413275 0.191408
0.191302 0.350210 0.149437
0.222849 0.349928 0.148585
0.254727 0.349823 0.147796
0.287518 0.350363 0.147475
0.322183 0.352279 0.148207
0.359938 0.356441 0.150607
0.401636 0.363395 0.154939
0.446788 0.372742 0.160706
0.493422 0.383176 0.166838
0.539506 0.393519 0.172473
0.584348 0.403533 0.177365
0.628429 0.413634 0.181546
0.672394 0.424164 0.184914
0.716397 0.435026 0.187238
0.760071 0.445765 0.188405
0.802819 0.455829 0.188615
0.844113 0.464786 0.188344
0.203967 0.393365 0.160918
0.236572 0.393804 0.160459
0.269776 0.394584 0.160129
0.304203 0.396201 0.160331
0.340738 0.399331 0.161568
0.380281 0.404614 0.164233
0.423111 0.412208 0.168260
0.468318 0.421462 0.172976
0.514216 0.431333 0.177509
0.559641 0.441273 0.181367
0.604617 0.451515 0.184446
0.649786 0.462525 0.186599
0.695492 0.474364 0.187454
0.741388 0.486538 0.186679
0.786631 0.498248 0.184370
0.830277 0.508722 0.181211
0.871607 0.517438 0.178249
0.219877 0.439879 0.175282
0.253876 0.441349 0.175387
0.288713 0.443300 0.175625
0.324927 0.446153 0.176296
0.363140 0.450379 0.177691
0.403782 0.456289 0.179909
0.446709 0.463777 0.182684
0.491103 0.472324 0.185453
0.536020 0.481453 0.187704
0.581130 0.491176 0.189168
0.626802 0.501898 0.189617
0.673476 0.513873 0.188594
0.721030 0.526797 0.185509
0.768671 0.539860 0.180111
0.815219 0.552062 0.172945
0.859402 0.562452 0.165514
0.900188 0.570346 0.159795
0.238343 0.489130 0.191462
0.273747 0.491678 0.192005
0.310086 0.494738 0.192556
0.347729 0.498591 0.193251
0.387003 0.503485 0.194162
0.428026 0.509519 0.195202
0.470584 0.516582 0.196096
0.514239 0.524476 0.196488
0.558698 0.533178 0.196074
0.604066 0.542945 0.194562
0.650684 0.554082 0.191486
0.698660 0.566565 0.186149
0.747563 0.579887 0.177895
0.796498 0.593224 0.166611
0.844189 0.605569 0.153366
0.888839 0.615657 0.140956
0.928650 0.622343 0.132985
0.258236 0.539920 0.207713
0.294761 0.543323 0.208294
0.332177 0.547168 0.208650
0.370701 0.551612 0.208781
0.410484 0.556774 0.208624
0.451551 0.562704 0.208032
0.493806 0.569399 0.206787
0.537136 0.576901 0.204639
0.581564 0.585370 0.201306
0.627271 0.595046 0.196380
0.674412 0.606049 0.189241
0.722890 0.618217 0.179115
0.772329 0.631142 0.165294
0.822143 0.644287 0.147594
0.871093 0.656725 0.127522
0.916395 0.666568 0.109875
0.954885 0.671833 0.100852
0.278403 0.590921 0.222272
0.315653 0.594836 0.222411
0.353690 0.599086 0.222074
0.392642 0.603762 0.221183
0.432601 0.608941 0.219620
0.473604 0.614686 0.217228
0.515659 0.621072 0.213812
0.558797 0.628216 0.209138
0.603099 0.636275 0.202886
0.648664 0.645379 0.194600
0.695512 0.655541 0.183655
0.743558 0.666647 0.169289
0.792716 0.678552 0.150692
0.842815 0.691062 0.127468
0.892578 0.703263 0.101583
0.938081 0.712585 0.080119
0.974951 0.716365 0.071677
0.297960 0.641070 0.233950
0.335569 0.645172 0.233287
0.373857 0.649515 0.231947
0.412915 0.654161 0.229819
0.452816 0.659175 0.226766
0.493613 0.664625 0.222627
0.535350 0.670597 0.217210
0.578070 0.677187 0.210278
0.621817 0.684489 0.201518
0.666609 0.692558 0.190516
0.712434 0.701396 0.176743
0.759306 0.710992 0.159529
0.807336 0.721390 0.138107
0.856469 0.732512 0.112239
0.905232 0.743370 0.084524
0.949417 0.751321 0.062913
0.984863 0.753944 0.055869
0.316299 0.689690 0.242333
0.353972 0.693729 0.240711
0.392224 0.697933 0.238284
0.431126 0.702351 0.234931
0.470738 0.707031 0.230513
0.511105 0.712031 0.224871
0.552262 0.717409 0.217823
0.594226 0.723223 0.209154
0.637003 0.729521 0.198606
0.680578 0.736331 0.185866
0.724947 0.743672 0.170552
0.770155 0.751590 0.152203
0.816276 0.760140 0.130404
0.863054 0.769154 0.105518
0.908944 0.777674 0.080506
0.950615 0.783713 0.061994
0.985253 0.785727 0.055994
0.333006 0.736420 0.247635
0.370508 0.740218 0.245079
0.408494 0.744119 0.241660
0.447017 0.748158 0.237260
0.486120 0.752367 0.231746
0.525834 0.756784 0.224976
0.566175 0.761443 0.216792
0.607142 0.766374 0.207024
0.648721 0.771604 0.195490
0.690891 0.777155 0.181994
0.733637 0.783056 0.166332
0.776956 0.789342 0.148330
0.820771 0.795999 0.128041
0.864627 0.802778 0.106353
0.907212 0.808928 0.085953
0.946397 0.813260 0.071296
0.980627 0.814978 0.065902
0.347809 0.781122 0.250417
0.384961 0.784564 0.247073
0.422507 0.788057 0.242864
0.460485 0.791623 0.237682
0.498924 0.795284 0.231411
0.537843 0.799061 0.223931
0.577245 0.802972 0.215118
0.617124 0.807037 0.204854
0.657458 0.811272 0.193033
0.698217 0.815700 0.179573
0.739364 0.820338 0.164440
0.780822 0.825192 0.147718
0.822398 0.830196 0.129798
0.863596 0.835111 0.111737
0.903464 0.839439 0.095599
0.940773 0.842545 0.084091
0.974717 0.844051 0.079148
0.360586 0.823812 0.251338
0.397271 0.826838 0.247409
0.434271 0.829875 0.242652
0.471613 0.832938 0.236974
0.509317 0.836040 0.230279
0.547396 0.839192 0.222472
0.585848 0.842408 0.213465
0.624662 0.845701 0.203189
0.663815 0.849084 0.191604
0.703267 0.852571 0.178721
0.742950 0.856171 0.164636
0.782742 0.859865 0.149600
0.822407 0.863575 0.134145
0.861515 0.867119 0.119243
0.899424 0.870197 0.106354
0.935437 0.872481 0.097096
0.969131 0.873789 0.092544
0.163135 0.137651 0.156374
0.194407 0.137609 0.156279
0.225777 0.137633 0.156232
0.257368 0.137812 0.156308
0.289361 0.138276 0.156612
0.321995 0.139191 0.157274
0.355534 0.140738 0.158431
0.390192 0.143063 0.160188
0.426027 0.146211 0.162582
0.462875 0.150091 0.165552
0.500388 0.154495 0.168963
0.538166 0.159188 0.172659
0.575895 0.163987 0.176512
0.613407 0.168790 0.180444
0.650657 0.173567 0.184412
0.687668 0.178322 0.188395
0.724486 0.183073 0.192378
0.164700 0.170243 0.157682
0.195748 0.170002 0.157382
0.226867 0.169806 0.157113
0.258227 0.169783 0.156986
0.290102 0.170133 0.157165
0.322884 0.171129 0.157861
0.357027 0.173078 0.159302
0.392892 0.176218 0.161652
0.430522 0.180580 0.164924
0.469508 0.185914 0.168940
0.509139 0.191792 0.173409
0.548741 0.197812 0.178064
0.587917 0.203745 0.182739
0.626560 0.209526 0.187364
0.664732 0.215182 0.191917
0.702540 0.220758 0.196387
0.740076 0.226286 0.200760
0.166771 0.203301 0.159458
0.197509 0.202773 0.158858
0.228256 0.202245 0.158250
0.259239 0.201894 0.157795
0.290864 0.202021 0.157744
0.323762 0.203068 0.158440
0.358709 0.205553 0.160258
0.396308 0.209861 0.163446
0.436487 0.215934 0.167922
0.478300 0.223173 0.173251
0.520408 0.230766 0.178883
0.561845 0.238151 0.184442
0.602297 0.245158 0.189798
0.641889 0.251862 0.194943
0.680867 0.258383 0.199889
0.719422 0.264799 0.204628
0.757656 0.271125 0.209140
0.169692 0.237138 0.162015
0.200073 0.236258 0.161027
0.230369 0.235304 0.159969
0.260867 0.234513 0.159061
0.292151 0.234326 0.158680
0.325208 0.235439 0.159369
0.361314 0.238702 0.161730
0.401392 0.244676 0.166086
0.444983 0.253016 0.172095
0.490092 0.262448 0.178831
0.534556 0.271680 0.185441
0.577383 0.280176 0.191588
0.618700 0.288057 0.197303
0.659028 0.295617 0.202673
0.698774 0.303042 0.207711
0.738124 0.310364 0.212381
0.777100 0.317527 0.216651
0.174005 0.272266 0.165860
0.204098 0.271048 0.164460
0.234013 0.269675 0.162913
0.264112 0.268458 0.161516
0.295202 0.268020 0.160811
0.328743 0.269400 0.161609
0.366641 0.273859 0.164779
0.410014 0.282028 0.170601
0.457433 0.292868 0.178156
0.505391 0.304160 0.185876
0.551243 0.314401 0.192833
0.594636 0.323530 0.199009
0.636453 0.332128 0.204659
0.677536 0.340631 0.209873
0.718252 0.349129 0.214573
0.758589 0.357481 0.218668
0.798389 0.365492 0.222162
0.180448 0.309411 0.171716
0.210536 0.308039 0.170027
0.240441 0.306483 0.168140
0.270640 0.305152 0.166451
0.302211 0.304890 0.165691
0.337087 0.307084 0.166930
0.377589 0.313246 0.171157
0.424386 0.323629 0.178257
0.474504 0.336142 0.186515
0.523439 0.348024 0.194076
0.569196 0.358336 0.200462
0.612581 0.367797 0.206090
0.655043 0.377281 0.211232
0.697342 0.387058 0.215766
0.739460 0.396883 0.219454
0.781015 0.406333 0.222226
0.821620 0.415059 0.224248
0.189827 0.349419 0.180406
0.220443 0.348300 0.178751
0.251067 0.347096 0.176933
0.282337 0.346343 0.175453
0.315566 0.347065 0.175171
0.352836 0.350750 0.177196
0.396055 0.358594 0.182196
0.444623 0.369959 0.189347
0.494621 0.382198 0.196612
0.542312 0.393212 0.202701
0.587213 0.403146 0.207800
0.630932 0.413208 0.212397
0.674817 0.424075 0.216406
0.719034 0.435498 0.219359
0.762929 0.446740 0.220965
0.805708 0.457094 0.221404
0.846827 0.466136 0.221216
0.202690 0.392951 0.192494
0.234477 0.392628 0.191312
0.266653 0.392452 0.190089
0.299973 0.393037 0.189352
0.335721 0.395369 0.189884
0.375477 0.400562 0.192434
0.419970 0.408989 0.197017
0.467623 0.419434 0.202472
0.515273 0.429914 0.207361
0.561086 0.439694 0.211286
0.605739 0.449666 0.214646
0.650811 0.460913 0.217498
0.696938 0.473506 0.219217
0.743426 0.486531 0.219136
0.789013 0.498824 0.217230
0.832638 0.509541 0.214235
0.873706 0.518276 0.211289
0.218935 0.440041 0.207755
0.252329 0.440929 0.207342
0.286492 0.442197 0.206965
0.322109 0.444381 0.207034
0.360084 0.448157 0.208014
0.401152 0.454023 0.210129
0.445131 0.461783 0.213015
0.490612 0.470491 0.215829
0.535991 0.479346 0.217973
0.580950 0.488602 0.219478
0.626498 0.499250 0.220417
0.673602 0.511837 0.220243
0.721994 0.525762 0.218002
0.770318 0.539674 0.213186
0.817064 0.552301 0.206304
0.861081 0.562796 0.198881
0.901580 0.570673 0.192993
0.237688 0.489870 0.224902
0.272679 0.492017 0.225155
0.308615 0.494627 0.225360
0.345964 0.498046 0.225709
0.385175 0.502595 0.226331
0.426422 0.508389 0.227147
0.469358 0.515206 0.227818
0.513267 0.522698 0.227955
0.557710 0.530874 0.227379
0.603012 0.540305 0.226025
0.649918 0.551643 0.223493
0.698639 0.564856 0.218879
0.748345 0.579014 0.211268
0.797659 0.592871 0.200414
0.845331 0.605424 0.187182
0.889949 0.615683 0.174195
0.929749 0.622516 0.165519
0.257665 0.541034 0.241953
0.293876 0.544146 0.242412
0.331008 0.547661 0.242601
0.369321 0.551755 0.242530
0.409007 0.556559 0.242143
0.450082 0.562106 0.241289
0.492384 0.568362 0.239758
0.535730 0.575375 0.237363
0.580180 0.583432 0.233946
0.626079 0.592976 0.229195
0.673709 0.604241 0.222453
0.722828 0.616911 0.212816
0.772680 0.630246 0.199472
0.822577 0.643611 0.181920
0.871893 0.656492 0.160751
0.918209 0.667199 0.140625
0.957235 0.672929 0.130034
0.277702 0.592139 0.257038
0.314668 0.595806 0.257161
0.352445 0.599771 0.256768
0.391189 0.604127 0.255774
0.431006 0.608952 0.254060
0.471936 0.614308 0.251474
0.513976 0.620285 0.247852
0.557160 0.627046 0.243015
0.601612 0.634839 0.236713
0.647477 0.643874 0.228518
0.694737 0.654153 0.217788
0.743120 0.665420 0.203739
0.792386 0.677419 0.185406
0.842798 0.690253 0.161466
0.894280 0.703785 0.131956
0.942576 0.715093 0.104870
0.980151 0.719358 0.094653
0.297012 0.642190 0.269020
0.334346 0.646065 0.268416
0.372385 0.650151 0.267104
0.411238 0.654511 0.264964
0.450996 0.659215 0.261857
0.491722 0.664342 0.257626
0.533467 0.669995 0.252099
0.576283 0.676306 0.245067
0.620216 0.683407 0.236248
0.665264 0.691365 0.225249
0.711335 0.700148 0.211556
0.758338 0.709691 0.194484
0.806480 0.720121 0.172919
0.856452 0.731862 0.145236
0.907944 0.744627 0.112036
0.955543 0.754845 0.083624
0.991398 0.757698 0.075439
0.315099 0.690625 0.277592
0.352514 0.694460 0.276092
0.390536 0.698442 0.273766
0.429253 0.702620 0.270484
0.468740 0.707051 0.266102
0.509054 0.711799 0.260458
0.550233 0.716934 0.253374
0.592293 0.722530 0.244647
0.635221 0.728640 0.234031
0.678968 0.735290 0.221231
0.723473 0.742487 0.205881
0.768771 0.750292 0.187454
0.815132 0.758909 0.165113
0.862908 0.768566 0.138095
0.911092 0.778586 0.108401
0.955175 0.786148 0.084951
0.990119 0.788330 0.078116
0.331607 0.737170 0.283047
0.368876 0.740794 0.280668
0.406658 0.744512 0.277412
0.445019 0.748359 0.273152
0.484014 0.752374 0.267745
0.523681 0.756595 0.261042
0.564034 0.761063 0.252878
0.605067 0.765809 0.243083
0.646746 0.770860 0.231479
0.689025 0.776238 0.217878
0.731871 0.781979 0.202072
0.775310 0.788159 0.183798
0.819428 0.794885 0.162792
0.864077 0.802101 0.139369
0.908050 0.809088 0.116035
0.948551 0.814209 0.098587
0.983084 0.816110 0.092452
0.346275 0.781721 0.285977
0.383221 0.785021 0.282855
0.420587 0.788368 0.278858
0.458421 0.791784 0.273867
0.496759 0.795294 0.267756
0.535624 0.798917 0.260392
0.575018 0.802672 0.251641
0.614927 0.806579 0.241378
0.655320 0.810654 0.229492
0.696158 0.814923 0.215897
0.737400 0.819419 0.200541
0.779006 0.824187 0.183439
0.820870 0.829230 0.164811
0.862612 0.834380 0.145510
0.903251 0.839115 0.127669
0.941255 0.842607 0.114633
0.975459 0.844272 0.109086
0.358965 0.824297 0.287042
0.395467 0.827211 0.283367
0.432306 0.830134 0.278856
0.469515 0.833080 0.273404
0.507120 0.836063 0.266905
0.545134 0.839093 0.259249
0.583558 0.842182 0.250336
0.622376 0.845343 0.240084
0.661563 0.848590 0.228445
0.701075 0.851945 0.215416
0.740854 0.855430 0.201077
0.780798 0.859053 0.185635
0.820709 0.862773 0.169555
0.860187 0.866428 0.153768
0.898549 0.869697 0.139834
0.934962 0.872175 0.129664
0.968862 0.873601 0.124640
0.163004 0.137625 0.187673
0.194160 0.137492 0.187495
0.225393 0.137408 0.187351
0.256836 0.137473 0.187326
0.288697 0.137837 0.187546
0.321263 0.138702 0.188166
0.354867 0.140292 0.189356
0.389784 0.142792 0.191248
0.426086 0.146254 0.193879
0.463541 0.150539 0.197155
0.501676 0.155363 0.200888
0.539976 0.160423 0.204876
0.578078 0.165501 0.208972
0.615821 0.170504 0.213098
0.653195 0.175419 0.217221
0.690261 0.180271 0.221327
0.727091 0.185090 0.225408
0.164437 0.170138 0.188932
0.195285 0.169734 0.188480
0.226151 0.169337 0.188028
0.257216 0.169087 0.187701
0.288796 0.169217 0.187694
0.321376 0.170068 0.188275
0.355560 0.172043 0.189739
0.391855 0.175471 0.192309
0.430323 0.180384 0.195989
0.470363 0.186405 0.200505
0.510966 0.192922 0.205447
0.551257 0.199416 0.210474
0.590815 0.205646 0.215419
0.629620 0.211600 0.220241
0.667827 0.217357 0.224944
0.705606 0.222996 0.229529
0.743080 0.228560 0.233987
0.166330 0.203085 0.190638
0.196740 0.202285 0.189780
0.227049 0.201404 0.188847
0.257482 0.200627 0.188017
0.288504 0.200308 0.187592
0.320921 0.201015 0.188025
0.355838 0.203483 0.189845
0.394204 0.208304 0.193426
0.435952 0.215392 0.198635
0.479588 0.223787 0.204775
0.523106 0.232277 0.211042
0.565289 0.240167 0.217006
0.605980 0.247399 0.222613
0.645557 0.254194 0.227940
0.684429 0.260761 0.233034
0.722853 0.267202 0.237888
0.760944 0.273535 0.242479
0.169040 0.236797 0.193124
0.198919 0.235490 0.191726
0.228507 0.233956 0.190127
0.258058 0.232425 0.188564
0.288219 0.231406 0.187493
0.320288 0.231832 0.187661
0.356249 0.235015 0.190006
0.397807 0.241978 0.195119
0.444332 0.252181 0.202433
0.492364 0.263403 0.210365
0.538511 0.273651 0.217668
0.581810 0.282479 0.224135
0.623003 0.290398 0.230050
0.663067 0.297954 0.235615
0.702577 0.305398 0.240843
0.741720 0.312741 0.245662
0.780488 0.319897 0.250023
0.173151 0.271829 0.196952
0.202545 0.270002 0.194958
0.231426 0.267764 0.192595
0.260070 0.265391 0.190166
0.289340 0.263593 0.188331
0.321228 0.263822 0.188269
0.359021 0.268252 0.191509
0.405287 0.278330 0.198765
0.457624 0.292209 0.208366
0.509354 0.305678 0.217438
0.556461 0.316586 0.224848
0.599593 0.325619 0.231170
0.640830 0.334070 0.237051
0.681498 0.342584 0.242597
0.721964 0.351177 0.247616
0.762091 0.359602 0.251939
0.801641 0.367613 0.255556
0.179479 0.308997 0.202955
0.208709 0.306856 0.200505
0.237316 0.304179 0.197547
0.265650 0.301326 0.194480
0.294889 0.299279 0.192221
0.327846 0.300106 0.192442
0.368994 0.306735 0.197135
0.420589 0.320188 0.206439
0.476842 0.336280 0.216939
0.528901 0.349691 0.225308
0.574614 0.359794 0.231673
0.616942 0.368776 0.237440
0.658669 0.378201 0.243104
0.700717 0.388251 0.248286
0.742758 0.398381 0.252497
0.784154 0.407989 0.255594
0.824460 0.416713 0.257780
0.188914 0.349251 0.212088
0.218641 0.347312 0.209619
0.247944 0.344922 0.206654
0.277392 0.342608 0.203733
0.308578 0.341669 0.202020
0.344781 0.344494 0.203385
0.390010 0.353592 0.209348
0.443868 0.368079 0.218549
0.498508 0.382586 0.226979
0.547236 0.393590 0.232901
0.590904 0.402595 0.237791
0.633441 0.412300 0.242943
0.677065 0.423635 0.248028
0.721543 0.435811 0.252010
0.765608 0.447585 0.254318
0.808217 0.458117 0.255159
0.848917 0.467096 0.255183
0.202015 0.393289 0.224981
0.233054 0.392259 0.223117
0.264199 0.391108 0.220951
0.296272 0.390525 0.219114
0.330986 0.391852 0.218727
0.370918 0.396905 0.221090
0.417693 0.406498 0.226392
0.468685 0.418432 0.232565
0.518098 0.429073 0.237222
0.563282 0.437718 0.240521
0.606551 0.446762 0.244037
0.651178 0.458299 0.248087
0.697934 0.472068 0.251348
0.745186 0.486213 0.252487
0.790954 0.499033 0.251374
0.834162 0.509745 0.248897
0.874585 0.518269 0.246255
0.218553 0.441026 0.241293
0.251421 0.441424 0.240460
0.284957 0.442061 0.239514
0.319975 0.443572 0.238959
0.357699 0.446863 0.239456
0.399275 0.452671 0.241387
0.444506 0.460658 0.244206
0.491086 0.469193 0.246607
0.536418 0.477030 0.247989
0.580377 0.485014 0.249119
0.625252 0.495275 0.250745
0.672892 0.508788 0.252087
0.722493 0.524176 0.251392
0.771513 0.539040 0.247793
0.817907 0.551740 0.241962
0.860940 0.561805 0.235415
0.900569 0.569321 0.229936
0.237445 0.491393 0.259453
0.272070 0.493231 0.259541
0.307634 0.495461 0.259494
0.344695 0.498472 0.259535
0.383831 0.502651 0.259831
0.425280 0.508102 0.260283
0.468520 0.514438 0.260446
0.512454 0.521094 0.259903
0.556453 0.528169 0.258769
0.601242 0.536797 0.257476
0.648299 0.548259 0.255818
0.697994 0.562466 0.252508
0.748641 0.577638 0.246248
0.797787 0.591658 0.236994
0.844010 0.603436 0.225745
0.886999 0.612819 0.214249
0.926101 0.619440 0.205679
0.257292 0.542790 0.277229
0.293185 0.545673 0.277687
0.330009 0.548900 0.277807
0.368071 0.552649 0.277586
0.407599 0.557047 0.276953
0.448605 0.562091 0.275733
0.490843 0.567695 0.273724
0.534040 0.573918 0.270856
0.578302 0.581229 0.267215
0.624231 0.590401 0.262711
0.672339 0.601864 0.256682
0.722124 0.615035 0.248092
0.771984 0.628482 0.236378
0.820377 0.640950 0.221650
0.867108 0.652278 0.203893
0.911851 0.662237 0.185155
0.951204 0.668493 0.173230
0.276992 0.593816 0.292707
0.313627 0.597265 0.292921
0.351083 0.600956 0.292563
0.389545 0.604978 0.291532
0.429141 0.609398 0.289689
0.469918 0.614274 0.286884
0.511862 0.619700 0.282992
0.555005 0.625897 0.277936
0.599513 0.633224 0.271596
0.645595 0.642012 0.263640
0.693168 0.652241 0.253477
0.741582 0.663381 0.240539
0.789886 0.674678 0.224508
0.837872 0.685961 0.204522
0.886816 0.698087 0.178435
0.935150 0.709841 0.150266
0.974231 0.715365 0.137021
0.295909 0.643606 0.304864
0.332901 0.647262 0.304416
0.370612 0.651085 0.303225
0.409179 0.655139 0.301156
0.448713 0.659493 0.298060
0.489296 0.664231 0.293784
0.530985 0.669474 0.288183
0.573831 0.675385 0.281106
0.617873 0.682134 0.272337
0.663061 0.689800 0.261564
0.709150 0.698276 0.248422
0.755717 0.707298 0.232589
0.802523 0.716735 0.213515
0.850342 0.727147 0.189332
0.900723 0.739521 0.157427
0.949967 0.751192 0.125407
0.987328 0.755171 0.114345
0.313662 0.691742 0.313534
0.350748 0.695371 0.312251
0.388463 0.699119 0.310126
0.426916 0.703039 0.307017
0.466202 0.707190 0.302771
0.506392 0.711640 0.297225
0.547527 0.716468 0.290214
0.589608 0.721752 0.281556
0.632588 0.727549 0.271054
0.676346 0.733862 0.258493
0.720687 0.740640 0.243673
0.765437 0.747848 0.226355
0.810719 0.755647 0.205925
0.857243 0.764561 0.180961
0.905274 0.774717 0.151191
0.950754 0.783402 0.124834
0.986756 0.786348 0.115955
0.329940 0.738032 0.319092
0.366910 0.741478 0.316987
0.404418 0.745002 0.314002
0.442544 0.748643 0.309999
0.481358 0.752441 0.304826
0.520904 0.756435 0.298327
0.561194 0.760661 0.290336
0.602203 0.765150 0.280696
0.643864 0.769917 0.269255
0.686074 0.774967 0.255893
0.728716 0.780308 0.240518
0.771729 0.785997 0.223012
0.815205 0.792190 0.203106
0.859293 0.799052 0.180582
0.903335 0.806181 0.156945
0.944576 0.811872 0.137950
0.979794 0.814266 0.130471
0.344467 0.782394 0.322148
0.381148 0.785548 0.319347
0.418272 0.788742 0.315675
0.455895 0.791999 0.311004
0.494062 0.795341 0.305196
0.532798 0.798786 0.298108
0.572102 0.802349 0.289601
0.611945 0.806042 0.279550
0.652274 0.809875 0.267859
0.693015 0.813862 0.254479
0.734091 0.818035 0.239418
0.775439 0.822452 0.222736
0.816997 0.827172 0.204588
0.858542 0.832145 0.185547
0.899289 0.836950 0.167392
0.937686 0.840715 0.153516
0.972318 0.842680 0.147115
0.357078 0.824835 0.323345
0.393346 0.827634 0.320024
0.429967 0.830439 0.315875
0.466981 0.833262 0.310783
0.504420 0.836114 0.304630
0.542296 0.839005 0.297296
0.580607 0.841941 0.288671
0.619333 0.844928 0.278668
0.658433 0.847980 0.267237
0.697853 0.851113 0.254392
0.737519 0.854358 0.240229
0.777334 0.857742 0.224960
0.817132 0.861264 0.209000
0.856583 0.864817 0.193164
0.895065 0.868113 0.178905
0.931726 0.870727 0.168185
0.965908 0.872331 0.162581
0.163071 0.137770 0.219142
0.194156 0.137578 0.218906
0.225302 0.137422 0.218694
0.256652 0.137412 0.218601
0.288437 0.137717 0.218767
0.320990 0.138571 0.219378
0.354704 0.140241 0.220635
0.389911 0.142945 0.222694
0.426686 0.146734 0.225584
