assets/luts/generated/gen_f785c6f5cb3c97c1.cube
# Generated V4 LUT for unit-test-dark
# Palette: (32,0,96) (96,0,32) (0,32,96)
# Strength: 0.100
TITLE "V4 Generative LUT — unit-test-dark"
LUT_3D_SIZE 5
DOMAIN_MIN 0.0 0.0 0.0
DOMAIN_MAX 1.0 1.0 1.0
0.017091 0.003835 0.029270
0.254781 0.001317 0.019098
0.482854 0.000830 0.016512
0.702436 0.001911 0.020849
0.924016 0.002729 0.023451
0.014442 0.230532 0.030222
0.247878 0.228278 0.024040
0.477138 0.227283 0.020775
0.699962 0.227830 0.022404
0.922561 0.228493 0.024142
0.013278 0.456384 0.030534
0.242159 0.455253 0.027784
0.470318 0.454377 0.025502
0.695778 0.454287 0.025131
0.919973 0.454573 0.025651
0.012684 0.681904 0.030608
0.239578 0.681371 0.029247
0.466406 0.680855 0.027935
0.692258 0.680645 0.027293
0.917237 0.680709 0.027251
0.012012 0.907406 0.030779
0.237996 0.907155 0.030044
0.464011 0.906886 0.029299
0.689657 0.906733 0.028806
0.914833 0.906730 0.028634
0.009601 0.005313 0.260283
0.246523 0.001787 0.251886
0.480679 0.001100 0.243417
0.700868 0.002163 0.247165
0.923010 0.002931 0.249255
0.006070 0.233896 0.260230
0.241222 0.229811 0.254163
0.474185 0.227873 0.248137
0.698323 0.228184 0.248688
0.921523 0.228746 0.249927
0.009531 0.457738 0.257927
0.238666 0.456312 0.255217
0.468001 0.455004 0.252191
0.694328 0.454679 0.251190
0.919002 0.454849 0.251345
0.010788 0.682565 0.256843
0.237719 0.681977 0.255500
0.464898 0.681323 0.253975
0.691139 0.680990 0.253067
0.916409 0.680970 0.252818
0.010886 0.907801 0.256509
0.236877 0.907536 0.255783
0.463014 0.907218 0.254964
0.688829 0.907008 0.254360
0.914163 0.906955 0.254078
0.008251 0.005652 0.486293
0.238144 0.002751 0.484301
0.469707 0.002881 0.477608
0.696381 0.003033 0.475782
0.920858 0.003409 0.475929
0.004777 0.234331 0.486088
0.236005 0.231051 0.483140
0.467490 0.229355 0.478351
0.694620 0.229054 0.476523
0.919519 0.229256 0.476421
0.008114 0.458180 0.483901
0.236152 0.457026 0.482018
0.465011 0.455812 0.479373
0.692023 0.455310 0.477863
0.917454 0.455291 0.477451
0.009725 0.682908 0.482564
0.236308 0.682413 0.481475
0.463330 0.681798 0.480068
0.689736 0.681417 0.479043
0.915299 0.681316 0.478581
0.010122 0.908058 0.482016
0.235979 0.907832 0.481385
0.462054 0.907531 0.480611
0.687918 0.907305 0.479973
0.913370 0.907218 0.479608
0.010492 0.005299 0.709406
0.237859 0.004358 0.707979
0.466091 0.003918 0.705187
0.693138 0.003816 0.703242
0.918761 0.003937 0.702498
0.008785 0.232089 0.709322
0.236314 0.231047 0.707835
0.464692 0.230164 0.705340
0.691829 0.229802 0.703565
0.917569 0.229795 0.702832
0.009116 0.457641 0.708439
0.235910 0.457018 0.707268
0.463388 0.456279 0.705529
0.690165 0.455852 0.704179
0.915946 0.455742 0.703507
0.009704 0.682863 0.707630
0.235814 0.682540 0.706842
0.462329 0.682102 0.705765
0.688561 0.681784 0.704852
0.914227 0.681657 0.704312
0.009843 0.908141 0.707212
0.235496 0.907984 0.706716
0.461369 0.907753 0.706074
0.687138 0.907562 0.705496
0.912613 0.907470 0.705113
0.012133 0.005050 0.933013
0.238374 0.004725 0.932097
0.465102 0.004451 0.930642
0.691521 0.004339 0.929336
0.917290 0.004375 0.928532
0.010890 0.231287 0.933019
0.237151 0.230918 0.932127
0.463925 0.230511 0.930761
0.690381 0.230273 0.929543
0.916184 0.230224 0.928788
0.010356 0.457128 0.932713
0.236382 0.456847 0.931967
0.462835 0.456471 0.930889
0.689083 0.456204 0.929909
0.914824 0.456104 0.929268
0.010156 0.682671 0.932369
0.235873 0.682502 0.931821
0.461880 0.682247 0.931069
0.687794 0.682037 0.930365
0.913386 0.681937 0.929872
0.009902 0.908111 0.932183
0.235353 0.908028 0.931816
0.460983 0.907883 0.931330
0.686580 0.907752 0.930864
0.911994 0.907683 0.930520
