assets/luts/generated/gen_4fa7194d50c2b3af.cube
# Generated V4 LUT for Sela Binuy is a professional real estate
# Palette: (99,135,171) (79,67,61) (146,105,82) (186,195,214) (193,140,118) (139,179,244) (252,196,20) (221,173,82)
# Strength: 0.500
TITLE "V4 Generative LUT — Sela Binuy is a professional real estate"
LUT_3D_SIZE 5
DOMAIN_MIN 0.0 0.0 0.0
DOMAIN_MAX 1.0 1.0 1.0
0.163408 0.137797 0.125194
0.290247 0.138890 0.125840
0.426294 0.146437 0.131536
0.574002 0.162744 0.144341
0.721948 0.181196 0.159569
0.175256 0.273080 0.135163
0.300824 0.272293 0.133162
0.458444 0.294347 0.148537
0.632533 0.330470 0.172579
0.795002 0.363388 0.189252
0.219877 0.439879 0.175282
0.363140 0.450379 0.177691
0.536020 0.481453 0.187704
0.721030 0.526797 0.185509
0.900188 0.570346 0.159795
0.297960 0.641070 0.233950
0.452816 0.659175 0.226766
0.621817 0.684489 0.201518
0.807336 0.721390 0.138107
0.984863 0.753944 0.055869
0.360586 0.823812 0.251338
0.509317 0.836040 0.230279
0.663815 0.849084 0.191604
0.822407 0.863575 0.134145
0.969131 0.873789 0.092544
0.163387 0.138138 0.250836
0.288765 0.138069 0.250423
0.428013 0.147820 0.257865
0.583085 0.169372 0.274960
0.732243 0.189485 0.292205
0.173652 0.273110 0.261451
0.283450 0.259186 0.247141
0.467846 0.297796 0.274038
0.649727 0.338795 0.303303
0.807534 0.372042 0.323997
0.220295 0.446790 0.313359
0.358616 0.451574 0.310968
0.538140 0.472111 0.306934
0.725028 0.521744 0.321708
0.895627 0.564597 0.308901
0.293128 0.647419 0.379083
0.442276 0.661144 0.374687
0.611103 0.680012 0.349222
0.793712 0.708994 0.298205
0.948711 0.730236 0.251366
0.352591 0.826151 0.397709
0.497541 0.836516 0.383542
0.649618 0.846930 0.351064
0.805201 0.857182 0.299005
0.952188 0.867080 0.256197
0.167471 0.142449 0.380771
0.296706 0.145725 0.383682
0.439261 0.158706 0.394629
0.592229 0.179619 0.412099
0.740370 0.199093 0.428944
0.185778 0.289172 0.406998
0.318198 0.296376 0.414687
0.489568 0.326517 0.435616
0.660138 0.355438 0.452427
0.813198 0.381630 0.467669
0.229616 0.473361 0.480648
0.358946 0.493794 0.514829
0.526020 0.502731 0.498533
0.745172 0.525826 0.480922
0.876672 0.554458 0.473397
0.285326 0.657833 0.535194
0.417421 0.667951 0.545858
0.583847 0.684277 0.532834
0.761201 0.698553 0.490511
0.908029 0.715158 0.462943
0.342263 0.830205 0.551830
0.479653 0.839877 0.553718
0.623903 0.849854 0.544468
0.770743 0.856638 0.515552
0.914174 0.861329 0.477343
0.174300 0.150363 0.515322
0.308057 0.159398 0.525498
0.449820 0.173904 0.539794
0.597387 0.191219 0.554551
0.744251 0.208701 0.568726
0.201062 0.313372 0.565203
0.338853 0.338457 0.601773
0.487586 0.357579 0.619038
0.652711 0.373622 0.616063
0.807030 0.392155 0.619391
0.236490 0.496836 0.644471
0.345911 0.514928 0.690492
0.487838 0.526145 0.699062
0.700031 0.554855 0.678727
0.853231 0.567196 0.658514
0.283392 0.670296 0.690198
0.405671 0.682330 0.719761
0.559010 0.711615 0.758409
0.733726 0.745760 0.773674
0.871378 0.729906 0.701941
0.334504 0.836236 0.706462
0.463480 0.846626 0.727354
0.598829 0.858828 0.745005
0.740140 0.868206 0.743282
0.881553 0.867029 0.699526
0.180805 0.158120 0.649829
0.316413 0.170326 0.664484
0.456754 0.185379 0.680808
0.600982 0.201248 0.695269
0.746327 0.217497 0.708277
0.212177 0.328312 0.709567
0.350927 0.351889 0.742981
0.496059 0.372033 0.765238
0.649669 0.388727 0.771922
0.800937 0.403521 0.771656
0.249447 0.510759 0.786226
0.381318 0.533915 0.827748
0.527366 0.565208 0.879311
0.685909 0.577787 0.866024
0.838457 0.580950 0.830483
0.292400 0.683949 0.836908
0.419212 0.704549 0.886154
0.532368 0.725253 0.961036
0.712127 0.739832 0.914410
0.856461 0.735873 0.867243
0.332314 0.842127 0.851191
0.455709 0.851562 0.879798
0.583545 0.860361 0.900964
0.727845 0.868718 0.892108
0.868212 0.869138 0.859407
