assets/luts/generated/gen_style_cf864c093efcb71d.cube
# V4 Phase 7 style-brief LUT
# style_category: painterly_prestige
# strength: 0.180
# description: Oil-painting cast — warm shadows (umber), cool desaturated highlights (linen). Painterly skin separation as INTENT.
TITLE "V4 Style LUT — painterly_prestige"
LUT_3D_SIZE 17
DOMAIN_MIN 0.0 0.0 0.0
DOMAIN_MAX 1.0 1.0 1.0
0.058333 0.036796 0.022428
0.109545 0.036755 0.022385
0.160754 0.036711 0.022340
0.211974 0.036678 0.022305
0.263224 0.036678 0.022305
0.314537 0.036746 0.022376
0.365951 0.036925 0.022562
0.417512 0.037263 0.022914
0.469257 0.037802 0.023474
0.521209 0.038564 0.024267
0.573362 0.039546 0.025288
0.625688 0.040717 0.026506
0.678143 0.042026 0.027868
0.730678 0.043424 0.029322
0.783252 0.044864 0.030820
0.835836 0.046316 0.032331
0.888414 0.047762 0.033835
0.058564 0.088297 0.022689
0.109732 0.088208 0.022597
0.160887 0.088105 0.022490
0.212048 0.088008 0.022389
0.263247 0.087953 0.022331
0.314536 0.087996 0.022376
0.365986 0.088213 0.022601
0.417672 0.088687 0.023095
0.469658 0.089488 0.023927
0.521968 0.090640 0.025126
0.574570 0.092110 0.026654
0.627386 0.093813 0.028426
0.680322 0.095646 0.030333
0.733291 0.097517 0.032279
0.786234 0.099360 0.034197
0.839120 0.101142 0.036051
0.891939 0.102852 0.037831
0.058909 0.139923 0.023080
0.110014 0.139766 0.022917
0.161090 0.139577 0.022720
0.212161 0.139382 0.022517
0.263279 0.139238 0.022367
0.314527 0.139236 0.022366
0.366027 0.139508 0.022648
0.417912 0.140198 0.023366
0.470280 0.141414 0.024631
0.523138 0.143163 0.026450
0.576382 0.145331 0.028705
0.629837 0.147730 0.031200
0.683329 0.150169 0.033738
0.736736 0.152517 0.036182
0.789999 0.154711 0.038465
0.843107 0.156737 0.040574
0.896075 0.158613 0.042529
0.059456 0.191768 0.023699
0.110489 0.191531 0.023453
0.161467 0.191236 0.023146
0.212425 0.190919 0.022816
0.263440 0.190663 0.022550
0.314648 0.190618 0.022502
0.366251 0.191002 0.022902
0.418470 0.192056 0.023998
0.471438 0.193923 0.025941
0.525087 0.196532 0.028655
0.579153 0.199595 0.031841
0.633306 0.202755 0.035128
0.687298 0.205741 0.038235
0.741014 0.208428 0.041033
0.794440 0.210804 0.043507
0.847617 0.212912 0.045705
0.900603 0.214817 0.047693
0.060355 0.243996 0.024716
0.111328 0.243695 0.024403
0.162224 0.243309 0.024002
0.213088 0.242890 0.023566
0.264033 0.242559 0.023221
0.315273 0.242547 0.023209
0.367123 0.243200 0.023888
0.419907 0.244868 0.025624
0.473739 0.247676 0.028545
0.528355 0.251339 0.032355
0.583234 0.255288 0.036464
0.637903 0.259012 0.040339
0.692128 0.262256 0.043716
0.745883 0.264994 0.046569
0.799250 0.267314 0.048989
0.852335 0.269335 0.051100
0.905235 0.271163 0.053013
0.061828 0.296848 0.026382
0.112808 0.296554 0.026077
0.163707 0.296173 0.025681
0.214594 0.295779 0.025271
0.265633 0.295549 0.025032
0.317128 0.295815 0.025309
0.369508 0.297045 0.026588
0.423130 0.299626 0.029273
0.477936 0.303495 0.033298
0.533343 0.308020 0.038007
0.588619 0.312406 0.042572
0.643323 0.316175 0.046496
0.697373 0.319238 0.049688
0.750887 0.321725 0.052283
0.804030 0.323818 0.054473
0.856949 0.325681 0.056427
0.909759 0.327439 0.058277
0.064147 0.350623 0.029010
0.115272 0.350487 0.028869
0.166362 0.350313 0.028687
0.217522 0.350215 0.028586
0.268975 0.350437 0.028817
0.321089 0.351377 0.029795
0.374292 0.353503 0.032007
0.428772 0.357019 0.035666
0.484153 0.361519 0.040349
0.539649 0.366146 0.045166
0.594613 0.370202 0.049390
0.648838 0.373460 0.052786
0.702426 0.376036 0.055478
0.755585 0.378158 0.057702
0.808506 0.380040 0.059680
0.861338 0.381844 0.061586
0.914183 0.383686 0.063540
0.067545 0.405574 0.032862
0.118995 0.405793 0.033090
0.170509 0.406082 0.033391
0.222231 0.406596 0.033926
0.274401 0.407599 0.034971
0.327337 0.409436 0.036883
0.381268 0.412357 0.039923
0.436072 0.416232 0.043957
0.491202 0.420466 0.048366
0.546023 0.424370 0.052434
0.600209 0.427592 0.055795
0.653778 0.430157 0.058478
0.706922 0.432276 0.060703
0.759849 0.434183 0.062716
0.812731 0.436069 0.064716
0.865689 0.438071 0.066848
0.918802 0.440277 0.069204
0.072050 0.461742 0.037984
0.123952 0.462455 0.038727
0.176021 0.463350 0.039659
0.228393 0.464575 0.040936
0.281246 0.466326 0.042759
0.334724 0.468758 0.045293
0.388809 0.471854 0.048518
0.443224 0.475316 0.052125
0.497549 0.478687 0.055641
0.551473 0.481632 0.058716
0.604930 0.484085 0.061286
0.658043 0.486186 0.063498
0.711002 0.488150 0.065577
0.763982 0.490174 0.067732
0.817117 0.492410 0.070122
0.870490 0.494953 0.072848
0.924137 0.497841 0.075950
0.077399 0.518852 0.044095
0.129729 0.520037 0.045330
0.182258 0.521439 0.046793
0.235068 0.523150 0.048577
0.288227 0.525242 0.050759
0.341730 0.527713 0.053337
0.395457 0.530434 0.056176
0.449194 0.533175 0.059039
0.502744 0.535723 0.061707
0.556028 0.538002 0.064100
0.609108 0.540085 0.066299
0.662132 0.542145 0.068486
0.715262 0.544367 0.070859
0.768634 0.546908 0.073583
0.822329 0.549860 0.076755
0.876369 0.553245 0.080398
0.930714 0.557012 0.084455
0.083155 0.576454 0.050734
0.135758 0.577949 0.052296
0.188516 0.579614 0.054037
0.241453 0.581478 0.055986
0.294564 0.583536 0.058139
0.347800 0.585737 0.060442
0.401071 0.587985 0.062798
0.454284 0.590185 0.065109
0.507401 0.592301 0.067339
0.560463 0.594388 0.069551
0.613582 0.596580 0.071887
0.666899 0.599044 0.074524
0.720539 0.601925 0.077618
0.774574 0.605306 0.081257
0.829000 0.609177 0.085427
0.883736 0.613436 0.090019
0.938648 0.617916 0.094852
0.089014 0.634254 0.057608
0.141738 0.635903 0.059339
0.194552 0.637654 0.061178
0.247451 0.639503 0.063121
0.300417 0.641435 0.065153
0.353422 0.643420 0.067244
0.406440 0.645434 0.069371
0.459471 0.647487 0.071547
0.512563 0.649640 0.073837
0.565808 0.652006 0.076366
0.619325 0.654727 0.079286
0.673217 0.657928 0.082728
0.727534 0.661663 0.086752
0.782240 0.665888 0.091307
0.837216 0.670450 0.096229
0.892284 0.675131 0.101282
0.947261 0.679705 0.106219
0.095032 0.692368 0.064858
0.147835 0.694140 0.066730
0.200688 0.695974 0.068670
0.253588 0.697870 0.070677
0.306533 0.699829 0.072754
0.359530 0.701861 0.074913
0.412602 0.703999 0.077193
0.465800 0.706310 0.079662
0.519202 0.708889 0.082427
0.572899 0.711846 0.085605
0.626964 0.715268 0.089290
0.681414 0.719177 0.093504
0.736188 0.723491 0.098158
0.791142 0.728034 0.103062
0.846088 0.732572 0.107962
0.900846 0.736881 0.112615
0.955282 0.740797 0.116844
0.101597 0.751283 0.073014
0.154546 0.753269 0.075127
0.207542 0.755317 0.077309
0.260591 0.757438 0.079572
0.313709 0.759654 0.081940
0.366925 0.761999 0.084451
0.420280 0.764527 0.087164
0.473832 0.767308 0.090153
0.527635 0.770410 0.093492
0.581725 0.773875 0.097227
0.636092 0.777689 0.101340
0.690659 0.781756 0.105730
0.745293 0.785910 0.110215
0.799831 0.789951 0.114578
0.854127 0.793696 0.118624
0.908082 0.797023 0.122218
0.961654 0.799879 0.125303
0.109137 0.811517 0.082629
0.162314 0.813816 0.085091
0.215542 0.816184 0.087630
0.268832 0.818637 0.090261
0.322204 0.821196 0.093011
0.375680 0.823894 0.095913
0.429290 0.826764 0.099003
0.483057 0.829833 0.102310
0.536983 0.833106 0.105840
0.591041 0.836548 0.109555
0.645164 0.840074 0.113362
0.699252 0.843560 0.117126
0.753191 0.846867 0.120699
0.806887 0.849876 0.123949
0.860277 0.852509 0.126794
0.913342 0.854743 0.129207
0.966094 0.856593 0.131206
0.117670 0.873074 0.093706
0.171037 0.875633 0.096457
0.224430 0.878231 0.099252
0.277854 0.880874 0.102098
0.331318 0.883571 0.105003
0.384826 0.886328 0.107975
0.438379 0.889146 0.111015
0.491968 0.892012 0.114107
0.545564 0.894891 0.117214
0.599121 0.897725 0.120275
0.652580 0.900441 0.123209
0.705878 0.902961 0.125931
0.758965 0.905221 0.128373
0.811809 0.907183 0.130493
0.864405 0.908840 0.132284
0.916766 0.910209 0.133762
0.968919 0.911321 0.134965
0.126514 0.935093 0.105305
0.179858 0.937645 0.108055
0.233172 0.940165 0.110771
0.286454 0.942649 0.113450
0.339700 0.945093 0.116088
0.392906 0.947491 0.118675
0.446061 0.949828 0.121198
0.499147 0.952084 0.123635
0.552143 0.954230 0.125952
0.605019 0.956231 0.128114
0.657750 0.958053 0.130082
0.710314 0.959670 0.131830
0.762699 0.961068 0.133341
0.814908 0.962249 0.134617
0.866951 0.963227 0.135673
0.918848 0.964024 0.136534
0.970621 0.964667 0.137230
0.058355 0.036821 0.073704
0.109556 0.036767 0.073648
0.160750 0.036707 0.073585
0.211952 0.036655 0.073531
0.263186 0.036637 0.073512
0.314488 0.036693 0.073571
0.365907 0.036877 0.073763
0.417499 0.037249 0.074149
0.469309 0.037858 0.074782
0.521359 0.038728 0.075687
0.573637 0.039845 0.076849
0.626095 0.041159 0.078216
0.678673 0.042603 0.079718
0.731309 0.044110 0.081286
0.783958 0.045632 0.082869
0.836591 0.047137 0.084435
0.889195 0.048612 0.085969
0.058588 0.088324 0.073967
0.109734 0.088211 0.073849
0.160859 0.088075 0.073708
0.211983 0.087938 0.073566
0.263142 0.087840 0.073463
0.314401 0.087849 0.073473
0.365846 0.088061 0.073693
0.417579 0.088586 0.074239
0.469679 0.089510 0.075200
0.522166 0.090855 0.076600
0.574982 0.092557 0.078370
0.628007 0.094488 0.080379
0.681114 0.096508 0.082480
0.734201 0.098506 0.084559
0.787209 0.100421 0.086550
0.840119 0.102229 0.088432
0.892932 0.103933 0.090206
0.058937 0.139954 0.074362
0.110005 0.139756 0.074156
0.161027 0.139508 0.073898
0.212027 0.139236 0.073616
0.263063 0.139003 0.073374
0.314240 0.138923 0.073290
0.365716 0.139170 0.073547
0.417677 0.139943 0.074351
0.470255 0.141387 0.075852
0.523435 0.143486 0.078036
0.577036 0.146042 0.080695
0.630795 0.148771 0.083534
0.684488 0.151430 0.086299
0.737991 0.153883 0.088852
0.791270 0.156094 0.091153
0.844343 0.158083 0.093225
0.897251 0.159895 0.095113
0.059499 0.191814 0.074997
0.110473 0.191515 0.074685
0.161364 0.191124 0.074279
0.212201 0.190676 0.073813
0.263068 0.190259 0.073380
0.314138 0.190064 0.073176
0.365692 0.190394 0.073519
0.418057 0.191606 0.074780
0.471421 0.193905 0.077171
0.525632 0.197125 0.080521
0.580234 0.200771 0.084314
0.634750 0.204325 0.088011
0.688900 0.207483 0.091298
0.742620 0.210176 0.094101
0.795963 0.212462 0.096483
0.849022 0.214444 0.098549
0.901884 0.216216 0.100400
0.060436 0.244084 0.076058
0.111332 0.243699 0.075657
0.162106 0.243181 0.075118
0.212793 0.242569 0.074482
0.263516 0.241996 0.073886
0.314549 0.241760 0.073640
0.366356 0.242365 0.074270
0.419453 0.244374 0.076360
0.473994 0.247954 0.080083
0.529456 0.252536 0.084850
0.584964 0.257169 0.089670
0.639907 0.261190 0.093855
0.694125 0.264428 0.097226
0.747727 0.267000 0.099906
0.800893 0.269104 0.102101
0.853783 0.270915 0.103995
0.906516 0.272565 0.105724
0.061996 0.297030 0.077822
0.112895 0.296649 0.077425
0.163660 0.296121 0.076877
0.214348 0.295511 0.076242
0.265143 0.295016 0.075728
0.316452 0.295080 0.075794
0.368933 0.296419 0.077186
0.423173 0.299672 0.080571
0.478998 0.304649 0.085749
0.535315 0.310163 0.091486
0.591023 0.315019 0.096539
0.645718 0.318778 0.100453
0.699530 0.321582 0.103376
0.752742 0.323743 0.105633
0.805606 0.325537 0.107513
0.858302 0.327161 0.109220
0.910947 0.328745 0.110891
0.064472 0.350976 0.080627
0.115544 0.350783 0.080426
0.166541 0.350508 0.080140
0.217573 0.350270 0.079893
0.268906 0.350361 0.079987
0.321049 0.351333 0.080998
0.374656 0.353898 0.083667
0.429988 0.358340 0.088290
0.486306 0.363857 0.094030
0.542322 0.369050 0.099435
0.597287 0.373105 0.103658
0.651205 0.376030 0.106708
0.704405 0.378185 0.108962
0.757212 0.379928 0.110792
0.809862 0.381519 0.112471
0.862506 0.383128 0.114176
0.915239 0.384860 0.116020
0.068093 0.406171 0.084734
0.119553 0.406400 0.084972
0.171073 0.406695 0.085279
0.222820 0.407237 0.085843
0.275099 0.408357 0.087009
0.328333 0.410517 0.089257
0.382819 0.414042 0.092925
0.438288 0.418638 0.097709
0.493847 0.423337 0.102600
0.548675 0.427246 0.106672
0.602554 0.430132 0.109684
0.655711 0.432247 0.111899
0.708472 0.433954 0.113695
0.761108 0.435549 0.115386
0.813800 0.437240 0.117186
0.866663 0.439153 0.119232
0.919760 0.441361 0.121597
0.072836 0.462599 0.090126
0.124811 0.463391 0.090951
0.176977 0.464392 0.091993
0.229498 0.465778 0.093437
0.282581 0.467778 0.095519
0.336388 0.470566 0.098422
0.390838 0.474057 0.102057
0.445499 0.477783 0.105938
0.499820 0.481143 0.109441
0.553501 0.483819 0.112236
0.606601 0.485880 0.114397
0.659364 0.487601 0.116213
0.712051 0.489274 0.117991
0.764865 0.491130 0.119975
0.817941 0.493321 0.122325
0.871348 0.495926 0.125125
0.925096 0.498955 0.128384
0.078351 0.519893 0.096429
0.130776 0.521181 0.097772
0.183423 0.522711 0.099367
0.236380 0.524580 0.101315
0.289709 0.526855 0.103686
0.343375 0.529499 0.106443
0.397196 0.532317 0.109382
0.450898 0.535012 0.112195
0.504270 0.537359 0.114650
0.557286 0.539339 0.116730
0.610087 0.541115 0.118609
0.662888 0.542935 0.120547
0.715894 0.545034 0.122796
0.769254 0.547584 0.125538
0.823043 0.550671 0.128861
0.877252 0.554279 0.132749
0.931800 0.558307 0.137091
0.084154 0.577551 0.103129
0.136827 0.579121 0.104769
0.189658 0.580864 0.106591
0.242662 0.582799 0.108612
0.295820 0.584904 0.110813
0.349058 0.587101 0.113109
0.402262 0.589267 0.115377
0.455331 0.591300 0.117511
0.508248 0.593188 0.119500
0.561098 0.595037 0.121462
0.614047 0.597044 0.123605
0.667283 0.599430 0.126165
0.720958 0.602373 0.129331
0.775142 0.605951 0.133187
0.829797 0.610116 0.137680
0.884790 0.614701 0.142626
0.939929 0.619468 0.147771
0.089967 0.635311 0.109965
0.142718 0.636988 0.111725
0.195545 0.638751 0.113576
0.248435 0.640588 0.115505
0.301361 0.642470 0.117482
0.354285 0.644357 0.119468
0.407177 0.646225 0.121439
0.460052 0.648095 0.123421
0.512982 0.650062 0.125516
0.566102 0.652289 0.127898
0.619572 0.654968 0.130776
0.673528 0.658260 0.134321
0.728022 0.662225 0.138597
0.782985 0.666774 0.143505
0.838235 0.671681 0.148803
0.893532 0.676650 0.154168
0.948651 0.681402 0.159299
0.095922 0.693372 0.117166
0.148719 0.695137 0.119030
0.201548 0.696943 0.120940
0.254401 0.698784 0.122887
0.307272 0.700655 0.124871
0.360169 0.702570 0.126906
0.413123 0.704571 0.129038
0.466204 0.706746 0.131365
0.519520 0.709228 0.134028
0.573196 0.712168 0.137190
0.627331 0.715686 0.140981
0.681947 0.719805 0.145425
0.736950 0.724408 0.150393
0.792141 0.729248 0.155619
0.847274 0.734020 0.160772
0.902131 0.738454 0.165562
0.956574 0.742382 0.169805
0.102474 0.752298 0.125340
0.155406 0.754265 0.127433
0.208368 0.756275 0.129576
0.261366 0.758337 0.131777
0.314418 0.760476 0.134063
0.367558 0.762733 0.136481
0.420841 0.765178 0.139105
0.474342 0.767903 0.142035
0.528139 0.771002 0.145373
0.582284 0.774540 0.149188
0.636766 0.778502 0.153463
0.691489 0.782764 0.158065
0.746275 0.787110 0.162758
0.800923 0.791288 0.167272
0.855261 0.795087 0.171376
0.909189 0.798383 0.174936
0.962682 0.801143 0.177918
0.110068 0.812620 0.135058
0.163228 0.814902 0.137502
0.216429 0.817239 0.140009
0.269682 0.819650 0.142596
0.323010 0.822161 0.145295
0.376445 0.824811 0.148147
0.430026 0.827648 0.151202
0.483784 0.830712 0.154505
0.537733 0.834016 0.158070
0.591843 0.837524 0.161857
0.646033 0.841136 0.165757
0.700181 0.844699 0.169605
0.754153 0.848047 0.173222
0.807839 0.851045 0.176461
0.861178 0.853617 0.179240
0.914161 0.855751 0.181547
0.966816 0.857482 0.183416
0.118667 0.874275 0.146245
0.172015 0.876814 0.148976
0.225382 0.879383 0.151740
0.278775 0.881991 0.154549
0.332206 0.884651 0.157415
0.385685 0.887374 0.160351
0.439216 0.890167 0.163365
0.492792 0.893020 0.166444
0.546385 0.895896 0.169550
0.599943 0.898733 0.172613
0.653397 0.901443 0.175541
0.706675 0.903940 0.178238
0.759722 0.906152 0.180628
0.812507 0.908042 0.182671
0.865030 0.909609 0.184365
0.917311 0.910880 0.185738
0.969385 0.911895 0.186835
0.127501 0.936293 0.157848
0.180813 0.938808 0.160559
0.234091 0.941286 0.163230
0.287334 0.943724 0.165859
0.340540 0.946121 0.168446
0.393707 0.948472 0.170984
0.446826 0.950766 0.173461
0.499878 0.952981 0.175853
0.552840 0.955086 0.178127
0.605680 0.957043 0.180241
0.658370 0.958815 0.182156
0.710885 0.960373 0.183839
0.763216 0.961704 0.185278
0.815365 0.962813 0.186476
0.867349 0.963716 0.187452
0.919187 0.964441 0.188236
0.970906 0.965019 0.188860
0.058411 0.036881 0.125016
0.109608 0.036824 0.124957
0.160797 0.036757 0.124888
0.211992 0.036698 0.124826
0.263222 0.036676 0.124803
0.314528 0.036737 0.124866
0.365969 0.036945 0.125083
0.417611 0.037371 0.125525
0.469507 0.038073 0.126256
0.521676 0.039072 0.127295
0.574090 0.040338 0.128612
0.626684 0.041799 0.130132
0.679376 0.043367 0.131762
0.732096 0.044966 0.133425
0.784796 0.046544 0.135067
0.837454 0.048076 0.136661
0.890063 0.049556 0.138202
0.058662 0.088405 0.125301
0.109799 0.088282 0.125173
0.160910 0.088130 0.125015
0.212014 0.087972 0.124850
0.263154 0.087852 0.124726
0.314404 0.087852 0.124726
0.365873 0.088090 0.124974
0.417686 0.088703 0.125611
0.469939 0.089793 0.126745
0.522641 0.091371 0.128386
0.575690 0.093327 0.130421
0.628919 0.095480 0.132660
0.682167 0.097653 0.134921
0.735328 0.099732 0.137083
0.788355 0.101667 0.139096
0.841245 0.103454 0.140957
0.894017 0.105115 0.142686
0.059041 0.140066 0.125729
0.110091 0.139850 0.125504
0.161083 0.139569 0.125212
0.212040 0.139250 0.124880
0.263025 0.138962 0.124580
0.314164 0.138841 0.124455
0.365661 0.139110 0.124734
0.417760 0.140033 0.125695
0.470626 0.141789 0.127521
0.524196 0.144312 0.130145
0.578175 0.147280 0.133232
0.632198 0.150297 0.136370
0.686012 0.153086 0.139273
0.739520 0.155545 0.141831
0.792733 0.157685 0.144059
0.845708 0.159569 0.146021
0.898509 0.161267 0.147791
0.059652 0.191981 0.126421
0.110600 0.191653 0.126079
0.161441 0.191208 0.125617
0.212200 0.190675 0.125062
0.262966 0.190148 0.124514
0.313947 0.189856 0.124210
0.365520 0.190207 0.124575
0.418146 0.191702 0.126131
0.472061 0.194600 0.129145
0.526944 0.198551 0.133254
0.582065 0.202762 0.137634
0.636810 0.206564 0.141591
0.690945 0.209707 0.144861
0.744515 0.212238 0.147496
0.797663 0.214313 0.149658
0.850528 0.216086 0.151508
0.903221 0.217676 0.153170
0.060677 0.244346 0.127580
0.111544 0.243929 0.127147
0.162256 0.243344 0.126538
0.212835 0.242615 0.125780
0.263409 0.241879 0.125015
0.314313 0.241503 0.124623
0.366196 0.242192 0.125340
0.419827 0.244781 0.128032
0.475345 0.249422 0.132860
0.531744 0.255022 0.138686
0.587703 0.260147 0.144018
0.642616 0.264136 0.148169
0.696552 0.267067 0.151221
0.749808 0.269264 0.153512
0.802655 0.271024 0.155350
0.855284 0.272555 0.156953
0.907819 0.273993 0.158464
0.062383 0.297451 0.129510
0.113272 0.297059 0.129102
0.163995 0.296487 0.128507
0.214600 0.295785 0.127777
0.265284 0.295169 0.127136
0.316564 0.295202 0.127170
0.369385 0.296910 0.128947
0.424603 0.301226 0.133437
0.481699 0.307585 0.140052
0.538769 0.313917 0.146640
0.594462 0.318757 0.151676
0.648711 0.322031 0.155086
0.701985 0.324251 0.157402
0.754726 0.325902 0.159130
0.807228 0.327305 0.160604
0.859663 0.328652 0.162025
0.912134 0.330056 0.163511
0.065076 0.351632 0.132560
0.116191 0.351486 0.132408
0.167226 0.351253 0.132166
0.218301 0.351063 0.131967
0.269735 0.351263 0.132175
0.322189 0.352572 0.133538
0.376550 0.355956 0.137058
0.433018 0.361633 0.142964
0.490184 0.368071 0.149662
0.546244 0.373310 0.155114
0.600670 0.376778 0.158726
0.653903 0.378957 0.161000
0.706503 0.380461 0.162578
0.758860 0.381720 0.163906
0.811203 0.382985 0.165248
0.863659 0.384400 0.166756
0.916296 0.386043 0.168511
0.068956 0.407111 0.136962
0.120532 0.407467 0.137332
0.172205 0.407927 0.137811
0.224172 0.408708 0.138624
0.276802 0.410210 0.140186
0.330600 0.412983 0.143071
0.385840 0.417326 0.147590
0.441934 0.422599 0.153077
0.497585 0.427393 0.158066
0.551968 0.430815 0.161630
0.605185 0.432977 0.163888
0.657719 0.434416 0.165399
0.710004 0.435607 0.166660
0.762321 0.436864 0.168002
0.814835 0.438375 0.169621
0.867634 0.440239 0.171622
0.920753 0.442496 0.174047
0.073925 0.463787 0.142613
0.126064 0.464757 0.143623
0.178444 0.465989 0.144906
0.231248 0.467683 0.146670
0.284699 0.470082 0.149166
0.338924 0.473324 0.152540
0.393713 0.477179 0.156553
0.448445 0.480975 0.160505
0.502496 0.484036 0.163694
0.555694 0.486179 0.165932
0.608279 0.487676 0.167505
0.660617 0.488935 0.168840
0.713016 0.490302 0.170303
0.765687 0.492019 0.172148
0.818752 0.494223 0.174521
0.872250 0.496962 0.177472
0.926157 0.500202 0.180962
0.079548 0.521202 0.149043
0.132122 0.522651 0.150553
0.184943 0.524370 0.152345
0.238096 0.526450 0.154513
0.291617 0.528932 0.157098
0.345418 0.531719 0.160001
0.399246 0.534537 0.162937
0.452782 0.537040 0.165548
0.505843 0.539038 0.167636
0.558491 0.540608 0.169286
0.610959 0.542018 0.170782
0.663528 0.543590 0.172465
0.716439 0.545603 0.174630
0.769850 0.548238 0.177470
0.823811 0.551555 0.181047
0.878267 0.555480 0.185282
0.933076 0.559840 0.189986
0.085320 0.578833 0.155717
0.138082 0.580500 0.157458
0.190998 0.582334 0.159374
0.244069 0.584338 0.161467
0.297251 0.586465 0.163688
0.350445 0.588605 0.165923
0.403515 0.590615 0.168024
0.456368 0.592400 0.169894
0.509023 0.593988 0.171568
0.561622 0.595555 0.173232
0.614393 0.597369 0.175174
0.667578 0.599713 0.177695
0.721353 0.602797 0.181020
0.775776 0.606685 0.185215
0.830755 0.611258 0.190152
0.886072 0.616251 0.195542
0.941465 0.621337 0.201034
0.091027 0.636489 0.162449
0.143807 0.638198 0.164242
0.196643 0.639970 0.166101
0.249513 0.641779 0.168000
0.302375 0.643584 0.169896
0.355184 0.645337 0.171738
0.407913 0.647014 0.173506
0.460594 0.648659 0.175249
0.513336 0.650410 0.177114
0.566323 0.652489 0.179342
0.619771 0.655154 0.182209
0.673851 0.658612 0.185937
0.728611 0.662914 0.190581
0.783922 0.667901 0.195965
0.839512 0.673232 0.201723
0.895056 0.678511 0.207424
0.950292 0.683411 0.212716
0.096892 0.694471 0.169574
0.149684 0.696231 0.171433
0.202486 0.698006 0.173310
0.255285 0.699783 0.175191
0.308071 0.701556 0.177069
0.360853 0.703337 0.178962
0.413675 0.705183 0.180930
0.466629 0.707212 0.183100
0.519860 0.709597 0.185662
0.573535 0.712545 0.188836
0.627787 0.716216 0.192794
0.682636 0.720630 0.197558
0.737938 0.725607 0.202932
0.793409 0.730796 0.208538
0.848730 0.735803 0.213947
0.903652 0.740320 0.218826
0.958048 0.744192 0.223010
0.103433 0.753413 0.177774
0.156352 0.755367 0.179855
0.209285 0.757345 0.181964
0.262236 0.759354 0.184110
0.315225 0.761420 0.186319
0.368292 0.763594 0.188648
0.421508 0.765962 0.191191
0.474968 0.768643 0.194076
0.528778 0.771764 0.197439
0.583008 0.775412 0.201374
0.637645 0.779568 0.205860
0.692555 0.784066 0.210718
0.747509 0.788621 0.215638
0.802251 0.792918 0.220281
0.856593 0.796723 0.224392
0.910445 0.799926 0.227853
0.963809 0.802530 0.230666
0.111093 0.813839 0.187612
0.164246 0.816116 0.190052
0.217429 0.818436 0.192540
0.270655 0.820817 0.195098
0.323951 0.823293 0.197760
0.377357 0.825911 0.200578
0.430921 0.828731 0.203617
0.484686 0.831807 0.206934
0.538673 0.835161 0.210554
0.592847 0.838752 0.214430
0.647110 0.842455 0.218431
0.701311 0.846086 0.222353
0.755293 0.849448 0.225985
0.808935 0.852393 0.229168
0.862186 0.854857 0.231830
0.915052 0.856848 0.233981
0.967581 0.858423 0.235683
0.119759 0.875594 0.198913
0.173097 0.878125 0.201635
0.226448 0.880677 0.204383
0.279820 0.883262 0.207167
0.333228 0.885895 0.210006
0.386686 0.888595 0.212918
0.440202 0.891372 0.215914
0.493770 0.894217 0.218985
0.547360 0.897092 0.222090
0.600912 0.899923 0.225148
0.654348 0.902613 0.228055
0.707588 0.905062 0.230701
0.760571 0.907197 0.233007
0.813273 0.908984 0.234939
0.865700 0.910434 0.236506
0.917883 0.911585 0.237749
0.969864 0.912485 0.238723
0.128563 0.937587 0.210492
0.181849 0.940073 0.213172
0.235096 0.942514 0.215804
0.288304 0.944911 0.218390
0.341474 0.947265 0.220930
0.394604 0.949572 0.223421
0.447686 0.951822 0.225851
0.500701 0.953992 0.228195
0.553623 0.956049 0.230417
0.606418 0.957951 0.232472
0.659055 0.959658 0.234316
0.711508 0.961140 0.235918
0.763770 0.962387 0.237266
0.815848 0.963407 0.238368
0.867761 0.964223 0.239250
0.919533 0.964867 0.239946
0.971193 0.965372 0.240492
0.058508 0.036987 0.176376
0.109713 0.036938 0.176326
0.160911 0.036881 0.176267
0.212118 0.036834 0.176218
0.263364 0.036830 0.176214
0.314699 0.036922 0.176309
0.366188 0.037183 0.176580
0.417907 0.037693 0.177110
0.469912 0.038513 0.177964
0.522214 0.039658 0.179154
