assets/luts/generated/gen_7e9d2ac5de6186a2.cube
# Generated V4 LUT for unit-test-warm-earth
# Palette: (245,230,211) (196,137,111) (107,68,35)
# Strength: 0.180
TITLE "V4 Generative LUT — unit-test-warm-earth"
LUT_3D_SIZE 9
DOMAIN_MIN 0.0 0.0 0.0
DOMAIN_MAX 1.0 1.0 1.0
0.075856 0.048253 0.024985
0.178359 0.048256 0.024988
0.280865 0.048261 0.024993
0.383419 0.048302 0.025039
0.486123 0.048460 0.025213
0.589153 0.048871 0.025666
0.692721 0.049700 0.026579
0.796962 0.051052 0.028067
0.901846 0.052904 0.030107
0.076185 0.151008 0.025266
0.178628 0.150964 0.025217
0.281036 0.150893 0.025139
0.383508 0.150871 0.025115
0.486325 0.151117 0.025386
0.590017 0.152042 0.026405
0.695152 0.154089 0.028659
0.801796 0.157310 0.032206
0.909337 0.161235 0.036529
0.076965 0.254114 0.025933
0.179279 0.253970 0.025775
0.281453 0.253717 0.025496
0.383702 0.253523 0.025281
0.486789 0.253978 0.025784
0.592220 0.256257 0.028293
0.701094 0.261216 0.033754
0.812065 0.267821 0.041028
0.922601 0.274123 0.047966
0.079022 0.358215 0.027696
0.181273 0.358023 0.027484
0.283276 0.357637 0.027059
0.385569 0.357477 0.026883
0.490070 0.359036 0.028600
0.599919 0.364767 0.034911
0.714572 0.374267 0.045371
0.828345 0.383145 0.055144
0.938521 0.389329 0.061945
0.084368 0.464899 0.032303
0.187281 0.465230 0.032667
0.290316 0.465656 0.033136
0.394798 0.467216 0.034853
0.503723 0.472264 0.040410
0.618364 0.481826 0.050936
0.733129 0.491574 0.061662
0.843523 0.498072 0.068802
0.950621 0.502276 0.073405
0.095867 0.576546 0.042367
0.200859 0.578563 0.044586
0.306846 0.581383 0.047687
0.415045 0.585981 0.052742
0.526042 0.592851 0.060297
0.637524 0.600218 0.068393
0.746526 0.605837 0.074558
0.853099 0.609949 0.079044
0.958715 0.613972 0.083404
0.112964 0.693321 0.058046
0.219630 0.696947 0.062022
0.326909 0.701145 0.066624
0.434768 0.705912 0.071847
0.542580 0.710783 0.077180
0.649505 0.715184 0.081984
0.755463 0.719281 0.086434
0.861148 0.723968 0.091498
0.967224 0.729986 0.097983
0.129893 0.812112 0.075849
0.236247 0.816223 0.080327
0.342515 0.820428 0.084902
0.448580 0.824648 0.089486
0.554342 0.828868 0.094060
0.659891 0.833316 0.098866
0.765533 0.838467 0.104419
0.871534 0.844642 0.111068
0.977790 0.851499 0.118445
0.143995 0.932424 0.095163
0.249709 0.937026 0.100139
0.355247 0.941617 0.105097
0.460617 0.946194 0.110034
0.565869 0.950823 0.115022
0.671086 0.955605 0.120171
0.776304 0.960543 0.125484
0.881423 0.965390 0.130699
0.986239 0.969717 0.135353
0.075890 0.048279 0.127514
0.178386 0.048277 0.127511
0.280880 0.048272 0.127506
0.383425 0.048307 0.127544
0.486154 0.048485 0.127740
0.589313 0.048995 0.128302
0.693182 0.050058 0.129472
0.797884 0.051767 0.131355
0.903265 0.054006 0.133820
0.076248 0.151057 0.127820
0.178658 0.150987 0.127743
0.280999 0.150864 0.127607
0.383381 0.150773 0.127506
0.486187 0.151010 0.127768
0.590224 0.152203 0.129081
0.696317 0.154993 0.132155
0.804223 0.159195 0.136782
0.912645 0.163807 0.141862
0.077104 0.254222 0.128552
0.179322 0.254003 0.128311
0.281278 0.253581 0.127846
0.383175 0.253113 0.127330
0.486091 0.253436 0.127686
0.592650 0.256590 0.131160
0.704431 0.263806 0.139107
0.817614 0.272132 0.148276
0.928275 0.278542 0.155332
0.079400 0.358509 0.130520
0.181491 0.358193 0.130171
0.283080 0.357485 0.129392
0.384681 0.356785 0.128621
0.489271 0.358412 0.130413
0.602907 0.367084 0.139963
0.722227 0.380204 0.154411
0.836017 0.389089 0.164191
0.944152 0.393703 0.169262
0.085408 0.465716 0.135702
0.188312 0.466039 0.136058
0.291230 0.466372 0.136424
0.395901 0.468075 0.138299
0.507113 0.474897 0.145810
0.625796 0.487576 0.159770
0.740732 0.497389 0.170570
0.848710 0.501956 0.175586
0.953818 0.504655 0.178529
0.098001 0.578256 0.146748
0.203343 0.580556 0.149277
0.309878 0.583806 0.152852
0.419056 0.589156 0.158737
0.531158 0.596829 0.167179
0.642423 0.603877 0.174930
0.749887 0.608106 0.179571
0.855008 0.611012 0.182733
0.959884 0.614659 0.186671
0.115596 0.695581 0.163025
0.222459 0.699395 0.167207
0.329880 0.703712 0.171940
0.437687 0.708383 0.177060
0.545054 0.712743 0.181837
0.651158 0.716238 0.185654
0.756295 0.719475 0.189167
0.861594 0.723963 0.194007
0.967870 0.730703 0.201263
0.132053 0.814376 0.180816
0.238326 0.818491 0.185296
0.344421 0.822581 0.189744
0.450194 0.826520 0.194020
0.555567 0.830300 0.198116
0.660734 0.834307 0.202443
0.766198 0.839341 0.207866
0.872350 0.845958 0.214987
0.978918 0.853502 0.223102
0.145707 0.934852 0.200289
0.251335 0.939455 0.205263
0.356754 0.943978 0.210144
0.461978 0.948422 0.214936
0.567085 0.952892 0.219751
0.672197 0.957562 0.224778
0.777373 0.962481 0.230070
0.882472 0.967328 0.235283
0.987208 0.971527 0.239800
0.075967 0.048339 0.230080
0.178481 0.048350 0.230092
0.281001 0.048366 0.230109
0.383594 0.048438 0.230188
0.486433 0.048701 0.230478
0.589835 0.049400 0.231248
0.694132 0.050795 0.232785
0.799376 0.052925 0.235130
0.905231 0.055532 0.238002
0.076419 0.151190 0.230466
0.178863 0.151146 0.230418
0.281246 0.151056 0.230318
0.383714 0.151031 0.230291
0.486784 0.151474 0.230778
0.591578 0.153254 0.232739
0.699049 0.157114 0.236990
0.808215 0.162295 0.242697
0.917044 0.167229 0.248130
0.077504 0.254533 0.231394
0.179802 0.254376 0.231222
0.281850 0.254026 0.230835
0.383922 0.253693 0.230470
0.487570 0.254585 0.231451
0.596710 0.259743 0.237132
0.712087 0.269751 0.248155
0.825836 0.278521 0.257812
0.934816 0.283639 0.263445
0.080351 0.359250 0.233836
0.182708 0.359140 0.233715
0.284689 0.358737 0.233271
0.387106 0.358673 0.233200
0.494448 0.362439 0.237348
0.614389 0.376004 0.252287
0.735041 0.390134 0.267848
0.844641 0.395748 0.274027
0.949378 0.397753 0.276224
0.087470 0.467333 0.239983
0.191112 0.468236 0.240976
0.295320 0.469578 0.242454
0.402542 0.473272 0.246520
0.518001 0.483386 0.257658
0.637864 0.496898 0.272538
0.748709 0.503397 0.279696
0.853041 0.505068 0.281525
0.956275 0.506418 0.282978
0.101282 0.580892 0.252148
0.207550 0.583939 0.255498
0.315339 0.588189 0.260173
0.425758 0.594496 0.267112
0.537809 0.602016 0.275390
0.647141 0.607294 0.281204
0.752390 0.609495 0.283626
0.856156 0.611269 0.285544
0.960689 0.615068 0.289631
0.118865 0.698428 0.268647
0.225999 0.702520 0.273132
0.333494 0.706929 0.277965
0.440950 0.711272 0.282726
0.547459 0.714749 0.286539
0.652468 0.717014 0.289020
0.756729 0.719254 0.291449
0.861875 0.723881 0.296431
0.968845 0.732185 0.305363
0.134451 0.817004 0.286177
0.240648 0.821182 0.290721
0.346564 0.825216 0.295102
0.452044 0.828937 0.299139
0.557050 0.832360 0.302844
0.661899 0.836036 0.306811
0.767319 0.841178 0.312347
0.873828 0.848589 0.320320
0.980763 0.856900 0.329258
0.147588 0.937637 0.305798
0.253170 0.942329 0.310865
0.358526 0.946895 0.315789
0.463679 0.951341 0.320581
0.568721 0.955798 0.325380
0.673794 0.960472 0.330410
0.778946 0.965395 0.335705
0.883953 0.970099 0.340764
0.988465 0.973890 0.344840
0.076101 0.048443 0.332694
0.178669 0.048496 0.332752
0.281273 0.048576 0.332841
0.384006 0.048757 0.333040
0.487084 0.049206 0.333534
0.590869 0.050203 0.334632
0.695679 0.051995 0.336606
0.801421 0.054513 0.339379
0.907603 0.057376 0.342532
0.076736 0.151436 0.333237
0.179315 0.151498 0.333305
0.281926 0.151584 0.333400
0.384801 0.151875 0.333720
0.488628 0.152904 0.334854
0.594680 0.155662 0.337891
0.703539 0.160600 0.343330
0.813286 0.166236 0.349537
0.921762 0.170905 0.354678
0.078249 0.255111 0.334531
0.180903 0.255231 0.334663
0.283589 0.255376 0.334823
0.386914 0.256017 0.335529
0.493069 0.258856 0.338655
0.605897 0.266878 0.347491
0.722517 0.277854 0.359579
0.833921 0.284811 0.367239
0.940358 0.287978 0.370723
0.082018 0.360549 0.337767
0.185244 0.361116 0.338391
0.288882 0.362003 0.339368
0.394684 0.364574 0.342198
0.507890 0.372899 0.351367
0.630332 0.388387 0.368425
0.745441 0.398178 0.379209
0.850322 0.400127 0.381351
0.952790 0.400440 0.381681
0.090626 0.469814 0.345213
0.195779 0.471905 0.347516
0.302586 0.475287 0.351239
0.413627 0.481967 0.358594
0.530813 0.493392 0.371175
0.646265 0.503347 0.382145
0.752749 0.506316 0.385420
0.855131 0.506448 0.385555
0.957698 0.507521 0.386692
0.105468 0.584279 0.358372
0.212892 0.588277 0.362768
0.321853 0.593488 0.368499
0.432489 0.599962 0.375622
0.542790 0.605985 0.382257
0.649675 0.609058 0.385656
0.753331 0.609670 0.386342
0.856520 0.611019 0.387792
0.961538 0.616075 0.393225
0.122437 0.701631 0.374656
0.229739 0.705969 0.379407
0.337078 0.710354 0.384209
0.443912 0.714235 0.388460
0.549477 0.716856 0.391337
0.653559 0.718107 0.392713
0.757261 0.719710 0.394449
0.862881 0.725453 0.400628
0.971240 0.736507 0.412514
0.136966 0.819948 0.391876
0.243111 0.824296 0.396597
0.348915 0.828458 0.401111
0.454259 0.832287 0.405257
0.559178 0.835859 0.409116
0.664091 0.839878 0.413448
0.769881 0.845852 0.419876
0.876919 0.854341 0.429006
0.983824 0.862638 0.437928
0.149615 0.940789 0.411700
0.255216 0.945688 0.416985
0.360602 0.950465 0.422135
0.465808 0.955141 0.427171
0.570929 0.959841 0.432229
0.676071 0.964709 0.437466
0.781180 0.969587 0.442713
0.885911 0.973787 0.447230
0.989956 0.976704 0.450367
0.076299 0.048597 0.435363
0.178958 0.048720 0.435499
0.281710 0.048915 0.435714
0.384676 0.049277 0.436113
0.488104 0.049997 0.436905
0.592343 0.051347 0.438392
0.697614 0.053497 0.440761
0.803679 0.056267 0.443811
0.909995 0.059237 0.447082
0.077210 0.151804 0.436142
0.180034 0.152056 0.436419
0.283062 0.152465 0.436870
0.386643 0.153305 0.437795
0.491562 0.155182 0.439863
0.598857 0.158906 0.443964
0.708346 0.164337 0.449945
0.817790 0.169745 0.455901
0.925593 0.173904 0.460480
0.079349 0.255967 0.437973
0.182622 0.256567 0.438635
0.286422 0.257578 0.439748
0.391735 0.259765 0.442156
0.500747 0.264826 0.447730
0.614983 0.273947 0.457775
0.729410 0.283229 0.467998
0.838364 0.288303 0.473583
0.943524 0.290519 0.476017
0.084339 0.362360 0.442260
0.188862 0.363939 0.443999
0.294787 0.366611 0.446942
0.404164 0.371971 0.452844
0.519684 0.382102 0.464001
0.637558 0.394040 0.477149
0.747962 0.400178 0.483910
0.851818 0.401375 0.485222
0.954219 0.401768 0.485633
0.094534 0.472898 0.451108
0.201365 0.476320 0.454874
0.310385 0.481459 0.460531
0.422800 0.489238 0.469095
0.537237 0.498517 0.479314
0.648009 0.504788 0.486227
0.752957 0.506520 0.488143
0.855500 0.506893 0.488539
0.958658 0.508909 0.490693
0.109945 0.587954 0.464911
0.218171 0.592659 0.470082
0.327419 0.598185 0.476154
0.437044 0.603939 0.482482
0.545248 0.608336 0.487326
0.650549 0.610101 0.489289
0.753703 0.610256 0.489475
0.857384 0.612537 0.491927
0.963932 0.620418 0.500398
0.125919 0.704913 0.480745
0.233200 0.709426 0.485680
0.340231 0.713795 0.490454
0.446529 0.717519 0.494521
0.551637 0.720098 0.497338
0.655652 0.721724 0.499108
0.759974 0.724694 0.502311
0.867326 0.733761 0.512063
0.976883 0.747085 0.526391
0.139500 0.823166 0.497865
0.245658 0.827854 0.502946
0.351521 0.832478 0.507951
0.457066 0.837019 0.512856
0.562459 0.841742 0.517948
0.668210 0.847504 0.524151
0.774978 0.855411 0.532657
0.882151 0.864196 0.542105
0.987858 0.870248 0.548612
0.151750 0.944257 0.517939
0.257428 0.949467 0.523556
0.362930 0.954603 0.529089
0.468297 0.959691 0.534566
0.573597 0.964803 0.540067
0.678829 0.969885 0.545534
0.783755 0.974443 0.550435
0.887969 0.977676 0.553912
0.991380 0.979397 0.555762
0.076555 0.048795 0.538082
0.179337 0.049015 0.538323
0.282277 0.049356 0.538699
0.385523 0.049934 0.539336
0.489318 0.050939 0.540443
0.593946 0.052591 0.542263
0.699502 0.054965 0.544877
0.805688 0.057831 0.548033
0.912018 0.060815 0.551320
0.077821 0.152278 0.539164
0.180961 0.152775 0.539712
0.284496 0.153579 0.540597
0.388837 0.155009 0.542172
0.494670 0.157598 0.545023
0.602542 0.161773 0.549621
0.711791 0.167024 0.555404
0.820603 0.171954 0.560833
0.927967 0.175790 0.565055
0.080724 0.257036 0.541651
0.184729 0.258207 0.542940
0.289701 0.260130 0.545058
0.396623 0.263571 0.548848
0.506769 0.269521 0.555401
0.619690 0.277638 0.564339
0.731488 0.284905 0.572341
0.839422 0.289229 0.577099
0.944651 0.291564 0.579661
0.087044 0.364474 0.547088
0.192845 0.367056 0.549931
0.300510 0.371096 0.554380
0.411250 0.377539 0.561474
0.525103 0.386408 0.571239
0.638312 0.394772 0.580450
0.746739 0.399458 0.585607
0.851271 0.401318 0.587643
0.954662 0.402711 0.589146
0.098613 0.476138 0.557174
0.206621 0.480518 0.561993
0.316452 0.486348 0.568408
0.427965 0.493502 0.576280
0.539225 0.500411 0.583885
0.647458 0.504871 0.588796
0.752322 0.506813 0.590931
0.855950 0.508540 0.592796
0.960405 0.512389 0.596931
0.114118 0.591466 0.571267
0.222585 0.596485 0.576777
0.331425 0.601862 0.582680
0.439860 0.606925 0.588236
0.546807 0.610716 0.592396
0.651818 0.612891 0.594782
0.755914 0.614928 0.596990
0.861640 0.620823 0.603333
0.969989 0.631859 0.615201
0.129077 0.708112 0.586735
0.236241 0.712822 0.591875
0.343053 0.717435 0.596900
0.449265 0.721739 0.601577
0.554843 0.725793 0.605968
0.660381 0.730597 0.611152
0.767544 0.739016 0.620212
0.877109 0.752239 0.634433
0.984919 0.762237 0.645186
0.142001 0.826618 0.604100
0.248272 0.831837 0.609747
0.354391 0.837262 0.615606
0.460463 0.843063 0.621862
0.566772 0.849704 0.629013
0.673728 0.857851 0.637779
0.781146 0.867040 0.647663
0.887314 0.873947 0.655090
0.991197 0.876557 0.657896
0.153919 0.947908 0.624373
0.259694 0.953448 0.630343
0.365322 0.958938 0.636254
0.470825 0.964368 0.642097
0.576202 0.969680 0.647813
0.681318 0.974574 0.653076
0.785835 0.978371 0.657159
0.889465 0.980506 0.659455
0.992357 0.981246 0.660251
0.076857 0.049030 0.640840
0.179776 0.049355 0.641198
0.282913 0.049849 0.641743
0.386421 0.050631 0.642604
0.490512 0.051867 0.643965
0.595386 0.053710 0.645995
0.701049 0.056169 0.648703
0.807227 0.059033 0.651857
0.913534 0.062005 0.655130
0.078524 0.152824 0.642265
0.181994 0.153577 0.643095
0.286000 0.154747 0.644384
0.390923 0.156630 0.646458
0.497228 0.159590 0.649717
0.605067 0.163745 0.654293
0.713733 0.168556 0.659591
0.821997 0.173078 0.664569
0.929194 0.176810 0.668676
0.082238 0.258214 0.645448
0.186916 0.259910 0.647316
0.292757 0.262514 0.650184
0.400436 0.266553 0.654631
0.510340 0.272334 0.660996
0.621480 0.279097 0.668444
0.731524 0.285052 0.674997
0.839126 0.289190 0.679547
0.944837 0.291996 0.682624
0.089810 0.366643 0.651976
0.196537 0.369961 0.655629
0.305002 0.374650 0.660790
0.415513 0.380957 0.667733
0.527189 0.388206 0.675712
0.637693 0.394589 0.682735
0.745334 0.398862 0.687429
0.850664 0.401621 0.690442
0.955146 0.404201 0.693237
0.102390 0.479173 0.663012
0.210919 0.484019 0.668342
0.320586 0.489817 0.674717
0.430752 0.496071 0.681592
0.540041 0.501706 0.687782
0.647300 0.505878 0.692355
0.752782 0.509080 0.695844
0.857896 0.513038 0.700117
0.963709 0.518880 0.706407
0.117706 0.594605 0.677208
0.226045 0.599700 0.682795
0.334338 0.604923 0.688516
0.442047 0.609877 0.693932
0.548767 0.614329 0.698783
0.654759 0.618855 0.703688
0.761311 0.625508 0.710860
0.869709 0.636214 0.722381
0.977921 0.646813 0.733783
0.131873 0.711201 0.692597
0.238948 0.716228 0.698068
0.345767 0.721435 0.703722
0.452359 0.727000 0.709745
0.559088 0.733595 0.716862
0.666840 0.742747 0.726718
0.776354 0.755639 0.740588
0.885244 0.767582 0.753433
0.990103 0.772012 0.758197
0.144440 0.830227 0.710500
0.250891 0.836078 0.716820
0.357346 0.842398 0.723638
0.463957 0.849419 0.731201
0.570924 0.857433 0.739827
0.678217 0.866288 0.749353
0.784961 0.874238 0.757903
0.889773 0.878592 0.762585
0.992675 0.879350 0.763400
0.156021 0.951539 0.730784
0.261847 0.957300 0.736989
0.367506 0.962942 0.743062
0.472975 0.968370 0.748903
0.578175 0.973386 0.754298
0.682914 0.977585 0.758814
0.786932 0.980444 0.761889
0.890143 0.981789 0.763335
0.992788 0.982064 0.763630
0.077189 0.049287 0.743623
0.180242 0.049716 0.744096
0.283557 0.050349 0.744793
0.387277 0.051296 0.745836
0.491570 0.052689 0.747370
0.596564 0.054628 0.749506
0.702232 0.057093 0.752221
0.808354 0.059918 0.755331
0.914639 0.062882 0.758594
0.079271 0.153404 0.745404
0.183037 0.154388 0.746488
0.287410 0.155844 0.748092
0.392687 0.158006 0.750472
0.499132 0.161078 0.753856
0.606699 0.165032 0.758210
0.714819 0.169435 0.763057
0.822690 0.173675 0.767724
0.929839 0.177403 0.771825
0.083768 0.259407 0.749262
0.188963 0.261509 0.751577
0.295311 0.264515 0.754887
0.403153 0.268696 0.759490
0.512425 0.274012 0.765342
0.622238 0.279790 0.771701
0.731246 0.285009 0.777443
0.838714 0.289143 0.781983
0.944863 0.292413 0.785566
0.092409 0.368691 0.756731
0.199667 0.372443 0.760861
0.308290 0.377293 0.766197
0.418110 0.383127 0.772617
0.528233 0.389278 0.779381
0.637340 0.394762 0.785405
0.744711 0.399115 0.790175
0.850690 0.402754 0.794141
0.956043 0.406390 0.798083
0.105666 0.481849 0.768453
0.214268 0.486833 0.773931
0.323449 0.492383 0.780027
0.432590 0.498059 0.786256
0.540914 0.503333 0.792032
0.648061 0.508102 0.797233
0.754462 0.513066 0.802614
0.860907 0.519181 0.809215
0.967485 0.526124 0.816695
0.120706 0.597367 0.782732
0.228796 0.602491 0.788340
0.336689 0.607757 0.794093
0.444153 0.613119 0.799932
0.551247 0.618909 0.806210
0.658559 0.626176 0.814057
0.766950 0.636266 0.824927
0.875839 0.647797 0.837337
0.982650 0.655708 0.845848
0.134363 0.714198 0.798351
0.241423 0.719651 0.804272
0.348403 0.725625 0.810742
0.455503 0.732525 0.818194
0.563144 0.741081 0.827415
0.671747 0.751948 0.839114
0.780673 0.763772 0.851834
0.887554 0.771937 0.860616
0.991328 0.774321 0.863180
0.146767 0.833854 0.816914
0.253383 0.840266 0.823833
0.360070 0.847232 0.831342
0.466899 0.854814 0.839506
0.573833 0.862861 0.848165
0.680502 0.870586 0.856475
0.786121 0.876425 0.862755
0.890114 0.879236 0.865778
0.992833 0.879649 0.866222
0.157953 0.954936 0.836942
0.263737 0.960717 0.843166
0.369283 0.966220 0.849088
0.474530 0.971274 0.854525
0.579370 0.975632 0.859214
0.683654 0.978981 0.862815
0.787269 0.981082 0.865075
0.890263 0.982015 0.866078
0.992853 0.982186 0.866261
0.077535 0.049555 0.846419
0.180711 0.050080 0.846997
0.284176 0.050830 0.847823
0.388055 0.051901 0.849002
0.492476 0.053394 0.850647
0.597522 0.055375 0.852829
0.703159 0.057821 0.855522
0.809224 0.060607 0.858590
0.915498 0.063571 0.861853
0.080024 0.153990 0.848549
0.184035 0.155165 0.849844
0.288669 0.156826 0.851673
0.394137 0.159139 0.854220
0.500569 0.162208 0.857600
0.607852 0.165954 0.861724
0.715564 0.170059 0.866242
0.823165 0.174118 0.870708
0.930299 0.177873 0.874837
0.085237 0.260555 0.853026
0.190792 0.262943 0.855655
0.297387 0.266152 0.859189
0.405142 0.270285 0.863738
0.513831 0.275181 0.869127
0.622782 0.280343 0.874805
0.731180 0.285171 0.880112
0.838576 0.289360 0.884708
0.945033 0.293002 0.888694
0.094753 0.370551 0.861277
0.202253 0.374520 0.865644
0.310750 0.379318 0.870923
0.419918 0.384725 0.876868
0.529070 0.390251 0.882938
0.637463 0.395391 0.888575
0.744775 0.400002 0.893614
0.851210 0.404351 0.898347
0.957145 0.408750 0.903116
0.108450 0.484173 0.873505
0.216912 0.489145 0.878966
0.325615 0.494476 0.884815
0.434106 0.499899 0.890754
0.542013 0.505264 0.896611
0.649318 0.510792 0.902620
0.756377 0.517036 0.909378
0.863447 0.524173 0.917079
0.970165 0.531225 0.924680
0.123236 0.599834 0.887926
0.231087 0.605019 0.893592
0.338746 0.610481 0.899543
0.446197 0.616410 0.905981
0.553674 0.623318 0.913455
0.661618 0.631944 0.922761
0.770123 0.642282 0.933896
0.878068 0.652027 0.944386
0.983993 0.658252 0.951084
0.136605 0.717097 0.903993
0.243690 0.722990 0.910379
0.350829 0.729624 0.917552
0.458218 0.737344 0.925882
0.566046 0.746429 0.935669
0.674164 0.756478 0.946485
0.781645 0.765613 0.956314
0.887265 0.771406 0.962545
0.990913 0.773545 0.964846
0.148922 0.837332 0.923165
0.255612 0.844094 0.930456
0.362326 0.851274 0.938192
0.469008 0.858694 0.946180
0.575461 0.865900 0.953934
0.681298 0.872083 0.960585
0.786088 0.876365 0.965191
0.889715 0.878484 0.967469
0.992509 0.879036 0.968063
0.159646 0.957945 0.942681
0.265287 0.963540 0.948704
0.370608 0.968671 0.954225
0.475536 0.973153 0.959047
0.579987 0.976792 0.962961
0.683892 0.979430 0.965798
0.787247 0.981041 0.967530
0.890146 0.981795 0.968341
0.992757 0.982005 0.968567
