assets/luts/generated/gen_f785c6f5cb3c97c1.cube
# Generated V4 LUT for unit-test-dark
# Palette: (32,0,96) (96,0,32) (0,32,96)
# Strength: 0.100
TITLE "V4 Generative LUT — unit-test-dark"
LUT_3D_SIZE 9
DOMAIN_MIN 0.0 0.0 0.0
DOMAIN_MAX 1.0 1.0 1.0
0.017091 0.003835 0.029270
0.134807 0.002675 0.025214
0.254781 0.001317 0.019098
0.371538 0.000606 0.015551
0.482854 0.000830 0.016512
0.592484 0.001380 0.018833
0.702436 0.001911 0.020849
0.812988 0.002357 0.022351
0.924016 0.002729 0.023451
0.015677 0.117248 0.029770
0.133026 0.116005 0.026165
0.252228 0.114538 0.020930
0.368870 0.113711 0.017615
0.481003 0.113797 0.017896
0.591323 0.114263 0.019610
0.701644 0.114758 0.021294
0.812376 0.115192 0.022629
0.923492 0.115560 0.023644
0.014442 0.230532 0.030222
0.130608 0.229500 0.027588
0.247878 0.228278 0.024040
0.363834 0.227461 0.021401
0.477138 0.227283 0.020775
0.588788 0.227493 0.021415
0.699962 0.227830 0.022404
0.811176 0.228175 0.023345
0.922561 0.228493 0.024142
0.013697 0.343546 0.030453
0.128745 0.342801 0.028650
0.244426 0.341909 0.026361
0.359554 0.341211 0.024431
0.473321 0.340890 0.023485
0.585907 0.340881 0.023408
0.697871 0.341041 0.023785
0.809617 0.341267 0.024312
0.921340 0.341509 0.024847
0.013278 0.456384 0.030534
0.127530 0.455872 0.029294
0.242159 0.455253 0.027784
0.356577 0.454712 0.026406
0.470318 0.454377 0.025502
0.583316 0.454255 0.025125
0.695778 0.454287 0.025131
0.807943 0.454408 0.025345
0.919973 0.454573 0.025651
0.012976 0.569153 0.030567
0.126700 0.568803 0.029693
0.240658 0.568378 0.028660
0.354542 0.567980 0.027673
0.468085 0.567690 0.026921
0.581184 0.567535 0.026477
0.693890 0.567499 0.026307
0.806319 0.567547 0.026330
0.918579 0.567648 0.026469
0.012684 0.681904 0.030608
0.126057 0.681663 0.029976
0.239578 0.681371 0.029247
0.353081 0.681085 0.028531
0.466406 0.680855 0.027935
0.579467 0.680708 0.027521
0.692258 0.680645 0.027293
0.804828 0.680652 0.027217
0.917237 0.680709 0.027251
0.012366 0.794653 0.030677
0.125496 0.794488 0.030212
0.238725 0.794287 0.029684
0.351955 0.794084 0.029157
0.465090 0.793910 0.028696
0.578066 0.793787 0.028343
0.690861 0.793721 0.028114
0.803490 0.793708 0.027998
0.915984 0.793738 0.027974
0.012012 0.907406 0.030779
0.124970 0.907293 0.030432
0.237996 0.907155 0.030044
0.351030 0.907013 0.029653
0.464011 0.906886 0.029299
0.576894 0.906790 0.029012
0.689657 0.906733 0.028806
0.802298 0.906714 0.028684
0.914833 0.906730 0.028634
0.013523 0.004535 0.144638
0.131459 0.002976 0.140761
0.255327 0.001086 0.131283
0.374787 0.000056 0.125353
0.484291 0.000555 0.127850
0.592708 0.001308 0.131180
0.702250 0.001923 0.133524
0.812694 0.002402 0.135100
0.923713 0.002787 0.136196
0.011420 0.118585 0.145191
0.129204 0.116816 0.141676
0.251286 0.114628 0.134281
0.370214 0.113412 0.129070
0.481730 0.113624 0.129842
0.591339 0.114233 0.132123
0.701385 0.114794 0.134017
0.812048 0.115253 0.135395
0.923169 0.115629 0.136398
0.010637 0.231895 0.145165
0.127084 0.230529 0.142584
0.245765 0.228769 0.138162
0.363105 0.227597 0.134494
0.476803 0.227333 0.133559
0.588427 0.227557 0.134212
0.699570 0.227909 0.135217
0.810795 0.228260 0.136141
0.922212 0.228578 0.136906
0.010921 0.344551 0.144724
0.126085 0.343657 0.142954
0.242398 0.342480 0.140318
0.358266 0.341538 0.137893
0.472500 0.341086 0.136609
0.585302 0.341024 0.136370
0.697373 0.341162 0.136662
0.809190 0.341375 0.137131
0.920969 0.341608 0.137619
0.011353 0.457072 0.144271
0.125651 0.456496 0.143049
0.240562 0.455742 0.141392
0.355360 0.455061 0.139776
0.469422 0.454622 0.138652
0.582638 0.454438 0.138120
0.695238 0.454434 0.138024
0.807495 0.454533 0.138168
0.919592 0.454682 0.138422
0.011619 0.569632 0.143945
0.125362 0.569254 0.143081
0.239452 0.568764 0.141980
0.353533 0.568289 0.140873
0.467274 0.567932 0.139991
0.580534 0.567726 0.139436
0.693360 0.567655 0.139181
0.805877 0.567679 0.139140
0.918202 0.567763 0.139231
0.011693 0.682252 0.143752
0.125073 0.681998 0.143125
0.238661 0.681673 0.142362
0.352270 0.681345 0.141582
0.465714 0.681073 0.140910
0.578884 0.680890 0.140422
0.691767 0.680798 0.140131
0.804410 0.680783 0.140004
0.916876 0.680824 0.139997
0.011615 0.794917 0.143664
0.124749 0.794745 0.143202
0.238014 0.794526 0.142656
0.351304 0.794299 0.142093
0.464511 0.794099 0.141586
0.577559 0.793952 0.141185
0.690421 0.793864 0.140911
0.803106 0.793834 0.140756
0.915646 0.793850 0.140700
0.011425 0.907613 0.143658
0.124385 0.907497 0.143314
0.237432 0.907349 0.142915
0.350501 0.907192 0.142503
0.463528 0.907049 0.142120
0.576459 0.906936 0.141801
0.689268 0.906863 0.141565
0.801951 0.906831 0.141414
0.914523 0.906835 0.141338
0.009601 0.005313 0.260283
0.125781 0.002660 0.259255
0.246523 0.001787 0.251886
0.368480 0.000917 0.243299
0.480679 0.001100 0.243417
0.590562 0.001653 0.245481
0.700868 0.002163 0.247165
0.811738 0.002583 0.248375
0.923010 0.002931 0.249255
0.005503 0.121251 0.260943
0.123181 0.118095 0.258920
0.244278 0.115637 0.252781
0.364773 0.114311 0.246111
0.478387 0.114212 0.245097
0.589270 0.114616 0.246310
0.700021 0.115062 0.247613
0.811090 0.115454 0.248652
0.922458 0.115789 0.249449
0.006070 0.233896 0.260230
0.122284 0.232097 0.258316
0.241222 0.229811 0.254163
0.359389 0.228363 0.249944
0.474185 0.227873 0.248137
0.586644 0.227935 0.248117
0.698323 0.228184 0.248688
0.809887 0.228470 0.249339
0.921523 0.228746 0.249927
0.008083 0.345669 0.258944
0.123034 0.344684 0.257479
0.239502 0.343286 0.254909
0.355792 0.342152 0.252252
0.470570 0.341549 0.250578
0.583856 0.341371 0.249968
0.696292 0.341427 0.249977
0.808365 0.341584 0.250246
0.920323 0.341779 0.250594
0.009531 0.457738 0.257927
0.123702 0.457147 0.256847
0.238666 0.456312 0.255217
0.353663 0.455534 0.253499
0.468001 0.455004 0.252191
0.581493 0.454743 0.251461
0.694328 0.454679 0.251190
0.806767 0.454732 0.251196
0.919002 0.454849 0.251345
0.010370 0.570071 0.257254
0.124042 0.569693 0.256461
0.238148 0.569173 0.255375
0.352325 0.568651 0.254221
0.466209 0.568241 0.253246
0.579628 0.567987 0.252581
0.692603 0.567874 0.252220
0.805246 0.567864 0.252086
0.917674 0.567921 0.252101
0.010788 0.682565 0.256843
0.124127 0.682314 0.256255
0.237719 0.681977 0.255500
0.351376 0.681625 0.254696
0.464898 0.681323 0.253975
0.578161 0.681110 0.253425
0.691139 0.680990 0.253067
0.803868 0.680950 0.252879
0.916409 0.680970 0.252818
0.010930 0.795154 0.256612
0.124038 0.794985 0.256172
0.237304 0.794761 0.255632
0.350619 0.794521 0.255056
0.463871 0.794304 0.254521
0.576975 0.794137 0.254083
0.689897 0.794031 0.253768
0.802641 0.793983 0.253572
0.915236 0.793983 0.253477
0.010886 0.907801 0.256509
0.123831 0.907687 0.256178
0.236877 0.907536 0.255783
0.349961 0.907372 0.255363
0.463014 0.907218 0.254964
0.575980 0.907094 0.254623
0.688829 0.907008 0.254360
0.801553 0.906963 0.254180
0.914163 0.906955 0.254078
0.007855 0.005686 0.374155
0.124885 0.000352 0.374959
0.239448 0.001827 0.371422
0.358519 0.002139 0.364538
0.474244 0.002081 0.361371
0.586906 0.002277 0.361012
0.698662 0.002573 0.361461
0.810296 0.002873 0.362028
0.922001 0.003149 0.362546
0.000517 0.124641 0.375038
0.120211 0.118752 0.373733
0.238551 0.116291 0.370354
0.357126 0.115556 0.365014
0.472879 0.115209 0.362108
0.585896 0.115272 0.361528
0.697900 0.115500 0.361795
0.809673 0.115765 0.362258
0.921453 0.116023 0.362720
0.003435 0.235275 0.373986
0.119353 0.233189 0.372655
0.237408 0.230700 0.369588
0.354943 0.229304 0.365949
0.470469 0.228667 0.363560
0.584008 0.228515 0.362673
0.696504 0.228601 0.362591
0.808599 0.228778 0.362819
0.920577 0.228983 0.363136
0.006467 0.346320 0.372408
0.121039 0.345359 0.371299
0.237078 0.343956 0.369162
0.353154 0.342812 0.366730
0.468173 0.342133 0.364890
0.581939 0.341842 0.363915
0.694833 0.341793 0.363570
0.807261 0.341870 0.363566
0.919473 0.342006 0.363717
0.008376 0.458148 0.371172
0.122315 0.457596 0.370285
0.237069 0.456782 0.368846
0.351973 0.456000 0.367223
0.466399 0.455434 0.365863
0.580106 0.455114 0.364976
0.693188 0.454988 0.364520
0.805848 0.454987 0.364361
0.918261 0.455059 0.364376
0.009498 0.570366 0.370332
0.123037 0.570016 0.369644
0.237033 0.569513 0.368650
0.351163 0.568992 0.367541
0.465083 0.568565 0.366548
0.578604 0.568280 0.365811
0.691713 0.568130 0.365352
0.804492 0.568084 0.365120
0.917039 0.568110 0.365047
0.010109 0.682793 0.369794
0.123369 0.682560 0.369267
0.236901 0.682235 0.368561
0.350530 0.681885 0.367781
0.464067 0.681575 0.367053
0.577384 0.681345 0.366467
0.690436 0.681203 0.366056
0.803248 0.681140 0.365808
0.915869 0.681138 0.365690
0.010387 0.795337 0.369472
0.123447 0.795180 0.369068
0.236677 0.794964 0.368555
0.349976 0.794726 0.367994
0.463234 0.794505 0.367456
0.576367 0.794329 0.366999
0.689333 0.794210 0.366653
0.802129 0.794146 0.366421
0.914777 0.794131 0.366288
0.010443 0.907952 0.369301
0.123357 0.907846 0.368993
0.236381 0.907701 0.368614
0.349454 0.907539 0.368204
0.462510 0.907383 0.367803
0.575493 0.907253 0.367451
0.688368 0.907158 0.367170
0.801126 0.907103 0.366967
0.913772 0.907085 0.366840
0.008251 0.005652 0.486293
0.123539 0.002917 0.486241
0.238144 0.002751 0.484301
0.354204 0.002931 0.480561
0.469707 0.002881 0.477608
0.583575 0.002905 0.476216
0.696381 0.003033 0.475782
0.808709 0.003213 0.475774
0.920858 0.003409 0.475929
0.004363 0.121665 0.486668
0.120557 0.118720 0.485919
0.236898 0.116960 0.483838
0.353276 0.116377 0.480543
0.468808 0.116036 0.477852
0.582786 0.115926 0.476484
0.695707 0.115984 0.476005
0.808118 0.116124 0.475953
0.920318 0.116298 0.476080
0.004777 0.234331 0.486088
0.119686 0.232833 0.485178
0.236005 0.231051 0.483140
0.352209 0.229955 0.480532
0.467490 0.229355 0.478351
0.581521 0.229097 0.477078
0.694620 0.229054 0.476523
0.807197 0.229127 0.476373
0.919519 0.229256 0.476421
0.006609 0.346134 0.484953
0.120718 0.345358 0.484120
0.235942 0.344235 0.482519
0.351334 0.343280 0.480583
0.466148 0.342648 0.478900
0.580104 0.342310 0.477782
0.693327 0.342184 0.477185
0.806069 0.342187 0.476941
0.918533 0.342263 0.476900
0.008114 0.458180 0.483901
0.121787 0.457717 0.483192
0.236152 0.457026 0.482018
0.350721 0.456341 0.480634
0.465011 0.455812 0.479373
0.578777 0.455478 0.478441
0.692023 0.455310 0.477863
0.804871 0.455262 0.477563
0.917454 0.455291 0.477451
0.009123 0.570465 0.483108
0.122501 0.570164 0.482531
0.236299 0.569723 0.481675
0.350256 0.569253 0.480687
0.464092 0.568851 0.479753
0.577627 0.568563 0.479006
0.690815 0.568392 0.478488
0.803701 0.568318 0.478177
0.916359 0.568315 0.478023
0.009725 0.682908 0.482564
0.122887 0.682705 0.482104
0.236308 0.682413 0.481475
0.349844 0.682092 0.480761
0.463330 0.681798 0.480068
0.576645 0.681569 0.479482
0.689736 0.681417 0.479043
0.802609 0.681337 0.478750
0.915299 0.681316 0.478581
0.010029 0.795451 0.482216
0.123028 0.795313 0.481856
0.236192 0.795117 0.481388
0.349437 0.794895 0.480864
0.462664 0.794685 0.480348
0.575792 0.794510 0.479894
0.688777 0.794386 0.479534
0.801608 0.794312 0.479276
0.914300 0.794285 0.479112
0.010122 0.908058 0.482016
0.122995 0.907965 0.481736
0.235979 0.907832 0.481385
0.349019 0.907680 0.480997
0.462054 0.907531 0.480611
0.575032 0.907402 0.480262
0.687918 0.907305 0.479973
0.800696 0.907244 0.479756
0.913370 0.907218 0.479608
0.009377 0.005476 0.597843
0.123359 0.004406 0.597431
0.237788 0.003816 0.596092
0.352633 0.003604 0.593959
0.467318 0.003477 0.591901
0.581275 0.003425 0.590497
0.694509 0.003457 0.589730
0.807262 0.003551 0.589384
0.919744 0.003680 0.589273
0.007543 0.119647 0.598006
0.121764 0.118505 0.597427
0.236678 0.117506 0.596013
0.351782 0.116948 0.593965
0.466568 0.116620 0.592008
0.580596 0.116456 0.590644
0.693894 0.116422 0.589880
0.806697 0.116476 0.589522
0.919214 0.116581 0.589401
0.007070 0.232945 0.597681
0.121064 0.232114 0.597018
0.235947 0.231098 0.595652
0.350997 0.230333 0.593866
0.465678 0.229842 0.592176
0.579681 0.229571 0.590944
0.693028 0.229464 0.590204
0.805904 0.229466 0.589826
0.918486 0.229534 0.589676
0.007665 0.345531 0.597000
0.121343 0.344993 0.596360
0.235766 0.344232 0.595198
0.350408 0.343533 0.593755
0.464796 0.343018 0.592381
0.578674 0.342699 0.591324
0.692023 0.342539 0.590634
0.804959 0.342494 0.590243
0.917614 0.342523 0.590059
0.008487 0.457950 0.596258
0.121909 0.457596 0.595691
0.235851 0.457073 0.594771
0.349998 0.456535 0.593663
0.464016 0.456092 0.592588
0.577697 0.455784 0.591715
0.690992 0.455605 0.591099
0.803953 0.455528 0.590715
0.916663 0.455524 0.590509
0.009165 0.570402 0.595630
0.122384 0.570161 0.595151
0.235949 0.569805 0.594442
0.349673 0.569416 0.593607
0.463343 0.569069 0.592784
0.576808 0.568805 0.592083
0.690008 0.568633 0.591555
0.802954 0.568544 0.591198
0.915692 0.568519 0.590985
0.009615 0.682920 0.595161
0.122674 0.682754 0.594769
0.235960 0.682509 0.594227
0.349362 0.682234 0.593601
0.462747 0.681974 0.592975
0.576011 0.681763 0.592422
0.689099 0.681614 0.591983
0.802003 0.681526 0.591667
0.914741 0.681492 0.591463
0.009856 0.795497 0.594843
0.122786 0.795382 0.594528
0.235868 0.795214 0.594114
0.349033 0.795020 0.593643
0.462197 0.794831 0.593168
0.575290 0.794669 0.592737
0.688267 0.794548 0.592381
0.801113 0.794471 0.592111
0.913834 0.794436 0.591926
0.009927 0.908119 0.594650
0.122754 0.908041 0.594401
0.235685 0.907926 0.594085
0.348675 0.907791 0.593730
0.461671 0.907655 0.593370
0.574624 0.907535 0.593037
0.687502 0.907442 0.592753
0.800287 0.907379 0.592530
0.912979 0.907348 0.592370
0.010492 0.005299 0.709406
0.123954 0.004790 0.708952
0.237859 0.004358 0.707979
0.352006 0.004085 0.706606
0.466091 0.003918 0.705187
0.579831 0.003832 0.704034
0.693138 0.003816 0.703242
0.806079 0.003857 0.702761
0.918761 0.003937 0.702498
0.009345 0.118845 0.709506
0.122887 0.118304 0.709005
0.236956 0.117737 0.708004
0.351239 0.117310 0.706646
0.465411 0.117024 0.705261
0.579208 0.116855 0.704133
0.692559 0.116785 0.703352
0.805533 0.116790 0.702873
0.918239 0.116847 0.702610
0.008785 0.232089 0.709322
0.122272 0.231627 0.708797
0.236314 0.231047 0.707835
0.350565 0.230538 0.706593
0.464692 0.230164 0.705340
0.578468 0.229925 0.704304
0.691829 0.229802 0.703565
0.804831 0.229767 0.703098
0.917569 0.229795 0.702832
0.008810 0.344966 0.708920
0.122166 0.344617 0.708414
0.236005 0.344130 0.707561
0.350049 0.343649 0.706498
0.464006 0.343261 0.705430
0.577681 0.342992 0.704524
0.691009 0.342834 0.703853
0.804022 0.342767 0.703407
0.916790 0.342765 0.703141
0.009116 0.457641 0.708439
0.122327 0.457388 0.707980
0.235910 0.457018 0.707268
0.349670 0.456624 0.706403
0.463388 0.456279 0.705529
0.576909 0.456019 0.704768
0.690165 0.455852 0.704179
0.803163 0.455766 0.703768
0.915946 0.455742 0.703507
0.009453 0.570253 0.707990
0.122531 0.570071 0.707593
0.235877 0.569801 0.707018
0.349362 0.569500 0.706335
0.462837 0.569220 0.705640
0.576184 0.568995 0.705017
0.689342 0.568838 0.704517
0.802300 0.568746 0.704150
0.915082 0.568710 0.703904
0.009704 0.682863 0.707630
0.122665 0.682734 0.707298
0.235814 0.682540 0.706842
0.349069 0.682318 0.706310
0.462329 0.682102 0.705765
0.575510 0.681919 0.705267
0.688561 0.681784 0.704852
0.801464 0.681698 0.704534
0.914227 0.681657 0.704312
0.009832 0.795491 0.707372
0.122694 0.795401 0.707101
0.235689 0.795264 0.706743
0.348761 0.795103 0.706332
0.461844 0.794942 0.705910
0.574880 0.794801 0.705516
0.687827 0.794690 0.705178
0.800668 0.794617 0.704911
0.913401 0.794578 0.704717
0.009843 0.908141 0.707212
0.122622 0.908079 0.706994
0.235496 0.907984 0.706716
0.348426 0.907870 0.706400
0.461369 0.907753 0.706074
0.574283 0.907647 0.705766
0.687138 0.907562 0.705496
0.799916 0.907503 0.705277
0.912613 0.907470 0.705113
0.011411 0.005156 0.821129
0.124598 0.004883 0.820715
0.238101 0.004606 0.819989
0.351777 0.004386 0.819033
0.465445 0.004232 0.818019
0.578940 0.004141 0.817114
0.692181 0.004107 0.816408
0.805167 0.004120 0.815909
0.917944 0.004171 0.815581
0.010554 0.118442 0.821200
0.123774 0.118151 0.820772
0.237345 0.117815 0.820036
0.351092 0.117520 0.819085
0.464816 0.117297 0.818084
0.578353 0.117150 0.817193
0.691626 0.117073 0.816497
0.804635 0.117056 0.816005
0.917428 0.117085 0.815683
0.010001 0.231593 0.821102
0.123199 0.231325 0.820672
0.236751 0.230979 0.819966
0.350478 0.230645 0.819074
0.464180 0.230373 0.818143
0.577703 0.230181 0.817311
0.690975 0.230067 0.816654
0.803995 0.230020 0.816181
0.916802 0.230026 0.815868
0.009777 0.344550 0.820869
0.122909 0.344328 0.820459
0.236360 0.344018 0.819817
0.349975 0.343695 0.819026
0.463577 0.343415 0.818204
0.577031 0.343204 0.817462
0.690267 0.343067 0.816863
0.803278 0.342996 0.816422
0.916093 0.342980 0.816123
0.009769 0.457357 0.820570
0.122816 0.457185 0.820195
0.236124 0.456932 0.819640
0.349574 0.456653 0.818969
0.463027 0.456397 0.818272
0.576370 0.456192 0.817634
0.689540 0.456050 0.817107
0.802522 0.455967 0.816707
0.915332 0.455936 0.816428
0.009843 0.570082 0.820271
0.122801 0.569952 0.819943
0.235961 0.569757 0.819479
0.349236 0.569533 0.818927
0.462524 0.569318 0.818354
0.575738 0.569137 0.817821
0.688822 0.569004 0.817370
0.801758 0.568920 0.817018
0.914551 0.568881 0.816764
0.009905 0.682771 0.820019
0.122780 0.682677 0.819740
0.235804 0.682531 0.819361
0.348919 0.682360 0.818917
0.462052 0.682189 0.818455
0.575137 0.682039 0.818020
0.688129 0.681924 0.817643
0.801008 0.681847 0.817341
0.913774 0.681806 0.817116
0.009911 0.795452 0.819833
0.122710 0.795385 0.819601
0.235619 0.795280 0.819297
0.348598 0.795153 0.818945
0.461595 0.795022 0.818579
0.574562 0.794905 0.818229
0.687465 0.794810 0.817921
0.800285 0.794744 0.817667
0.913015 0.794708 0.817474
0.009844 0.908135 0.819718
0.122577 0.908090 0.819529
0.235392 0.908016 0.819288
0.348260 0.907924 0.819012
0.461143 0.907828 0.818725
0.574009 0.907739 0.818448
0.686831 0.907666 0.818200
0.799591 0.907613 0.817992
0.912283 0.907583 0.817830
0.012133 0.005050 0.933013
0.125146 0.004897 0.932653
0.238374 0.004725 0.932097
0.351731 0.004570 0.931395
0.465102 0.004451 0.930642
0.578387 0.004374 0.929935
0.691521 0.004339 0.929336
0.804485 0.004341 0.928871
0.917290 0.004375 0.928532
0.011426 0.118204 0.933065
0.124453 0.118039 0.932703
0.237714 0.117837 0.932145
0.351108 0.117641 0.931447
0.464514 0.117480 0.930702
0.577828 0.117364 0.930004
0.690983 0.117298 0.929415
0.803963 0.117275 0.928958
0.916779 0.117290 0.928626
0.010890 0.231287 0.933019
0.123904 0.231129 0.932663
0.237151 0.230918 0.932127
0.350532 0.230700 0.931464
0.463925 0.230511 0.930761
0.577228 0.230366 0.930101
0.690381 0.230273 0.929543
0.803362 0.230228 0.929106
0.916184 0.230224 0.928788
0.010548 0.344259 0.932889
0.123523 0.344121 0.932552
0.236713 0.343925 0.932058
0.350029 0.343710 0.931457
0.463361 0.343514 0.930821
0.576617 0.343356 0.930223
0.689739 0.343247 0.929711
0.802706 0.343185 0.929305
0.915524 0.343165 0.929006
0.010356 0.457128 0.932713
0.123276 0.457015 0.932404
0.236382 0.456847 0.931967
0.349598 0.456655 0.931443
0.462835 0.456471 0.930889
0.576014 0.456317 0.930365
0.689083 0.456204 0.929909
0.802019 0.456134 0.929543
0.914824 0.456104 0.929268
0.010246 0.569922 0.932529
0.123106 0.569834 0.932256
0.236116 0.569699 0.931881
0.349219 0.569539 0.931438
0.462345 0.569381 0.930970
0.575431 0.569242 0.930523
0.688431 0.569136 0.930130
0.801323 0.569065 0.929807
0.914105 0.569030 0.929561
0.010156 0.682671 0.932369
0.122956 0.682606 0.932134
0.235873 0.682502 0.931821
0.348865 0.682376 0.931455
0.461880 0.682247 0.931069
0.574869 0.682130 0.930697
0.687794 0.682037 0.930365
0.800635 0.681973 0.930088
0.913386 0.681937 0.929872
0.010048 0.795397 0.932251
0.122791 0.795351 0.932054
0.235624 0.795275 0.931798
0.348516 0.795179 0.931501
0.461429 0.795078 0.931189
0.574326 0.794985 0.930885
0.687177 0.794909 0.930611
0.799964 0.794854 0.930378
0.912680 0.794822 0.930194
0.009902 0.908111 0.932183
0.122593 0.908082 0.932022
0.235353 0.908028 0.931816
0.348159 0.907958 0.931579
0.460983 0.907883 0.931330
0.573798 0.907812 0.931087
0.686580 0.907752 0.930864
0.799314 0.907708 0.930673
0.911994 0.907683 0.930520
