assets/luts/generated/gen_7e9d2ac5de6186a2.cube
# Generated V4 LUT for unit-test-warm-earth
# Palette: (245,230,211) (196,137,111) (107,68,35)
# Strength: 0.180
TITLE "V4 Generative LUT — unit-test-warm-earth"
LUT_3D_SIZE 17
DOMAIN_MIN 0.0 0.0 0.0
DOMAIN_MAX 1.0 1.0 1.0
0.075856 0.048253 0.024985
0.127108 0.048255 0.024987
0.178359 0.048256 0.024988
0.229610 0.048257 0.024988
0.280865 0.048261 0.024993
0.332132 0.048273 0.025007
0.383419 0.048302 0.025039
0.434743 0.048359 0.025102
0.486123 0.048460 0.025213
0.537583 0.048624 0.025393
0.589153 0.048871 0.025666
0.640858 0.049225 0.026055
0.692721 0.049700 0.026579
0.744755 0.050309 0.027249
0.796962 0.051052 0.028067
0.849332 0.051921 0.029025
0.901846 0.052904 0.030107
0.075988 0.099606 0.025098
0.127232 0.099601 0.025092
0.178470 0.099591 0.025082
0.229704 0.099579 0.025069
0.280941 0.099569 0.025058
0.332191 0.099569 0.025057
0.383469 0.099591 0.025082
0.434803 0.099656 0.025153
0.486225 0.099789 0.025300
0.537779 0.100025 0.025560
0.589513 0.100401 0.025974
0.641472 0.100951 0.026579
0.693686 0.101700 0.027404
0.746166 0.102654 0.028455
0.798894 0.103803 0.029720
0.851833 0.105116 0.031166
0.904935 0.106556 0.032753
0.076185 0.151008 0.025266
0.127413 0.150991 0.025247
0.178628 0.150964 0.025217
0.229833 0.150930 0.025179
0.281036 0.150893 0.025139
0.332252 0.150867 0.025110
0.383508 0.150871 0.025115
0.434846 0.150939 0.025190
0.486325 0.151117 0.025386
0.538021 0.151464 0.025767
0.590017 0.152042 0.026405
0.642382 0.152908 0.027358
0.695152 0.154089 0.028659
0.748312 0.155573 0.030293
0.801796 0.157310 0.032206
0.855506 0.159224 0.034314
0.909337 0.161235 0.036529
0.076486 0.202492 0.025524
0.127692 0.202458 0.025485
0.178872 0.202404 0.025426
0.230032 0.202334 0.025349
0.281180 0.202255 0.025262
0.332341 0.202186 0.025186
0.383556 0.202158 0.025156
0.434896 0.202228 0.025233
0.486463 0.202475 0.025504
0.538388 0.202999 0.026081
0.590808 0.203908 0.027082
0.643823 0.205279 0.028593
0.697449 0.207125 0.030626
0.751591 0.209375 0.033104
0.806072 0.211891 0.035874
0.860688 0.214516 0.038765
0.915268 0.217118 0.041630
0.076965 0.254114 0.025933
0.128143 0.254058 0.025871
0.179279 0.253970 0.025775
0.230378 0.253853 0.025645
0.281453 0.253717 0.025496
0.332538 0.253589 0.025355
0.383702 0.253523 0.025281
0.435061 0.253607 0.025375
0.486789 0.253978 0.025784
0.539105 0.254807 0.026696
0.592220 0.256257 0.028293
0.646245 0.258414 0.030669
0.701094 0.261216 0.033754
0.756490 0.264446 0.037311
0.812065 0.267821 0.041028
0.867499 0.271096 0.044633
0.922601 0.274123 0.047966
0.077744 0.305970 0.026600
0.128899 0.305897 0.026519
0.179994 0.305776 0.026387
0.231032 0.305612 0.026205
0.282033 0.305418 0.025993
0.333051 0.305238 0.025794
0.384194 0.305155 0.025703
0.435652 0.305317 0.025881
0.487709 0.305945 0.026573
0.540707 0.307305 0.028070
0.594921 0.309612 0.030611
0.650370 0.312882 0.034213
0.706709 0.316851 0.038582
0.763350 0.321062 0.043219
0.819738 0.325089 0.047653
0.875547 0.328681 0.051607
0.930687 0.331773 0.055010
0.079022 0.358215 0.027696
0.130186 0.358149 0.027623
0.181273 0.358023 0.027484
0.232292 0.357843 0.027287
0.283276 0.357637 0.027059
0.334311 0.357470 0.026876
0.385569 0.357477 0.026883
0.437347 0.357889 0.027337
0.490070 0.359036 0.028600
0.544188 0.361272 0.031062
0.599919 0.364767 0.034911
0.656971 0.369298 0.039900
0.714572 0.374267 0.045371
0.771873 0.379018 0.050602
0.828345 0.383145 0.055144
0.883857 0.386550 0.058890
0.938521 0.389329 0.061945
0.081099 0.411086 0.029481
0.132348 0.411087 0.029482
0.183524 0.411031 0.029420
0.234647 0.410933 0.029312
0.285779 0.410843 0.029213
0.337061 0.410869 0.029242
0.388751 0.411214 0.029621
0.441266 0.412203 0.030711
0.495128 0.414245 0.032959
0.550733 0.417650 0.036708
0.607970 0.422337 0.041869
0.666060 0.427703 0.047776
0.723942 0.432926 0.053526
0.780867 0.437429 0.058480
0.836614 0.441046 0.062459
0.891322 0.443897 0.065591
0.945255 0.446198 0.068116
0.084368 0.464899 0.032303
0.135841 0.465078 0.032499
0.187281 0.465230 0.032667
0.238737 0.465395 0.032848
0.290316 0.465656 0.033136
0.342224 0.466175 0.033707
0.394798 0.467216 0.034853
0.448491 0.469136 0.036966
0.503723 0.472264 0.040410
0.560541 0.476645 0.045232
0.618364 0.481826 0.050936
0.676179 0.487023 0.056655
0.733129 0.491574 0.061662
0.788877 0.495227 0.065678
0.843523 0.498072 0.068802
0.897344 0.500342 0.071290
0.950621 0.502276 0.073405
0.089226 0.519986 0.036525
0.141106 0.520489 0.037080
0.193035 0.521032 0.037677
0.245097 0.521681 0.038390
0.297442 0.522553 0.039350
0.350306 0.523835 0.040761
0.404002 0.525775 0.042896
0.458832 0.528613 0.046019
0.514878 0.532419 0.050207
0.571793 0.536926 0.055167
0.628843 0.541564 0.060268
0.685286 0.545758 0.064881
0.740732 0.549217 0.068681
0.795185 0.551960 0.071691
0.848863 0.554183 0.074124
0.902031 0.556117 0.076235
0.954912 0.557962 0.078241
0.095867 0.576546 0.042367
0.148294 0.577498 0.043414
0.200859 0.578563 0.044586
0.253662 0.579821 0.045968
0.306846 0.581383 0.047687
0.360587 0.583393 0.049897
0.415045 0.585981 0.052742
0.470260 0.589182 0.056262
0.526042 0.592851 0.060297
0.581961 0.596657 0.064481
0.637524 0.600218 0.068393
0.692402 0.603288 0.071764
0.746526 0.605837 0.074558
0.800025 0.607993 0.076914
0.853099 0.609949 0.079044
0.905945 0.611893 0.081153
0.958715 0.613972 0.083404
0.104030 0.634470 0.049703
0.156982 0.635882 0.051254
0.210108 0.637442 0.052968
0.263481 0.639208 0.054907
0.317180 0.641246 0.057146
0.371268 0.643608 0.059741
0.425744 0.646300 0.062697
0.480504 0.649242 0.065928
0.535327 0.652264 0.069246
0.589945 0.655164 0.072427
0.644149 0.657788 0.075303
0.697865 0.660103 0.077834
0.751147 0.662185 0.080105
0.804130 0.664180 0.082274
0.856963 0.666249 0.084515
0.909778 0.668531 0.086981
0.962665 0.671118 0.089773
0.112964 0.693321 0.058046
0.166232 0.695073 0.059967
0.219630 0.696947 0.062022
0.273184 0.698966 0.064236
0.326909 0.701145 0.066624
0.380790 0.703475 0.069177
0.434768 0.705912 0.071847
0.488740 0.708379 0.074549
0.542580 0.710783 0.077180
0.596184 0.713056 0.079663
0.649505 0.715184 0.081984
0.702570 0.717223 0.084202
0.755463 0.719281 0.086434
0.808288 0.721490 0.088823
0.861148 0.723968 0.091498
0.914116 0.726794 0.094544
0.967224 0.729986 0.097983
0.121775 0.752606 0.066842
0.175087 0.754540 0.068958
0.228449 0.756544 0.071149
0.281859 0.758618 0.073416
0.335301 0.760751 0.075746
0.388745 0.762923 0.078117
0.442147 0.765099 0.080492
0.495455 0.767248 0.082834
0.548627 0.769348 0.085120
0.601650 0.771409 0.087360
0.654543 0.773477 0.089603
0.707361 0.775635 0.091938
0.760175 0.777983 0.094474
0.813056 0.780613 0.097310
0.866054 0.783582 0.100508
0.919187 0.786888 0.104068
0.972431 0.790465 0.107919
0.129893 0.812112 0.075849
0.183075 0.814152 0.078072
0.236247 0.816223 0.080327
0.289398 0.818318 0.082607
0.342515 0.820428 0.084902
0.395582 0.822541 0.087198
0.448580 0.824648 0.089486
0.501499 0.826752 0.091767
0.554342 0.828868 0.094060
0.607127 0.831037 0.096405
0.659891 0.833316 0.098866
0.712678 0.835773 0.101516
0.765533 0.838467 0.104419
0.818484 0.841429 0.107609
0.871534 0.844642 0.111068
0.924654 0.848037 0.114721
0.977790 0.851499 0.118445
0.137237 0.871981 0.085213
0.190252 0.874141 0.087557
0.243231 0.876316 0.089916
0.296169 0.878501 0.092283
0.349059 0.880690 0.094654
0.401898 0.882884 0.097028
0.454686 0.885088 0.099411
0.507431 0.887316 0.101817
0.560147 0.889593 0.104275
0.612855 0.891952 0.106819
0.665581 0.894431 0.109491
0.718346 0.897059 0.112321
0.771163 0.899843 0.115318
0.824025 0.902759 0.118456
0.876907 0.905749 0.121672
0.929767 0.908723 0.124872
0.982558 0.911586 0.127952
0.143995 0.932424 0.095163
0.196873 0.934724 0.097651
0.249709 0.937026 0.100139
0.302501 0.939324 0.102622
0.355247 0.941617 0.105097
0.407951 0.943905 0.107565
0.460617 0.946194 0.110034
0.513252 0.948495 0.112515
0.565869 0.950823 0.115022
0.618477 0.953190 0.117571
0.671086 0.955605 0.120171
0.723697 0.958063 0.122816
0.776304 0.960543 0.125484
0.828888 0.963003 0.128131
0.881423 0.965390 0.130699
0.933882 0.967645 0.133124
0.986239 0.969717 0.135353
0.075868 0.048263 0.076245
0.127119 0.048263 0.076246
0.178366 0.048261 0.076243
0.229613 0.048259 0.076241
0.280863 0.048259 0.076241
0.332124 0.048267 0.076250
0.383407 0.048293 0.076279
0.434730 0.048350 0.076341
0.486117 0.048456 0.076458
0.537596 0.048633 0.076653
0.589200 0.048908 0.076956
0.640961 0.049305 0.077393
0.692904 0.049842 0.077985
0.745038 0.050529 0.078741
0.797361 0.051361 0.079658
0.849854 0.052326 0.080721
0.902489 0.053403 0.081906
0.076004 0.099618 0.076361
0.127243 0.099609 0.076352
0.178474 0.099595 0.076335
0.229699 0.099575 0.076314
0.280924 0.099556 0.076293
0.332161 0.099546 0.076282
0.383427 0.099559 0.076296
0.434753 0.099618 0.076361
0.486180 0.099755 0.076512
0.537760 0.100011 0.076794
0.589552 0.100431 0.077257
0.641608 0.101057 0.077946
0.693963 0.101914 0.078891
0.746617 0.103004 0.080091
0.799537 0.104302 0.081520
0.852667 0.105763 0.083129
0.905938 0.107335 0.084860
0.076205 0.151024 0.076533
0.127424 0.151000 0.076507
0.178626 0.150963 0.076466
0.229813 0.150914 0.076412
0.280993 0.150859 0.076352
0.332181 0.150811 0.076299
0.383408 0.150793 0.076279
0.434723 0.150844 0.076335
0.486200 0.151021 0.076529
0.537934 0.151396 0.076943
0.590029 0.152052 0.077665
0.642569 0.153054 0.078768
0.695589 0.154428 0.080282
0.749046 0.156143 0.082171
0.802833 0.158115 0.084342
0.856808 0.160236 0.086678
0.910841 0.162404 0.089066
0.076515 0.202515 0.076798
0.127704 0.202468 0.076746
0.178862 0.202396 0.076667
0.229988 0.202300 0.076562
0.281093 0.202187 0.076438
0.332199 0.202076 0.076315
0.383355 0.202003 0.076234
0.434644 0.202033 0.076268
0.486196 0.202267 0.076525
0.538180 0.202837 0.077154
0.590778 0.203884 0.078306
0.644112 0.205503 0.080090
0.698174 0.207688 0.082496
0.752794 0.210309 0.085383
0.807701 0.213156 0.088518
0.862624 0.216021 0.091672
0.917372 0.218755 0.094683
0.077009 0.254148 0.077221
0.128161 0.254073 0.077137
0.179260 0.253956 0.077008
0.230304 0.253796 0.076832
0.281304 0.253601 0.076618
0.332294 0.253399 0.076396
0.383349 0.253249 0.076230
0.434612 0.253258 0.076240
0.486306 0.253603 0.076620
0.538731 0.254516 0.077626
0.592180 0.256225 0.079507
0.646778 0.258828 0.082374
0.702343 0.262185 0.086072
0.758415 0.265941 0.090207
0.814470 0.269689 0.094335
0.870134 0.273144 0.098139
0.925253 0.276188 0.101490
0.077817 0.306027 0.077913
0.128937 0.305926 0.077802
0.179976 0.305762 0.077622
0.230932 0.305534 0.077370
0.281817 0.305251 0.077058
0.332685 0.304954 0.076731
0.383655 0.304736 0.076491
0.434963 0.304781 0.076541
0.486989 0.305385 0.077206
0.540224 0.306929 0.078906
0.595061 0.309719 0.081979
0.651462 0.313729 0.086395
0.708804 0.318476 0.091623
0.766181 0.323261 0.096891
0.822900 0.327546 0.101609
0.878692 0.331127 0.105551
0.933606 0.334047 0.108763
0.079153 0.358317 0.079058
0.130272 0.358216 0.078947
0.181289 0.358035 0.078748
0.232199 0.357772 0.078458
0.283030 0.357445 0.078098
0.333865 0.357123 0.077743
0.384901 0.356957 0.077560
0.436518 0.357243 0.077875
0.489309 0.358443 0.079196
0.543942 0.361078 0.082099
0.600713 0.365381 0.086837
0.659048 0.370908 0.092924
0.717676 0.376674 0.099273
0.775446 0.381789 0.104903
0.831880 0.385885 0.109412
0.887059 0.389035 0.112876
0.941288 0.391481 0.115565
0.081335 0.411271 0.080935
0.132541 0.411238 0.080899
0.183643 0.411124 0.080773
0.234652 0.410937 0.080567
0.285624 0.410722 0.080330
0.336708 0.410594 0.080189
0.388215 0.410795 0.080411
0.440695 0.411756 0.081468
0.494897 0.414061 0.084006
0.551398 0.418162 0.088522
0.609936 0.423860 0.094796
0.669198 0.430134 0.101703
0.727663 0.435804 0.107946
0.784556 0.440275 0.112866
0.839904 0.443579 0.116500
0.894093 0.446028 0.119189
0.947530 0.447952 0.121298
0.084778 0.465222 0.083908
0.136226 0.465380 0.084082
0.187616 0.465493 0.084206
0.238993 0.465596 0.084320
0.290472 0.465778 0.084520
0.342287 0.466224 0.085010
0.394857 0.467260 0.086152
0.448791 0.469365 0.088469
0.504665 0.472992 0.092462
0.562494 0.478156 0.098147
0.621324 0.484115 0.104707
0.679695 0.489734 0.110891
0.736630 0.494258 0.115870
0.791985 0.497591 0.119533
0.846102 0.500016 0.122196
0.899415 0.501893 0.124251
0.952271 0.503514 0.126020
0.089881 0.520504 0.088345
0.141771 0.521016 0.088909
0.193702 0.521560 0.089508
0.245763 0.522208 0.090220
0.298124 0.523091 0.091192
0.351063 0.524430 0.092666
0.404968 0.526530 0.094977
0.460217 0.529692 0.098457
0.516884 0.533977 0.103173
0.574435 0.538968 0.108666
0.631859 0.543878 0.114069
0.688278 0.548029 0.118634
0.743393 0.551203 0.122122
0.797383 0.553563 0.124711
0.850605 0.555420 0.126742
0.903389 0.557063 0.128531
0.955981 0.558713 0.130322
0.096795 0.577289 0.094435
0.149269 0.578281 0.095525
0.201890 0.579390 0.096745
0.254764 0.580703 0.098189
0.308053 0.582348 0.099997
0.361959 0.584484 0.102347
0.416662 0.587258 0.105399
0.472189 0.590694 0.109177
0.528267 0.594579 0.113451
0.584344 0.598483 0.117743
0.639846 0.601960 0.121565
0.694467 0.604789 0.124671
0.748232 0.607017 0.127114
0.801361 0.608858 0.129124
0.854119 0.610561 0.130976
0.906727 0.612343 0.132907
0.959345 0.614363 0.135090
0.105173 0.635408 0.101984
0.158187 0.636873 0.103593
0.211382 0.638490 0.105369
0.264836 0.640321 0.107381
0.318633 0.642435 0.109704
0.372835 0.644883 0.112392
0.427429 0.647656 0.115439
0.482276 0.650647 0.118725
0.537110 0.653649 0.122021
0.591631 0.656430 0.125073
0.645634 0.658845 0.127721
0.699083 0.660897 0.129965
0.752088 0.662715 0.131948
0.804826 0.664495 0.133881
0.857477 0.666433 0.135978
0.910185 0.668688 0.138411
0.963041 0.671352 0.141284
0.114189 0.694370 0.110447
0.167498 0.696162 0.112412
0.220935 0.698073 0.114507
0.274526 0.700125 0.116757
0.328281 0.702326 0.119169
0.382177 0.704659 0.121727
0.436142 0.707068 0.124367
0.490058 0.709461 0.126988
0.543788 0.711737 0.129479
0.597229 0.713828 0.131765
0.650353 0.715741 0.133852
0.703215 0.717563 0.135833
0.755925 0.719441 0.137868
0.808616 0.721541 0.140138
0.861406 0.724009 0.142800
0.914372 0.726932 0.145950
0.967539 0.730314 0.149590
0.122944 0.753685 0.119273
0.176263 0.755637 0.121408
0.229624 0.757650 0.123608
0.283022 0.759719 0.125869
0.336436 0.761829 0.128174
0.389833 0.763952 0.130492
0.443163 0.766050 0.132782
0.496370 0.768085 0.135001
0.549417 0.770040 0.137129
0.602296 0.771934 0.139187
0.655043 0.773834 0.141247
0.707730 0.775849 0.143427
0.760447 0.778110 0.145867
0.813283 0.780736 0.148697
0.866294 0.783795 0.151992
0.919490 0.787276 0.155739
0.972829 0.791078 0.159830
0.130936 0.813196 0.128281
0.184103 0.815240 0.130507
0.237249 0.817304 0.132754
0.290365 0.819378 0.135011
0.343434 0.821449 0.137263
0.396438 0.823504 0.139496
0.449360 0.825531 0.141696
0.502190 0.827535 0.143869
0.554934 0.829538 0.146037
0.607621 0.831591 0.148257
0.660296 0.833770 0.150610
0.713019 0.836163 0.153191
0.765843 0.838852 0.156087
0.818804 0.841876 0.159343
0.871900 0.845212 0.162933
0.925088 0.848765 0.166756
0.978295 0.852385 0.170649
0.138159 0.873096 0.137673
0.191152 0.875257 0.140018
0.244101 0.877424 0.142367
0.297002 0.879589 0.144712
0.349848 0.881745 0.147047
0.402636 0.883893 0.149370
0.455366 0.886038 0.151689
0.508049 0.888198 0.154021
0.560703 0.890405 0.156402
0.613356 0.892702 0.158879
0.666038 0.895137 0.161503
0.718779 0.897752 0.164318
0.771594 0.900559 0.167340
0.824474 0.903532 0.170538
0.877385 0.906595 0.173834
0.930275 0.909641 0.177110
0.983084 0.912550 0.180239
0.144830 0.933595 0.147680
0.197687 0.935896 0.150168
0.250497 0.938190 0.152646
0.303258 0.940471 0.155110
0.355971 0.942737 0.157556
0.408637 0.944990 0.159986
0.461263 0.947237 0.162409
0.513858 0.949494 0.164841
0.566437 0.951777 0.167300
0.619013 0.954106 0.169808
0.671597 0.956495 0.172379
0.724192 0.958941 0.175011
0.776791 0.961420 0.177679
0.829372 0.963886 0.180331
0.881904 0.966275 0.182901
0.934353 0.968519 0.185314
0.986691 0.970560 0.187509
0.075890 0.048279 0.127514
0.127140 0.048279 0.127514
0.178386 0.048277 0.127511
0.229632 0.048273 0.127507
0.280880 0.048272 0.127506
0.332140 0.048280 0.127514
0.383425 0.048307 0.127544
0.434754 0.048368 0.127611
0.486154 0.048485 0.127740
0.537661 0.048684 0.127959
0.589313 0.048995 0.128302
0.641144 0.049447 0.128799
0.693182 0.050058 0.129472
0.745433 0.050835 0.130328
0.797884 0.051767 0.131355
0.850508 0.052834 0.132530
0.903265 0.054006 0.133820
0.076034 0.099641 0.127637
0.127271 0.099631 0.127626
0.178499 0.099614 0.127607
0.229720 0.099591 0.127582
0.280939 0.099568 0.127556
0.332169 0.099552 0.127539
0.383432 0.099562 0.127550
0.434761 0.099623 0.127617
0.486205 0.099774 0.127783
0.537828 0.100063 0.128102
0.589700 0.100546 0.128633
0.641882 0.101270 0.129430
0.694407 0.102259 0.130520
0.747263 0.103506 0.131893
0.800394 0.104967 0.133502
0.853718 0.106579 0.135278
0.907149 0.108276 0.137147
0.076248 0.151057 0.127820
0.127463 0.151030 0.127790
0.178658 0.150987 0.127743
0.229834 0.150930 0.127680
0.280999 0.150864 0.127607
0.332170 0.150803 0.127539
0.383381 0.150773 0.127506
0.434690 0.150819 0.127557
0.486187 0.151010 0.127768
0.537988 0.151438 0.128239
0.590224 0.152203 0.129081
0.642993 0.153382 0.130380
0.696317 0.154993 0.132155
0.750116 0.156973 0.134336
0.804223 0.159195 0.136782
0.858451 0.161512 0.139334
0.912645 0.163807 0.141862
0.076577 0.202563 0.128101
0.127759 0.202510 0.128043
0.178903 0.202428 0.127953
0.230009 0.202316 0.127830
0.281084 0.202180 0.127680
0.332153 0.202040 0.127525
0.383269 0.201936 0.127411
0.434532 0.201946 0.127422
0.486101 0.202194 0.127695
0.538197 0.202851 0.128418
0.591052 0.204097 0.129791
0.644808 0.206043 0.131934
0.699405 0.208644 0.134798
0.754558 0.211679 0.138141
0.809879 0.214848 0.141631
0.865037 0.217897 0.144988
0.919851 0.220684 0.148058
0.077104 0.254222 0.128552
0.128245 0.254138 0.128459
0.179322 0.254003 0.128311
0.230330 0.253816 0.128105
0.281278 0.253581 0.127846
0.332198 0.253325 0.127564
0.383175 0.253113 0.127330
0.434376 0.253075 0.127289
0.486091 0.253436 0.127686
0.538718 0.254506 0.128865
0.592650 0.256590 0.131160
0.648008 0.259783 0.134676
0.704431 0.263806 0.139107
0.761194 0.268099 0.143835
0.817614 0.272132 0.148276
0.873324 0.275625 0.152122
0.928275 0.278542 0.155332
0.077969 0.306144 0.129292
0.129073 0.306032 0.129168
0.180082 0.305845 0.128963
0.230986 0.305576 0.128667
0.281793 0.305232 0.128288
0.332552 0.304850 0.127867
0.383396 0.304535 0.127519
0.434610 0.304507 0.127489
0.486698 0.305158 0.128206
0.540341 0.307019 0.130256
0.596071 0.310503 0.134093
0.653699 0.315465 0.139558
0.712140 0.321066 0.145725
0.770101 0.326303 0.151492
0.826853 0.330615 0.156239
0.882328 0.333952 0.159912
0.936786 0.336523 0.162740
0.079400 0.358509 0.130520
0.130506 0.358398 0.130398
0.181491 0.358193 0.130171
0.232343 0.357884 0.129831
0.283080 0.357485 0.129392
0.333785 0.357061 0.128925
0.384681 0.356785 0.128621
0.436240 0.357026 0.128887
0.489271 0.358412 0.130413
0.544719 0.361681 0.134012
0.602907 0.367084 0.139963
0.662734 0.373769 0.147324
0.722227 0.380204 0.154411
0.780051 0.385358 0.160084
0.836017 0.389089 0.164191
0.890549 0.391737 0.167103
0.944152 0.393703 0.169262
0.081737 0.411585 0.132530
0.132944 0.411553 0.132496
0.184032 0.411428 0.132357
0.235003 0.411212 0.132119
0.285911 0.410946 0.131827
0.336916 0.410756 0.131617
0.388386 0.410928 0.131806
0.441025 0.412012 0.133000
0.495850 0.414801 0.136072
0.553611 0.419882 0.141666
0.613691 0.426774 0.149255
0.673979 0.433838 0.157033
0.732554 0.439584 0.163359
0.788901 0.443621 0.167803
0.843478 0.446319 0.170769
0.896933 0.448199 0.172832
0.949768 0.449666 0.174437
0.085408 0.465716 0.135702
0.136891 0.465902 0.135907
0.188312 0.466039 0.136058
0.239717 0.466163 0.136194
0.291230 0.466372 0.136424
0.343122 0.466877 0.136980
0.395901 0.468075 0.138299
0.450328 0.470564 0.141039
0.507113 0.474897 0.145810
0.566105 0.480960 0.152485
0.625796 0.487576 0.159770
0.684296 0.493275 0.166043
0.740732 0.497389 0.170570
0.795330 0.500114 0.173566
0.848710 0.501956 0.175586
0.901416 0.503366 0.177127
0.953818 0.504655 0.178529
0.090801 0.521231 0.140396
0.142772 0.521807 0.141030
0.194796 0.522425 0.141710
0.246974 0.523164 0.142523
0.299496 0.524174 0.143634
0.352682 0.525705 0.145319
0.406978 0.528109 0.147965
0.462801 0.531714 0.151933
0.520139 0.536512 0.157215
0.578188 0.541873 0.163116
0.635672 0.546801 0.168539
0.691710 0.550617 0.172737
0.746210 0.553274 0.175658
0.799567 0.555112 0.177674
0.852250 0.556538 0.179230
0.904627 0.557877 0.180685
0.956938 0.559353 0.182281
0.098001 0.578256 0.146748
0.150589 0.579339 0.147939
0.203343 0.580556 0.149277
0.256381 0.581999 0.150864
0.309878 0.583806 0.152852
0.364045 0.586145 0.155425
0.419056 0.589156 0.158737
0.474888 0.592817 0.162765
0.531158 0.596829 0.167179
0.587202 0.600669 0.171402
0.642423 0.603877 0.174930
0.696603 0.606304 0.177597
0.749887 0.608106 0.179571
0.802586 0.609575 0.181174
0.855008 0.611012 0.182733
0.907389 0.612653 0.184507
0.959884 0.614659 0.186671
0.106564 0.636550 0.154489
0.159682 0.638103 0.156195
0.212993 0.639817 0.158078
0.266575 0.641752 0.160203
0.320506 0.643972 0.162643
0.374837 0.646517 0.165438
0.429526 0.649352 0.168554
0.484393 0.652334 0.171831
0.539135 0.655223 0.175004
0.593440 0.657777 0.177810
0.647135 0.659882 0.180118
0.700241 0.661592 0.181991
0.752922 0.663098 0.183632
0.805399 0.664644 0.185308
0.857874 0.666464 0.187274
0.910502 0.668735 0.189722
0.963367 0.671545 0.192749
0.115596 0.695581 0.163025
0.168966 0.697431 0.165053
0.222459 0.699395 0.167207
0.276097 0.701489 0.169503
0.329880 0.703712 0.171940
0.383772 0.706034 0.174485
0.437687 0.708383 0.177060
0.491494 0.710655 0.179549
0.545054 0.712743 0.181837
0.598276 0.714593 0.183860
0.651158 0.716238 0.185654
0.703783 0.717801 0.187355
0.756295 0.719475 0.189167
0.808853 0.721469 0.191320
0.861594 0.723963 0.194007
0.914597 0.727049 0.197331
0.967870 0.730703 0.201263
0.124230 0.754884 0.171835
0.177562 0.756862 0.173997
0.230923 0.758888 0.176212
0.284305 0.760953 0.178468
0.337683 0.763035 0.180742
0.391016 0.765097 0.182994
0.444250 0.767097 0.185176
0.497332 0.768994 0.187245
0.550226 0.770776 0.189184
0.602938 0.772474 0.191030
0.655520 0.774179 0.192878
0.708064 0.776033 0.194883
0.760686 0.778206 0.197227
0.813490 0.780852 0.200077
0.866543 0.784052 0.203523
0.919841 0.787776 0.207530
0.973313 0.791868 0.211932
0.132053 0.814376 0.180816
0.185204 0.816429 0.183052
0.238326 0.818491 0.185296
0.291404 0.820547 0.187533
0.344421 0.822581 0.189744
0.397357 0.824576 0.191910
0.450194 0.826520 0.194020
0.502927 0.828418 0.196077
0.555567 0.830300 0.198116
0.608149 0.832231 0.200203
0.660734 0.834307 0.202443
0.713394 0.836642 0.204959
0.766198 0.839341 0.207866
0.819186 0.842458 0.211221
0.872350 0.845958 0.214987
0.925628 0.849706 0.219019
0.978918 0.853502 0.223102
0.139133 0.874299 0.190228
0.192105 0.876469 0.192582
0.245028 0.878635 0.194929
0.297894 0.880788 0.197260
0.350698 0.882919 0.199567
0.403437 0.885028 0.201848
0.456112 0.887122 0.204110
0.508735 0.889221 0.206377
0.561331 0.891365 0.208689
0.613931 0.893607 0.211106
0.666575 0.896008 0.213692
0.719299 0.898621 0.216505
0.772120 0.901467 0.219567
0.825026 0.904511 0.222842
0.877973 0.907658 0.226227
0.930893 0.910772 0.229577
0.983713 0.913712 0.232739
0.145707 0.934852 0.200289
0.198546 0.937161 0.202785
0.251335 0.939455 0.205263
0.304071 0.941729 0.207717
0.356754 0.943978 0.210144
0.409387 0.946205 0.212547
0.461978 0.948422 0.214936
0.514539 0.950643 0.217329
0.567085 0.952892 0.219751
0.619633 0.955192 0.222228
0.672197 0.957562 0.224778
0.724780 0.960000 0.227401
0.777373 0.962481 0.230070
0.829949 0.964949 0.232724
0.882472 0.967328 0.235283
0.934902 0.969541 0.237663
0.987208 0.971527 0.239800
0.075922 0.048304 0.178791
0.127174 0.048306 0.178793
0.178423 0.048306 0.178792
0.229672 0.048304 0.178791
0.280924 0.048306 0.178793
0.332190 0.048318 0.178806
0.383483 0.048352 0.178843
0.434827 0.048425 0.178924
0.486254 0.048562 0.179075
0.537802 0.048793 0.179329
0.589516 0.049153 0.179726
0.641435 0.049672 0.180298
0.693584 0.050370 0.181066
